(G-CODE GENERATED BY FLATCAM v8.991 - www.flatcam.org - Version Date: 2019/12/27)

(Name: Drill_PTH_Through.DRL_cnc)
(Type: G-code from Excellon)
(Units: MM)

(Created on Friday, 05 July 2024 at 18:34)

(Feedrate: 300.0 mm/min)
(Feedrate rapids 1500.0 mm/min)

(Z_Cut: -2.2 mm)
(Z_Move: 2.0 mm)
(Z Toolchange: 15.0 mm)
(X,Y Toolchange: 0.0000, 0.0000 mm)
(Z Start: None mm)
(Z End: 0.5 mm)
(Steps per circle: 64)
(Preprocessor Excellon: default)

(X range:    5.0495 ...   41.8745  mm)
(Y range:    8.0695 ...   24.6105  mm)

(Spindle Speed: None RPM)
G21
G90
G94




G01 F300.00
G00 Z2.0000

M03
G00 X31.0640 Y23.9600
G01 Z-2.2000
G01 Z0
G00 Z2.0000
G00 X31.0640 Y23.9600
G01 Z-2.2000
G01 Z0
G00 Z2.0000
G00 X26.0560 Y23.9600
G01 Z-2.2000
G01 Z0
G00 Z2.0000
G00 X36.2160 Y23.9600
G01 Z-2.2000
G01 Z0
G00 Z2.0000
G00 X41.2240 Y23.9600
G01 Z-2.2000
G01 Z0
G00 Z2.0000
G00 X41.2240 Y8.7200
G01 Z-2.2000
G01 Z0
G00 Z2.0000
G00 X36.2160 Y8.7200
G01 Z-2.2000
G01 Z0
G00 Z2.0000
G00 X31.0640 Y8.7200
G01 Z-2.2000
G01 Z0
G00 Z2.0000
G00 X26.0560 Y8.7200
G01 Z-2.2000
G01 Z0
G00 Z2.0000
G00 X15.8600 Y8.7200
G01 Z-2.2000
G01 Z0
G00 Z2.0000
G00 X10.7800 Y8.7200
G01 Z-2.2000
G01 Z0
G00 Z2.0000
G00 X5.7000 Y8.7200
G01 Z-2.2000
G01 Z0
G00 Z2.0000
G00 X8.2760 Y23.9600
G01 Z-2.2000
G01 Z0
G00 Z2.0000
G00 X13.2840 Y23.9600
G01 Z-2.2000
G01 Z0
G00 Z2.0000
M05
G00 Z0.50
G00 X0.0 Y0.0

