(G-CODE GENERATED BY FLATCAM v8.991 - www.flatcam.org - Version Date: 2019/12/27)

(Name: Gerber_BottomLayer.GBL_iso3_cnc)
(Type: G-code from Geometry)
(Units: MM)

(Created on Friday, 05 July 2024 at 18:33)

(TOOL DIAMETER: 0.2 mm)
(Feedrate: 120.0 mm/min)
(Feedrate_Z: 60.0 mm/min)
(Feedrate rapids 1500.0 mm/min)

(Z_Cut: -0.09 mm)
(Z_Move: 2.0 mm)
(Z Toolchange: 15.0 mm)
(X,Y Toolchange: 0.0000, 0.0000 mm)
(Z Start: None mm)
(Z End: 15.0 mm)
(Steps per circle: 64)
(Preprocessor Geometry: default)

(X range:    4.2406 ...   42.6839  mm)
(Y range:    0.1667 ...   31.3703  mm)

(Spindle Speed: None RPM)
G21
G90
G94




G01 F120.00
G00 Z2.0000

M03
G00 X4.6397 Y7.7176
G01 F60.00
G01 Z-0.0900
G01 F120.00
G01 X4.6397 Y6.5610
G01 X4.6403 Y6.5384
G01 X4.6431 Y6.4796
G01 X4.6476 Y6.4347
G01 X4.6562 Y6.3764
G01 X4.6650 Y6.3321
G01 X4.6793 Y6.2750
G01 X4.6924 Y6.2318
G01 X4.7123 Y6.1763
G01 X4.7296 Y6.1346
G01 X4.7547 Y6.0813
G01 X4.7760 Y6.0415
G01 X4.8063 Y5.9910
G01 X4.8314 Y5.9535
G01 X4.8665 Y5.9062
G01 X4.8951 Y5.8713
G01 X4.9347 Y5.8276
G01 X4.9503 Y5.8113
G01 X10.2843 Y0.4773
G01 X10.3006 Y0.4617
G01 X10.3443 Y0.4221
G01 X10.3792 Y0.3935
G01 X10.4265 Y0.3584
G01 X10.4640 Y0.3333
G01 X10.5145 Y0.3030
G01 X10.5543 Y0.2817
G01 X10.6076 Y0.2566
G01 X10.6493 Y0.2393
G01 X10.7048 Y0.2194
G01 X10.7480 Y0.2063
G01 X10.8051 Y0.1920
G01 X10.8494 Y0.1832
G01 X10.9077 Y0.1746
G01 X10.9526 Y0.1701
G01 X11.0114 Y0.1673
G01 X11.0340 Y0.1667
G01 X37.4500 Y0.1667
G01 X37.4726 Y0.1673
G01 X37.5314 Y0.1701
G01 X37.5763 Y0.1746
G01 X37.6346 Y0.1832
G01 X37.6789 Y0.1920
G01 X37.7360 Y0.2063
G01 X37.7792 Y0.2194
G01 X37.8347 Y0.2393
G01 X37.8764 Y0.2566
G01 X37.9297 Y0.2817
G01 X37.9695 Y0.3030
G01 X38.0200 Y0.3333
G01 X38.0575 Y0.3584
G01 X38.1048 Y0.3935
G01 X38.1397 Y0.4221
G01 X38.1834 Y0.4617
G01 X38.1997 Y0.4773
G01 X41.9742 Y4.2517
G01 X41.9897 Y4.2680
G01 X42.0293 Y4.3117
G01 X42.0579 Y4.3466
G01 X42.0930 Y4.3939
G01 X42.1181 Y4.4314
G01 X42.1484 Y4.4820
G01 X42.1697 Y4.5218
G01 X42.1949 Y4.5750
G01 X42.2121 Y4.6167
G01 X42.2320 Y4.6722
G01 X42.2451 Y4.7154
G01 X42.2594 Y4.7726
G01 X42.2682 Y4.8168
G01 X42.2769 Y4.8751
G01 X42.2813 Y4.9200
G01 X42.2842 Y4.9789
G01 X42.2847 Y5.0014
G01 X42.2847 Y7.7176
G01 X42.3383 Y7.7767
G01 X42.3669 Y7.8116
G01 X42.4254 Y7.8904
G01 X42.4505 Y7.9279
G01 X42.5009 Y8.0121
G01 X42.5222 Y8.0519
G01 X42.5641 Y8.1406
G01 X42.5814 Y8.1823
G01 X42.6145 Y8.2747
G01 X42.6276 Y8.3179
G01 X42.6514 Y8.4131
G01 X42.6602 Y8.4574
G01 X42.6746 Y8.5545
G01 X42.6791 Y8.5994
G01 X42.6839 Y8.6974
G01 X42.6839 Y8.7426
G01 X42.6791 Y8.8406
G01 X42.6746 Y8.8855
G01 X42.6602 Y8.9826
G01 X42.6514 Y9.0269
G01 X42.6276 Y9.1221
G01 X42.6145 Y9.1653
G01 X42.5814 Y9.2577
G01 X42.5641 Y9.2994
G01 X42.5222 Y9.3881
G01 X42.5009 Y9.4279
G01 X42.4505 Y9.5121
G01 X42.4254 Y9.5496
G01 X42.3669 Y9.6284
G01 X42.3383 Y9.6633
G01 X42.2848 Y9.7224
G01 X42.2848 Y22.9576
G01 X42.3383 Y23.0167
G01 X42.3669 Y23.0516
G01 X42.4254 Y23.1304
G01 X42.4505 Y23.1679
G01 X42.5009 Y23.2521
G01 X42.5222 Y23.2919
G01 X42.5641 Y23.3806
G01 X42.5814 Y23.4223
G01 X42.6145 Y23.5147
G01 X42.6276 Y23.5579
G01 X42.6514 Y23.6531
G01 X42.6602 Y23.6974
G01 X42.6746 Y23.7945
G01 X42.6791 Y23.8394
G01 X42.6839 Y23.9374
G01 X42.6839 Y23.9826
G01 X42.6791 Y24.0806
G01 X42.6746 Y24.1255
G01 X42.6602 Y24.2226
G01 X42.6514 Y24.2669
G01 X42.6276 Y24.3621
G01 X42.6145 Y24.4053
G01 X42.5814 Y24.4977
G01 X42.5641 Y24.5394
G01 X42.5222 Y24.6281
G01 X42.5009 Y24.6679
G01 X42.4505 Y24.7521
G01 X42.4254 Y24.7896
G01 X42.3669 Y24.8684
G01 X42.3383 Y24.9033
G01 X42.2724 Y24.9760
G01 X42.2405 Y25.0079
G01 X42.1677 Y25.0738
G01 X42.1328 Y25.1025
G01 X42.0540 Y25.1609
G01 X42.0165 Y25.1860
G01 X41.9323 Y25.2365
G01 X41.8925 Y25.2578
G01 X41.8038 Y25.2997
G01 X41.7621 Y25.3170
G01 X41.6697 Y25.3501
G01 X41.6265 Y25.3632
G01 X41.5313 Y25.3870
G01 X41.4870 Y25.3958
G01 X41.3899 Y25.4102
G01 X41.3450 Y25.4146
G01 X41.2470 Y25.4194
G01 X41.2019 Y25.4194
G01 X41.1038 Y25.4146
G01 X41.0589 Y25.4102
G01 X40.9618 Y25.3958
G01 X40.9176 Y25.3870
G01 X40.8224 Y25.3632
G01 X40.7792 Y25.3501
G01 X40.6868 Y25.3170
G01 X40.6451 Y25.2997
G01 X40.5564 Y25.2578
G01 X40.5165 Y25.2365
G01 X40.4324 Y25.1860
G01 X40.3948 Y25.1609
G01 X40.3160 Y25.1025
G01 X40.2811 Y25.0738
G01 X40.2084 Y25.0079
G01 X40.1765 Y24.9760
G01 X40.1106 Y24.9033
G01 X40.0819 Y24.8684
G01 X40.0235 Y24.7896
G01 X39.9984 Y24.7521
G01 X39.9480 Y24.6679
G01 X39.9267 Y24.6281
G01 X39.8847 Y24.5394
G01 X39.8674 Y24.4977
G01 X39.8344 Y24.4053
G01 X39.8213 Y24.3621
G01 X39.7974 Y24.2669
G01 X39.7886 Y24.2226
G01 X39.7742 Y24.1255
G01 X39.7698 Y24.0806
G01 X39.7650 Y23.9826
G01 X39.7650 Y23.9374
G01 X39.7698 Y23.8394
G01 X39.7742 Y23.7945
G01 X39.7886 Y23.6974
G01 X39.7974 Y23.6531
G01 X39.8213 Y23.5579
G01 X39.8344 Y23.5147
G01 X39.8674 Y23.4223
G01 X39.8847 Y23.3806
G01 X39.9267 Y23.2919
G01 X39.9480 Y23.2521
G01 X39.9984 Y23.1679
G01 X40.0235 Y23.1304
G01 X40.0819 Y23.0516
G01 X40.1106 Y23.0167
G01 X40.1642 Y22.9576
G01 X40.1642 Y9.7224
G01 X40.1106 Y9.6633
G01 X40.0819 Y9.6284
G01 X40.0235 Y9.5496
G01 X39.9984 Y9.5121
G01 X39.9480 Y9.4279
G01 X39.9267 Y9.3881
G01 X39.8847 Y9.2994
G01 X39.8674 Y9.2577
G01 X39.8344 Y9.1653
G01 X39.8213 Y9.1221
G01 X39.7974 Y9.0269
G01 X39.7886 Y8.9826
G01 X39.7742 Y8.8855
G01 X39.7698 Y8.8406
G01 X39.7650 Y8.7426
G01 X39.7650 Y8.6974
G01 X39.7698 Y8.5994
G01 X39.7742 Y8.5545
G01 X39.7886 Y8.4574
G01 X39.7974 Y8.4131
G01 X39.8213 Y8.3179
G01 X39.8344 Y8.2747
G01 X39.8674 Y8.1823
G01 X39.8847 Y8.1406
G01 X39.9267 Y8.0519
G01 X39.9480 Y8.0121
G01 X39.9984 Y7.9279
G01 X40.0235 Y7.8904
G01 X40.0819 Y7.8116
G01 X40.1106 Y7.7767
G01 X40.1641 Y7.7176
G01 X40.1641 Y5.4406
G01 X37.0108 Y2.2873
G01 X11.4732 Y2.2873
G01 X6.7603 Y7.0002
G01 X6.7603 Y7.7176
G01 X6.8138 Y7.7767
G01 X6.8425 Y7.8116
G01 X6.9009 Y7.8904
G01 X6.9260 Y7.9279
G01 X6.9765 Y8.0121
G01 X6.9978 Y8.0519
G01 X7.0397 Y8.1406
G01 X7.0570 Y8.1823
G01 X7.0901 Y8.2747
G01 X7.1032 Y8.3179
G01 X7.1270 Y8.4131
G01 X7.1358 Y8.4574
G01 X7.1502 Y8.5545
G01 X7.1546 Y8.5994
G01 X7.1594 Y8.6974
G01 X7.1594 Y8.7426
G01 X7.1546 Y8.8406
G01 X7.1502 Y8.8855
G01 X7.1358 Y8.9826
G01 X7.1270 Y9.0269
G01 X7.1032 Y9.1221
G01 X7.0901 Y9.1653
G01 X7.0570 Y9.2577
G01 X7.0397 Y9.2994
G01 X6.9978 Y9.3881
G01 X6.9765 Y9.4279
G01 X6.9260 Y9.5121
G01 X6.9009 Y9.5496
G01 X6.8425 Y9.6284
G01 X6.8138 Y9.6633
G01 X6.7479 Y9.7360
G01 X6.7160 Y9.7679
G01 X6.6433 Y9.8338
G01 X6.6084 Y9.8625
G01 X6.5296 Y9.9209
G01 X6.4921 Y9.9460
G01 X6.4079 Y9.9965
G01 X6.3681 Y10.0178
G01 X6.2794 Y10.0597
G01 X6.2377 Y10.0770
G01 X6.1453 Y10.1101
G01 X6.1021 Y10.1232
G01 X6.0069 Y10.1470
G01 X5.9626 Y10.1558
G01 X5.8655 Y10.1702
G01 X5.8206 Y10.1746
G01 X5.7226 Y10.1794
G01 X5.6774 Y10.1794
G01 X5.5794 Y10.1746
G01 X5.5345 Y10.1702
G01 X5.4374 Y10.1558
G01 X5.3931 Y10.1470
G01 X5.2979 Y10.1232
G01 X5.2547 Y10.1101
G01 X5.1623 Y10.0770
G01 X5.1206 Y10.0597
G01 X5.0319 Y10.0178
G01 X4.9921 Y9.9965
G01 X4.9079 Y9.9460
G01 X4.8704 Y9.9209
G01 X4.7916 Y9.8625
G01 X4.7567 Y9.8338
G01 X4.6840 Y9.7679
G01 X4.6521 Y9.7360
G01 X4.5862 Y9.6633
G01 X4.5575 Y9.6284
G01 X4.4991 Y9.5496
G01 X4.4740 Y9.5121
G01 X4.4235 Y9.4279
G01 X4.4022 Y9.3881
G01 X4.3603 Y9.2994
G01 X4.3430 Y9.2577
G01 X4.3099 Y9.1653
G01 X4.2968 Y9.1221
G01 X4.2730 Y9.0269
G01 X4.2642 Y8.9826
G01 X4.2498 Y8.8855
G01 X4.2454 Y8.8406
G01 X4.2406 Y8.7426
G01 X4.2406 Y8.6974
G01 X4.2454 Y8.5994
G01 X4.2498 Y8.5545
G01 X4.2642 Y8.4574
G01 X4.2730 Y8.4131
G01 X4.2968 Y8.3179
G01 X4.3099 Y8.2747
G01 X4.3430 Y8.1823
G01 X4.3603 Y8.1406
G01 X4.4022 Y8.0519
G01 X4.4235 Y8.0121
G01 X4.4740 Y7.9279
G01 X4.4991 Y7.8904
G01 X4.5575 Y7.8116
G01 X4.5862 Y7.7767
G01 X4.6397 Y7.7176
G00 Z2.0000
G00 X10.7391 Y7.2615
G01 F60.00
G01 Z-0.0900
G01 F120.00
G01 X14.4753 Y3.5253
G01 X14.4916 Y3.5097
G01 X14.5353 Y3.4701
G01 X14.5702 Y3.4415
G01 X14.6175 Y3.4064
G01 X14.6550 Y3.3813
G01 X14.7055 Y3.3510
G01 X14.7453 Y3.3297
G01 X14.7986 Y3.3046
G01 X14.8403 Y3.2873
G01 X14.8958 Y3.2674
G01 X14.9390 Y3.2543
G01 X14.9961 Y3.2400
G01 X15.0404 Y3.2312
G01 X15.0987 Y3.2226
G01 X15.1436 Y3.2181
G01 X15.2024 Y3.2153
G01 X15.2250 Y3.2147
G01 X31.7706 Y3.2147
G01 X31.7931 Y3.2153
G01 X31.8520 Y3.2181
G01 X31.8969 Y3.2226
G01 X31.9552 Y3.2312
G01 X31.9994 Y3.2400
G01 X32.0566 Y3.2543
G01 X32.0998 Y3.2674
G01 X32.1553 Y3.2873
G01 X32.1970 Y3.3046
G01 X32.2502 Y3.3297
G01 X32.2900 Y3.3510
G01 X32.3406 Y3.3813
G01 X32.3781 Y3.4064
G01 X32.4254 Y3.4415
G01 X32.4603 Y3.4701
G01 X32.5040 Y3.5097
G01 X32.5203 Y3.5253
G01 X36.2565 Y7.2615
G01 X36.3361 Y7.2654
G01 X36.3811 Y7.2698
G01 X36.4781 Y7.2842
G01 X36.5224 Y7.2930
G01 X36.6176 Y7.3168
G01 X36.6608 Y7.3299
G01 X36.7532 Y7.3630
G01 X36.7949 Y7.3803
G01 X36.8836 Y7.4222
G01 X36.9234 Y7.4435
G01 X37.0076 Y7.4940
G01 X37.0452 Y7.5191
G01 X37.1240 Y7.5775
G01 X37.1589 Y7.6062
G01 X37.2316 Y7.6721
G01 X37.2635 Y7.7040
G01 X37.3294 Y7.7767
G01 X37.3580 Y7.8116
G01 X37.4165 Y7.8904
G01 X37.4416 Y7.9279
G01 X37.4920 Y8.0121
G01 X37.5133 Y8.0519
G01 X37.5553 Y8.1406
G01 X37.5725 Y8.1823
G01 X37.6056 Y8.2747
G01 X37.6187 Y8.3179
G01 X37.6426 Y8.4131
G01 X37.6514 Y8.4574
G01 X37.6658 Y8.5545
G01 X37.6702 Y8.5994
G01 X37.6750 Y8.6974
G01 X37.6750 Y8.7426
G01 X37.6702 Y8.8406
G01 X37.6658 Y8.8855
G01 X37.6514 Y8.9826
G01 X37.6426 Y9.0269
G01 X37.6187 Y9.1221
G01 X37.6056 Y9.1653
G01 X37.5725 Y9.2577
G01 X37.5553 Y9.2994
G01 X37.5133 Y9.3881
G01 X37.4920 Y9.4279
G01 X37.4416 Y9.5121
G01 X37.4165 Y9.5496
G01 X37.3580 Y9.6284
G01 X37.3294 Y9.6633
G01 X37.2759 Y9.7224
G01 X37.2759 Y22.9576
G01 X37.3294 Y23.0167
G01 X37.3580 Y23.0516
G01 X37.4165 Y23.1304
G01 X37.4416 Y23.1679
G01 X37.4920 Y23.2521
G01 X37.5133 Y23.2919
G01 X37.5553 Y23.3806
G01 X37.5725 Y23.4223
G01 X37.6056 Y23.5147
G01 X37.6187 Y23.5579
G01 X37.6426 Y23.6531
G01 X37.6514 Y23.6974
G01 X37.6658 Y23.7945
G01 X37.6702 Y23.8394
G01 X37.6750 Y23.9374
G01 X37.6750 Y23.9826
G01 X37.6702 Y24.0806
G01 X37.6658 Y24.1255
G01 X37.6514 Y24.2226
G01 X37.6426 Y24.2669
G01 X37.6187 Y24.3621
G01 X37.6056 Y24.4053
G01 X37.5725 Y24.4977
G01 X37.5553 Y24.5394
G01 X37.5133 Y24.6281
G01 X37.4920 Y24.6679
G01 X37.4416 Y24.7521
G01 X37.4165 Y24.7896
G01 X37.3580 Y24.8684
G01 X37.3294 Y24.9033
G01 X37.2635 Y24.9760
G01 X37.2316 Y25.0079
G01 X37.1589 Y25.0738
G01 X37.1240 Y25.1025
G01 X37.0452 Y25.1609
G01 X37.0076 Y25.1860
G01 X36.9234 Y25.2365
G01 X36.8836 Y25.2578
G01 X36.7949 Y25.2997
G01 X36.7532 Y25.3170
G01 X36.6608 Y25.3501
G01 X36.6176 Y25.3632
G01 X36.5224 Y25.3870
G01 X36.4781 Y25.3958
G01 X36.3811 Y25.4102
G01 X36.3361 Y25.4146
G01 X36.2381 Y25.4194
G01 X36.1930 Y25.4194
G01 X36.0950 Y25.4146
G01 X36.0500 Y25.4102
G01 X35.9530 Y25.3958
G01 X35.9087 Y25.3870
G01 X35.8135 Y25.3632
G01 X35.7703 Y25.3501
G01 X35.6779 Y25.3170
G01 X35.6362 Y25.2997
G01 X35.5475 Y25.2578
G01 X35.5077 Y25.2365
G01 X35.4235 Y25.1860
G01 X35.3860 Y25.1609
G01 X35.3071 Y25.1025
G01 X35.2722 Y25.0738
G01 X35.1995 Y25.0079
G01 X35.1676 Y24.9760
G01 X35.1017 Y24.9033
G01 X35.0731 Y24.8684
G01 X35.0146 Y24.7896
G01 X34.9895 Y24.7521
G01 X34.9391 Y24.6679
G01 X34.9178 Y24.6281
G01 X34.8758 Y24.5394
G01 X34.8586 Y24.4977
G01 X34.8255 Y24.4053
G01 X34.8124 Y24.3621
G01 X34.7886 Y24.2669
G01 X34.7798 Y24.2226
G01 X34.7654 Y24.1255
G01 X34.7609 Y24.0806
G01 X34.7561 Y23.9826
G01 X34.7561 Y23.9374
G01 X34.7609 Y23.8394
G01 X34.7654 Y23.7945
G01 X34.7798 Y23.6974
G01 X34.7886 Y23.6531
G01 X34.8124 Y23.5579
G01 X34.8255 Y23.5147
G01 X34.8586 Y23.4223
G01 X34.8758 Y23.3806
G01 X34.9178 Y23.2919
G01 X34.9391 Y23.2521
G01 X34.9895 Y23.1679
G01 X35.0146 Y23.1304
G01 X35.0731 Y23.0516
G01 X35.1017 Y23.0167
G01 X35.1553 Y22.9576
G01 X35.1553 Y9.7224
G01 X35.1017 Y9.6633
G01 X35.0731 Y9.6284
G01 X35.0146 Y9.5496
G01 X34.9895 Y9.5121
G01 X34.9391 Y9.4279
G01 X34.9178 Y9.3881
G01 X34.8758 Y9.2994
G01 X34.8586 Y9.2577
G01 X34.8255 Y9.1653
G01 X34.8124 Y9.1221
G01 X34.7886 Y9.0269
G01 X34.7798 Y8.9826
G01 X34.7654 Y8.8855
G01 X34.7609 Y8.8406
G01 X34.7570 Y8.7609
G01 X31.3314 Y5.3353
G01 X15.6642 Y5.3353
G01 X12.2385 Y8.7609
G01 X12.2346 Y8.8406
G01 X12.2302 Y8.8855
G01 X12.2158 Y8.9826
G01 X12.2070 Y9.0269
G01 X12.1832 Y9.1221
G01 X12.1701 Y9.1653
G01 X12.1370 Y9.2577
G01 X12.1197 Y9.2994
G01 X12.0778 Y9.3881
G01 X12.0565 Y9.4279
G01 X12.0060 Y9.5121
G01 X11.9809 Y9.5496
G01 X11.9225 Y9.6284
G01 X11.8938 Y9.6633
G01 X11.8279 Y9.7360
G01 X11.7960 Y9.7679
G01 X11.7233 Y9.8338
G01 X11.6884 Y9.8625
G01 X11.6096 Y9.9209
G01 X11.5721 Y9.9460
G01 X11.4879 Y9.9965
G01 X11.4481 Y10.0178
G01 X11.3594 Y10.0597
G01 X11.3177 Y10.0770
G01 X11.2253 Y10.1101
G01 X11.1821 Y10.1232
G01 X11.0869 Y10.1470
G01 X11.0426 Y10.1558
G01 X10.9455 Y10.1702
G01 X10.9006 Y10.1746
G01 X10.8026 Y10.1794
G01 X10.7574 Y10.1794
G01 X10.6594 Y10.1746
G01 X10.6145 Y10.1702
G01 X10.5174 Y10.1558
G01 X10.4731 Y10.1470
G01 X10.3779 Y10.1232
G01 X10.3347 Y10.1101
G01 X10.2423 Y10.0770
G01 X10.2006 Y10.0597
G01 X10.1119 Y10.0178
G01 X10.0721 Y9.9965
G01 X9.9879 Y9.9460
G01 X9.9504 Y9.9209
G01 X9.8716 Y9.8625
G01 X9.8367 Y9.8338
G01 X9.7640 Y9.7679
G01 X9.7321 Y9.7360
G01 X9.6662 Y9.6633
G01 X9.6375 Y9.6284
G01 X9.5791 Y9.5496
G01 X9.5540 Y9.5121
G01 X9.5035 Y9.4279
G01 X9.4822 Y9.3881
G01 X9.4403 Y9.2994
G01 X9.4230 Y9.2577
G01 X9.3899 Y9.1653
G01 X9.3768 Y9.1221
G01 X9.3530 Y9.0269
G01 X9.3442 Y8.9826
G01 X9.3298 Y8.8855
G01 X9.3254 Y8.8406
G01 X9.3206 Y8.7426
G01 X9.3206 Y8.6974
G01 X9.3254 Y8.5994
G01 X9.3298 Y8.5545
G01 X9.3442 Y8.4574
G01 X9.3530 Y8.4131
G01 X9.3768 Y8.3179
G01 X9.3899 Y8.2747
G01 X9.4230 Y8.1823
G01 X9.4403 Y8.1406
G01 X9.4822 Y8.0519
G01 X9.5035 Y8.0121
G01 X9.5540 Y7.9279
G01 X9.5791 Y7.8904
G01 X9.6375 Y7.8116
G01 X9.6662 Y7.7767
G01 X9.7321 Y7.7040
G01 X9.7640 Y7.6721
G01 X9.8367 Y7.6062
G01 X9.8716 Y7.5775
G01 X9.9504 Y7.5191
G01 X9.9879 Y7.4940
G01 X10.0721 Y7.4435
G01 X10.1119 Y7.4222
G01 X10.2006 Y7.3803
G01 X10.2423 Y7.3630
G01 X10.3347 Y7.3299
G01 X10.3779 Y7.3168
G01 X10.4731 Y7.2930
G01 X10.5174 Y7.2842
G01 X10.6145 Y7.2698
G01 X10.6594 Y7.2654
G01 X10.7391 Y7.2615
G00 Z2.0000
G00 X14.2868 Y25.0203
G01 F60.00
G01 Z-0.0900
G01 F120.00
G01 X14.2277 Y25.0738
G01 X14.1928 Y25.1025
G01 X14.1140 Y25.1609
G01 X14.0765 Y25.1860
G01 X13.9923 Y25.2365
G01 X13.9525 Y25.2578
G01 X13.8638 Y25.2997
G01 X13.8221 Y25.3170
G01 X13.7297 Y25.3501
G01 X13.6865 Y25.3632
G01 X13.5913 Y25.3870
G01 X13.5470 Y25.3958
G01 X13.4499 Y25.4102
G01 X13.4050 Y25.4146
G01 X13.3070 Y25.4194
G01 X13.2619 Y25.4194
G01 X13.1638 Y25.4146
G01 X13.1189 Y25.4102
G01 X13.0218 Y25.3958
G01 X12.9776 Y25.3870
G01 X12.8824 Y25.3632
G01 X12.8392 Y25.3501
G01 X12.7468 Y25.3170
G01 X12.7051 Y25.2997
G01 X12.6164 Y25.2578
G01 X12.5765 Y25.2365
G01 X12.4924 Y25.1860
G01 X12.4548 Y25.1609
G01 X12.3760 Y25.1025
G01 X12.3411 Y25.0738
G01 X12.2684 Y25.0079
G01 X12.2365 Y24.9760
G01 X12.1706 Y24.9033
G01 X12.1419 Y24.8684
G01 X12.0835 Y24.7896
G01 X12.0584 Y24.7521
G01 X12.0080 Y24.6679
G01 X11.9867 Y24.6281
G01 X11.9447 Y24.5394
G01 X11.9274 Y24.4977
G01 X11.8944 Y24.4053
G01 X11.8813 Y24.3621
G01 X11.8574 Y24.2669
G01 X11.8486 Y24.2226
G01 X11.8342 Y24.1255
G01 X11.8298 Y24.0806
G01 X11.8250 Y23.9826
G01 X11.8250 Y23.9374
G01 X11.8298 Y23.8394
G01 X11.8342 Y23.7945
G01 X11.8486 Y23.6974
G01 X11.8574 Y23.6531
G01 X11.8813 Y23.5579
G01 X11.8944 Y23.5147
G01 X11.9274 Y23.4223
G01 X11.9447 Y23.3806
G01 X11.9867 Y23.2919
G01 X12.0080 Y23.2521
G01 X12.0584 Y23.1679
G01 X12.0835 Y23.1304
G01 X12.1419 Y23.0516
G01 X12.1706 Y23.0167
G01 X12.2365 Y22.9440
G01 X12.2684 Y22.9121
G01 X12.3411 Y22.8462
G01 X12.3760 Y22.8175
G01 X12.4548 Y22.7591
G01 X12.4924 Y22.7340
G01 X12.5765 Y22.6835
G01 X12.6164 Y22.6622
G01 X12.7051 Y22.6203
G01 X12.7468 Y22.6030
G01 X12.8392 Y22.5699
G01 X12.8824 Y22.5568
G01 X12.9776 Y22.5330
G01 X13.0218 Y22.5242
G01 X13.1189 Y22.5098
G01 X13.1638 Y22.5054
G01 X13.2619 Y22.5006
G01 X13.3070 Y22.5006
G01 X13.4050 Y22.5054
G01 X13.4499 Y22.5098
G01 X13.5470 Y22.5242
G01 X13.5913 Y22.5330
G01 X13.6865 Y22.5568
G01 X13.7297 Y22.5699
G01 X13.8221 Y22.6030
G01 X13.8638 Y22.6203
G01 X13.9525 Y22.6622
G01 X13.9923 Y22.6835
G01 X14.0765 Y22.7340
G01 X14.1140 Y22.7591
G01 X14.1928 Y22.8175
G01 X14.2277 Y22.8462
G01 X14.2868 Y22.8997
G01 X24.9953 Y22.8997
G01 X24.9953 Y9.7224
G01 X24.9417 Y9.6633
G01 X24.9131 Y9.6284
G01 X24.8546 Y9.5496
G01 X24.8295 Y9.5121
G01 X24.7791 Y9.4279
G01 X24.7578 Y9.3881
G01 X24.7158 Y9.2994
G01 X24.6986 Y9.2577
G01 X24.6655 Y9.1653
G01 X24.6524 Y9.1221
G01 X24.6286 Y9.0269
G01 X24.6198 Y8.9826
G01 X24.6054 Y8.8855
G01 X24.6009 Y8.8406
G01 X24.5961 Y8.7426
G01 X24.5961 Y8.6974
G01 X24.6009 Y8.5994
G01 X24.6054 Y8.5545
G01 X24.6198 Y8.4574
G01 X24.6286 Y8.4131
G01 X24.6524 Y8.3179
G01 X24.6655 Y8.2747
G01 X24.6986 Y8.1823
G01 X24.7158 Y8.1406
G01 X24.7578 Y8.0519
G01 X24.7791 Y8.0121
G01 X24.8295 Y7.9279
G01 X24.8546 Y7.8904
G01 X24.9131 Y7.8116
G01 X24.9417 Y7.7767
G01 X25.0076 Y7.7040
G01 X25.0395 Y7.6721
G01 X25.1122 Y7.6062
G01 X25.1471 Y7.5775
G01 X25.2260 Y7.5191
G01 X25.2635 Y7.4940
G01 X25.3477 Y7.4435
G01 X25.3875 Y7.4222
G01 X25.4762 Y7.3803
G01 X25.5179 Y7.3630
G01 X25.6103 Y7.3299
G01 X25.6535 Y7.3168
G01 X25.7487 Y7.2930
G01 X25.7930 Y7.2842
G01 X25.8900 Y7.2698
G01 X25.9350 Y7.2654
G01 X26.0330 Y7.2606
G01 X26.0781 Y7.2606
G01 X26.1761 Y7.2654
G01 X26.2211 Y7.2698
G01 X26.3181 Y7.2842
G01 X26.3624 Y7.2930
G01 X26.4576 Y7.3168
G01 X26.5008 Y7.3299
G01 X26.5932 Y7.3630
G01 X26.6349 Y7.3803
G01 X26.7236 Y7.4222
G01 X26.7634 Y7.4435
G01 X26.8476 Y7.4940
G01 X26.8852 Y7.5191
G01 X26.9640 Y7.5775
G01 X26.9989 Y7.6062
G01 X27.0716 Y7.6721
G01 X27.1035 Y7.7040
G01 X27.1694 Y7.7767
G01 X27.1980 Y7.8116
G01 X27.2565 Y7.8904
G01 X27.2816 Y7.9279
G01 X27.3320 Y8.0121
G01 X27.3533 Y8.0519
G01 X27.3953 Y8.1406
G01 X27.4125 Y8.1823
G01 X27.4456 Y8.2747
G01 X27.4587 Y8.3179
G01 X27.4826 Y8.4131
G01 X27.4914 Y8.4574
G01 X27.5058 Y8.5545
G01 X27.5102 Y8.5994
G01 X27.5150 Y8.6974
G01 X27.5150 Y8.7426
G01 X27.5102 Y8.8406
G01 X27.5058 Y8.8855
G01 X27.4914 Y8.9826
G01 X27.4826 Y9.0269
G01 X27.4587 Y9.1221
G01 X27.4456 Y9.1653
G01 X27.4125 Y9.2577
G01 X27.3953 Y9.2994
G01 X27.3533 Y9.3881
G01 X27.3320 Y9.4279
G01 X27.2816 Y9.5121
G01 X27.2565 Y9.5496
G01 X27.1980 Y9.6284
G01 X27.1694 Y9.6633
G01 X27.1159 Y9.7224
G01 X27.1159 Y22.9576
G01 X27.1694 Y23.0167
G01 X27.1980 Y23.0516
G01 X27.2565 Y23.1304
G01 X27.2816 Y23.1679
G01 X27.3320 Y23.2521
G01 X27.3533 Y23.2919
G01 X27.3953 Y23.3806
G01 X27.4125 Y23.4223
G01 X27.4456 Y23.5147
G01 X27.4587 Y23.5579
G01 X27.4826 Y23.6531
G01 X27.4914 Y23.6974
G01 X27.5058 Y23.7945
G01 X27.5102 Y23.8394
G01 X27.5150 Y23.9374
G01 X27.5150 Y23.9826
G01 X27.5102 Y24.0806
G01 X27.5058 Y24.1255
G01 X27.4914 Y24.2226
G01 X27.4826 Y24.2669
G01 X27.4587 Y24.3621
G01 X27.4456 Y24.4053
G01 X27.4125 Y24.4977
G01 X27.3953 Y24.5394
G01 X27.3533 Y24.6281
G01 X27.3320 Y24.6679
G01 X27.2816 Y24.7521
G01 X27.2565 Y24.7896
G01 X27.1980 Y24.8684
G01 X27.1694 Y24.9033
G01 X27.1035 Y24.9760
G01 X27.0716 Y25.0079
G01 X26.9989 Y25.0738
G01 X26.9640 Y25.1025
G01 X26.8852 Y25.1609
G01 X26.8476 Y25.1860
G01 X26.7634 Y25.2365
G01 X26.7236 Y25.2578
G01 X26.6349 Y25.2997
G01 X26.5932 Y25.3170
G01 X26.5008 Y25.3501
G01 X26.4576 Y25.3632
G01 X26.3624 Y25.3870
G01 X26.3181 Y25.3958
G01 X26.2211 Y25.4102
G01 X26.1761 Y25.4146
G01 X26.0781 Y25.4194
G01 X26.0330 Y25.4194
G01 X25.9350 Y25.4146
G01 X25.8900 Y25.4102
G01 X25.7930 Y25.3958
G01 X25.7487 Y25.3870
G01 X25.6535 Y25.3632
G01 X25.6103 Y25.3501
G01 X25.5179 Y25.3170
G01 X25.4762 Y25.2997
G01 X25.3875 Y25.2578
G01 X25.3477 Y25.2365
G01 X25.2635 Y25.1860
G01 X25.2260 Y25.1609
G01 X25.1471 Y25.1025
G01 X25.1122 Y25.0738
G01 X25.0532 Y25.0203
G01 X14.2868 Y25.0203
G00 Z2.0000
G00 X8.2346 Y25.4185
G01 F60.00
G01 Z-0.0900
G01 F120.00
G01 X8.1550 Y25.4146
G01 X8.1100 Y25.4102
G01 X8.0130 Y25.3958
G01 X7.9687 Y25.3870
G01 X7.8735 Y25.3632
G01 X7.8303 Y25.3501
G01 X7.7379 Y25.3170
G01 X7.6962 Y25.2997
G01 X7.6075 Y25.2578
G01 X7.5677 Y25.2365
G01 X7.4835 Y25.1860
G01 X7.4460 Y25.1609
G01 X7.3671 Y25.1025
G01 X7.3322 Y25.0738
G01 X7.2595 Y25.0079
G01 X7.2276 Y24.9760
G01 X7.1617 Y24.9033
G01 X7.1331 Y24.8684
G01 X7.0746 Y24.7896
G01 X7.0495 Y24.7521
G01 X6.9991 Y24.6679
G01 X6.9778 Y24.6281
G01 X6.9358 Y24.5394
G01 X6.9186 Y24.4977
G01 X6.8855 Y24.4053
G01 X6.8724 Y24.3621
G01 X6.8486 Y24.2669
G01 X6.8397 Y24.2226
G01 X6.8253 Y24.1255
G01 X6.8209 Y24.0806
G01 X6.8161 Y23.9826
G01 X6.8161 Y23.9374
G01 X6.8209 Y23.8394
G01 X6.8253 Y23.7945
G01 X6.8397 Y23.6974
G01 X6.8486 Y23.6531
G01 X6.8724 Y23.5579
G01 X6.8855 Y23.5147
G01 X6.9186 Y23.4223
G01 X6.9358 Y23.3806
G01 X6.9778 Y23.2919
G01 X6.9991 Y23.2521
G01 X7.0495 Y23.1679
G01 X7.0746 Y23.1304
G01 X7.1331 Y23.0516
G01 X7.1617 Y23.0167
G01 X7.2276 Y22.9440
G01 X7.2595 Y22.9121
G01 X7.3322 Y22.8462
G01 X7.3671 Y22.8175
G01 X7.4460 Y22.7591
G01 X7.4835 Y22.7340
G01 X7.5677 Y22.6835
G01 X7.6075 Y22.6622
G01 X7.6962 Y22.6203
G01 X7.7379 Y22.6030
G01 X7.8303 Y22.5699
G01 X7.8735 Y22.5568
G01 X7.9687 Y22.5330
G01 X8.0130 Y22.5242
G01 X8.1100 Y22.5098
G01 X8.1550 Y22.5054
G01 X8.2347 Y22.5015
G01 X14.7997 Y15.9364
G01 X14.7997 Y9.7224
G01 X14.7462 Y9.6633
G01 X14.7175 Y9.6284
G01 X14.6591 Y9.5496
G01 X14.6340 Y9.5121
G01 X14.5835 Y9.4279
G01 X14.5622 Y9.3881
G01 X14.5203 Y9.2994
G01 X14.5030 Y9.2577
G01 X14.4699 Y9.1653
G01 X14.4568 Y9.1221
G01 X14.4330 Y9.0269
G01 X14.4242 Y8.9826
G01 X14.4098 Y8.8855
G01 X14.4054 Y8.8406
G01 X14.4006 Y8.7426
G01 X14.4006 Y8.6974
G01 X14.4054 Y8.5994
G01 X14.4098 Y8.5545
G01 X14.4242 Y8.4574
G01 X14.4330 Y8.4131
G01 X14.4568 Y8.3179
G01 X14.4699 Y8.2747
G01 X14.5030 Y8.1823
G01 X14.5203 Y8.1406
G01 X14.5622 Y8.0519
G01 X14.5835 Y8.0121
G01 X14.6340 Y7.9279
G01 X14.6591 Y7.8904
G01 X14.7175 Y7.8116
G01 X14.7462 Y7.7767
G01 X14.8121 Y7.7040
G01 X14.8440 Y7.6721
G01 X14.9167 Y7.6062
G01 X14.9516 Y7.5775
G01 X15.0304 Y7.5191
G01 X15.0679 Y7.4940
G01 X15.1521 Y7.4435
G01 X15.1919 Y7.4222
G01 X15.2806 Y7.3803
G01 X15.3223 Y7.3630
G01 X15.4147 Y7.3299
G01 X15.4579 Y7.3168
G01 X15.5531 Y7.2930
G01 X15.5974 Y7.2842
G01 X15.6945 Y7.2698
G01 X15.7394 Y7.2654
G01 X15.8374 Y7.2606
G01 X15.8826 Y7.2606
G01 X15.9806 Y7.2654
G01 X16.0255 Y7.2698
G01 X16.1226 Y7.2842
G01 X16.1669 Y7.2930
G01 X16.2621 Y7.3168
G01 X16.3053 Y7.3299
G01 X16.3977 Y7.3630
G01 X16.4394 Y7.3803
G01 X16.5281 Y7.4222
G01 X16.5679 Y7.4435
G01 X16.6521 Y7.4940
G01 X16.6896 Y7.5191
G01 X16.7684 Y7.5775
G01 X16.8033 Y7.6062
G01 X16.8760 Y7.6721
G01 X16.9079 Y7.7040
G01 X16.9738 Y7.7767
G01 X17.0025 Y7.8116
G01 X17.0609 Y7.8904
G01 X17.0860 Y7.9279
G01 X17.1365 Y8.0121
G01 X17.1578 Y8.0519
G01 X17.1997 Y8.1406
G01 X17.2170 Y8.1823
G01 X17.2501 Y8.2747
G01 X17.2632 Y8.3179
G01 X17.2870 Y8.4131
G01 X17.2958 Y8.4574
G01 X17.3102 Y8.5545
G01 X17.3146 Y8.5994
G01 X17.3194 Y8.6974
G01 X17.3194 Y8.7426
G01 X17.3146 Y8.8406
G01 X17.3102 Y8.8855
G01 X17.2958 Y8.9826
G01 X17.2870 Y9.0269
G01 X17.2632 Y9.1221
G01 X17.2501 Y9.1653
G01 X17.2170 Y9.2577
G01 X17.1997 Y9.2994
G01 X17.1578 Y9.3881
G01 X17.1365 Y9.4279
G01 X17.0860 Y9.5121
G01 X17.0609 Y9.5496
G01 X17.0025 Y9.6284
G01 X16.9738 Y9.6633
G01 X16.9203 Y9.7224
G01 X16.9203 Y16.3756
G01 X16.9198 Y16.3982
G01 X16.9169 Y16.4570
G01 X16.9125 Y16.5019
G01 X16.9038 Y16.5602
G01 X16.8950 Y16.6045
G01 X16.8807 Y16.6616
G01 X16.8676 Y16.7048
G01 X16.8477 Y16.7603
G01 X16.8305 Y16.8020
G01 X16.8053 Y16.8552
G01 X16.7840 Y16.8950
G01 X16.7537 Y16.9456
G01 X16.7286 Y16.9831
G01 X16.6935 Y17.0304
G01 X16.6649 Y17.0653
G01 X16.6253 Y17.1090
G01 X16.6098 Y17.1253
G01 X9.7751 Y23.9600
G01 X15.0648 Y29.2497
G01 X24.2752 Y29.2497
G01 X29.6059 Y23.9191
G01 X29.6098 Y23.8394
G01 X29.6142 Y23.7945
G01 X29.6286 Y23.6974
G01 X29.6374 Y23.6531
G01 X29.6613 Y23.5579
G01 X29.6744 Y23.5147
G01 X29.7074 Y23.4223
G01 X29.7247 Y23.3806
G01 X29.7667 Y23.2919
G01 X29.7880 Y23.2521
G01 X29.8384 Y23.1679
G01 X29.8635 Y23.1304
G01 X29.9219 Y23.0516
G01 X29.9506 Y23.0167
G01 X30.0042 Y22.9576
G01 X30.0042 Y9.7224
G01 X29.9506 Y9.6633
G01 X29.9219 Y9.6284
G01 X29.8635 Y9.5496
G01 X29.8384 Y9.5121
G01 X29.7880 Y9.4279
G01 X29.7667 Y9.3881
G01 X29.7247 Y9.2994
G01 X29.7074 Y9.2577
G01 X29.6744 Y9.1653
G01 X29.6613 Y9.1221
G01 X29.6374 Y9.0269
G01 X29.6286 Y8.9826
G01 X29.6142 Y8.8855
G01 X29.6098 Y8.8406
G01 X29.6050 Y8.7426
G01 X29.6050 Y8.6974
G01 X29.6098 Y8.5994
G01 X29.6142 Y8.5545
G01 X29.6286 Y8.4574
G01 X29.6374 Y8.4131
G01 X29.6613 Y8.3179
G01 X29.6744 Y8.2747
G01 X29.7074 Y8.1823
G01 X29.7247 Y8.1406
G01 X29.7667 Y8.0519
G01 X29.7880 Y8.0121
G01 X29.8384 Y7.9279
G01 X29.8635 Y7.8904
G01 X29.9219 Y7.8116
G01 X29.9506 Y7.7767
G01 X30.0165 Y7.7040
G01 X30.0484 Y7.6721
G01 X30.1211 Y7.6062
G01 X30.1560 Y7.5775
G01 X30.2348 Y7.5191
G01 X30.2724 Y7.4940
G01 X30.3565 Y7.4435
G01 X30.3964 Y7.4222
G01 X30.4851 Y7.3803
G01 X30.5268 Y7.3630
G01 X30.6192 Y7.3299
G01 X30.6624 Y7.3168
G01 X30.7576 Y7.2930
G01 X30.8018 Y7.2842
G01 X30.8989 Y7.2698
G01 X30.9438 Y7.2654
G01 X31.0419 Y7.2606
G01 X31.0870 Y7.2606
G01 X31.1850 Y7.2654
G01 X31.2299 Y7.2698
G01 X31.3270 Y7.2842
G01 X31.3713 Y7.2930
G01 X31.4665 Y7.3168
G01 X31.5097 Y7.3299
G01 X31.6021 Y7.3630
G01 X31.6438 Y7.3803
G01 X31.7325 Y7.4222
G01 X31.7723 Y7.4435
G01 X31.8565 Y7.4940
G01 X31.8940 Y7.5191
G01 X31.9728 Y7.5775
G01 X32.0077 Y7.6062
G01 X32.0805 Y7.6721
G01 X32.1124 Y7.7040
G01 X32.1783 Y7.7767
G01 X32.2069 Y7.8116
G01 X32.2654 Y7.8904
G01 X32.2905 Y7.9279
G01 X32.3409 Y8.0121
G01 X32.3622 Y8.0519
G01 X32.4041 Y8.1406
G01 X32.4214 Y8.1823
G01 X32.4545 Y8.2747
G01 X32.4676 Y8.3179
G01 X32.4914 Y8.4131
G01 X32.5002 Y8.4574
G01 X32.5146 Y8.5545
G01 X32.5191 Y8.5994
G01 X32.5239 Y8.6974
G01 X32.5239 Y8.7426
G01 X32.5191 Y8.8406
G01 X32.5146 Y8.8855
G01 X32.5002 Y8.9826
G01 X32.4914 Y9.0269
G01 X32.4676 Y9.1221
G01 X32.4545 Y9.1653
G01 X32.4214 Y9.2577
G01 X32.4041 Y9.2994
G01 X32.3622 Y9.3881
G01 X32.3409 Y9.4279
G01 X32.2905 Y9.5121
G01 X32.2654 Y9.5496
G01 X32.2069 Y9.6284
G01 X32.1783 Y9.6633
G01 X32.1248 Y9.7224
G01 X32.1248 Y22.9576
G01 X32.1783 Y23.0167
G01 X32.2069 Y23.0516
G01 X32.2654 Y23.1304
G01 X32.2905 Y23.1679
G01 X32.3409 Y23.2521
G01 X32.3622 Y23.2919
G01 X32.4041 Y23.3806
G01 X32.4214 Y23.4223
G01 X32.4545 Y23.5147
G01 X32.4676 Y23.5579
G01 X32.4914 Y23.6531
G01 X32.5002 Y23.6974
G01 X32.5146 Y23.7945
G01 X32.5191 Y23.8394
G01 X32.5239 Y23.9374
G01 X32.5239 Y23.9826
G01 X32.5191 Y24.0806
G01 X32.5146 Y24.1255
G01 X32.5002 Y24.2226
G01 X32.4914 Y24.2669
G01 X32.4676 Y24.3621
G01 X32.4545 Y24.4053
G01 X32.4214 Y24.4977
G01 X32.4041 Y24.5394
G01 X32.3622 Y24.6281
G01 X32.3409 Y24.6679
G01 X32.2905 Y24.7521
G01 X32.2654 Y24.7896
G01 X32.2069 Y24.8684
G01 X32.1783 Y24.9033
G01 X32.1124 Y24.9760
G01 X32.0805 Y25.0079
G01 X32.0077 Y25.0738
G01 X31.9728 Y25.1025
G01 X31.8940 Y25.1609
G01 X31.8565 Y25.1860
G01 X31.7723 Y25.2365
G01 X31.7325 Y25.2578
G01 X31.6438 Y25.2997
G01 X31.6021 Y25.3170
G01 X31.5097 Y25.3501
G01 X31.4665 Y25.3632
G01 X31.3713 Y25.3870
G01 X31.3270 Y25.3958
G01 X31.2299 Y25.4102
G01 X31.1850 Y25.4146
G01 X31.1054 Y25.4185
G01 X25.4642 Y31.0597
G01 X25.4478 Y31.0753
G01 X25.4042 Y31.1149
G01 X25.3693 Y31.1435
G01 X25.3220 Y31.1786
G01 X25.2844 Y31.2037
G01 X25.2339 Y31.2340
G01 X25.1941 Y31.2553
G01 X25.1408 Y31.2804
G01 X25.0991 Y31.2977
G01 X25.0437 Y31.3176
G01 X25.0005 Y31.3307
G01 X24.9433 Y31.3450
G01 X24.8990 Y31.3538
G01 X24.8408 Y31.3624
G01 X24.7958 Y31.3669
G01 X24.7370 Y31.3697
G01 X24.7144 Y31.3703
G01 X14.6256 Y31.3703
G01 X14.6030 Y31.3697
G01 X14.5441 Y31.3669
G01 X14.4992 Y31.3624
G01 X14.4410 Y31.3538
G01 X14.3967 Y31.3450
G01 X14.3395 Y31.3307
G01 X14.2963 Y31.3176
G01 X14.2409 Y31.2977
G01 X14.1992 Y31.2804
G01 X14.1459 Y31.2553
G01 X14.1061 Y31.2340
G01 X14.0556 Y31.2037
G01 X14.0180 Y31.1786
G01 X13.9707 Y31.1435
G01 X13.9358 Y31.1149
G01 X13.8922 Y31.0753
G01 X13.8758 Y31.0597
G01 X8.2346 Y25.4185
G00 Z2.0000
M05
G00 Z2.0000
G00 Z15.00
G00 X0.0 Y0.0

