(G-CODE GENERATED BY FLATCAM v8.991 - www.flatcam.org - Version Date: 2019/12/27)

(Name: Gerber_BottomLayer.GBL_iso4_cnc)
(Type: G-code from Geometry)
(Units: MM)

(Created on Friday, 05 July 2024 at 18:32)

(TOOL DIAMETER: 0.2 mm)
(Feedrate: 120.0 mm/min)
(Feedrate_Z: 60.0 mm/min)
(Feedrate rapids 1500.0 mm/min)

(Z_Cut: -0.09 mm)
(Z_Move: 2.0 mm)
(Z Toolchange: 15.0 mm)
(X,Y Toolchange: 0.0000, 0.0000 mm)
(Z Start: None mm)
(Z End: 15.0 mm)
(Steps per circle: 64)
(Preprocessor Geometry: default)

(X range:    4.0608 ...   42.8637  mm)
(Y range:   -0.0133 ...   31.5503  mm)

(Spindle Speed: None RPM)
G21
G90
G94




G01 F120.00
G00 Z2.0000

M03
G00 X4.4597 Y7.6482
G01 F60.00
G01 Z-0.0900
G01 F120.00
G01 X4.4597 Y6.5610
G01 X4.4605 Y6.5296
G01 X4.4634 Y6.4708
G01 X4.4695 Y6.4083
G01 X4.4782 Y6.3500
G01 X4.4904 Y6.2884
G01 X4.5047 Y6.2312
G01 X4.5230 Y6.1711
G01 X4.5428 Y6.1157
G01 X4.5668 Y6.0576
G01 X4.5920 Y6.0044
G01 X4.6216 Y5.9490
G01 X4.6519 Y5.8985
G01 X4.6868 Y5.8462
G01 X4.7219 Y5.7989
G01 X4.7618 Y5.7504
G01 X4.8013 Y5.7067
G01 X4.8230 Y5.6840
G01 X10.1570 Y0.3500
G01 X10.1797 Y0.3283
G01 X10.2234 Y0.2888
G01 X10.2719 Y0.2489
G01 X10.3192 Y0.2138
G01 X10.3715 Y0.1789
G01 X10.4220 Y0.1486
G01 X10.4774 Y0.1190
G01 X10.5306 Y0.0938
G01 X10.5887 Y0.0698
G01 X10.6441 Y0.0500
G01 X10.7042 Y0.0317
G01 X10.7614 Y0.0174
G01 X10.8230 Y0.0052
G01 X10.8813 Y-0.0035
G01 X10.9438 Y-0.0096
G01 X11.0026 Y-0.0125
G01 X11.0340 Y-0.0133
G01 X37.4500 Y-0.0133
G01 X37.4814 Y-0.0125
G01 X37.5402 Y-0.0096
G01 X37.6027 Y-0.0035
G01 X37.6610 Y0.0052
G01 X37.7226 Y0.0174
G01 X37.7798 Y0.0317
G01 X37.8399 Y0.0500
G01 X37.8953 Y0.0698
G01 X37.9534 Y0.0938
G01 X38.0066 Y0.1190
G01 X38.0620 Y0.1486
G01 X38.1125 Y0.1789
G01 X38.1648 Y0.2138
G01 X38.2121 Y0.2489
G01 X38.2606 Y0.2888
G01 X38.3043 Y0.3283
G01 X38.3270 Y0.3500
G01 X42.1015 Y4.1244
G01 X42.1231 Y4.1472
G01 X42.1627 Y4.1908
G01 X42.2025 Y4.2394
G01 X42.2376 Y4.2867
G01 X42.2725 Y4.3389
G01 X42.3028 Y4.3894
G01 X42.3324 Y4.4448
G01 X42.3576 Y4.4981
G01 X42.3816 Y4.5561
G01 X42.4015 Y4.6116
G01 X42.4197 Y4.6717
G01 X42.4340 Y4.7288
G01 X42.4463 Y4.7904
G01 X42.4549 Y4.8487
G01 X42.4611 Y4.9112
G01 X42.4640 Y4.9700
G01 X42.4647 Y5.0014
G01 X42.4647 Y7.6482
G01 X42.4716 Y7.6558
G01 X42.5115 Y7.7044
G01 X42.5700 Y7.7832
G01 X42.6048 Y7.8354
G01 X42.6553 Y7.9196
G01 X42.6849 Y7.9750
G01 X42.7269 Y8.0637
G01 X42.7509 Y8.1217
G01 X42.7840 Y8.2141
G01 X42.8022 Y8.2742
G01 X42.8260 Y8.3694
G01 X42.8383 Y8.4310
G01 X42.8527 Y8.5281
G01 X42.8588 Y8.5906
G01 X42.8637 Y8.6886
G01 X42.8637 Y8.7514
G01 X42.8588 Y8.8494
G01 X42.8527 Y8.9119
G01 X42.8383 Y9.0090
G01 X42.8260 Y9.0706
G01 X42.8022 Y9.1658
G01 X42.7840 Y9.2259
G01 X42.7509 Y9.3183
G01 X42.7269 Y9.3763
G01 X42.6849 Y9.4650
G01 X42.6553 Y9.5204
G01 X42.6048 Y9.6046
G01 X42.5700 Y9.6568
G01 X42.5115 Y9.7356
G01 X42.4716 Y9.7842
G01 X42.4648 Y9.7918
G01 X42.4648 Y22.8882
G01 X42.4716 Y22.8958
G01 X42.5115 Y22.9444
G01 X42.5700 Y23.0232
G01 X42.6048 Y23.0754
G01 X42.6553 Y23.1596
G01 X42.6849 Y23.2150
G01 X42.7269 Y23.3037
G01 X42.7509 Y23.3617
G01 X42.7840 Y23.4541
G01 X42.8022 Y23.5142
G01 X42.8260 Y23.6094
G01 X42.8383 Y23.6710
G01 X42.8527 Y23.7681
G01 X42.8588 Y23.8306
G01 X42.8637 Y23.9286
G01 X42.8637 Y23.9914
G01 X42.8588 Y24.0894
G01 X42.8527 Y24.1519
G01 X42.8383 Y24.2490
G01 X42.8260 Y24.3106
G01 X42.8022 Y24.4058
G01 X42.7840 Y24.4659
G01 X42.7509 Y24.5583
G01 X42.7269 Y24.6163
G01 X42.6849 Y24.7050
G01 X42.6553 Y24.7604
G01 X42.6048 Y24.8446
G01 X42.5700 Y24.8968
G01 X42.5115 Y24.9756
G01 X42.4716 Y25.0242
G01 X42.4057 Y25.0969
G01 X42.3613 Y25.1413
G01 X42.2886 Y25.2072
G01 X42.2401 Y25.2471
G01 X42.1612 Y25.3055
G01 X42.1090 Y25.3404
G01 X42.0249 Y25.3909
G01 X41.9695 Y25.4205
G01 X41.8807 Y25.4624
G01 X41.8227 Y25.4865
G01 X41.7303 Y25.5195
G01 X41.6702 Y25.5378
G01 X41.5750 Y25.5616
G01 X41.5134 Y25.5739
G01 X41.4164 Y25.5883
G01 X41.3539 Y25.5944
G01 X41.2558 Y25.5992
G01 X41.1930 Y25.5992
G01 X41.0950 Y25.5944
G01 X41.0325 Y25.5883
G01 X40.9354 Y25.5739
G01 X40.8738 Y25.5616
G01 X40.7786 Y25.5378
G01 X40.7185 Y25.5195
G01 X40.6261 Y25.4865
G01 X40.5681 Y25.4624
G01 X40.4794 Y25.4205
G01 X40.4240 Y25.3909
G01 X40.3398 Y25.3404
G01 X40.2876 Y25.3055
G01 X40.2088 Y25.2471
G01 X40.1602 Y25.2072
G01 X40.0875 Y25.1413
G01 X40.0431 Y25.0969
G01 X39.9772 Y25.0242
G01 X39.9374 Y24.9756
G01 X39.8789 Y24.8968
G01 X39.8440 Y24.8446
G01 X39.7936 Y24.7604
G01 X39.7640 Y24.7050
G01 X39.7220 Y24.6163
G01 X39.6980 Y24.5583
G01 X39.6649 Y24.4659
G01 X39.6467 Y24.4058
G01 X39.6228 Y24.3106
G01 X39.6106 Y24.2490
G01 X39.5962 Y24.1519
G01 X39.5900 Y24.0894
G01 X39.5852 Y23.9914
G01 X39.5852 Y23.9286
G01 X39.5900 Y23.8306
G01 X39.5962 Y23.7681
G01 X39.6106 Y23.6710
G01 X39.6228 Y23.6094
G01 X39.6467 Y23.5142
G01 X39.6649 Y23.4541
G01 X39.6980 Y23.3617
G01 X39.7220 Y23.3037
G01 X39.7640 Y23.2150
G01 X39.7936 Y23.1596
G01 X39.8440 Y23.0754
G01 X39.8789 Y23.0232
G01 X39.9374 Y22.9444
G01 X39.9772 Y22.8958
G01 X39.9842 Y22.8881
G01 X39.9842 Y9.7919
G01 X39.9772 Y9.7842
G01 X39.9374 Y9.7356
G01 X39.8789 Y9.6568
G01 X39.8440 Y9.6046
G01 X39.7936 Y9.5204
G01 X39.7640 Y9.4650
G01 X39.7220 Y9.3763
G01 X39.6980 Y9.3183
G01 X39.6649 Y9.2259
G01 X39.6467 Y9.1658
G01 X39.6228 Y9.0706
G01 X39.6106 Y9.0090
G01 X39.5962 Y8.9119
G01 X39.5900 Y8.8494
G01 X39.5852 Y8.7514
G01 X39.5852 Y8.6886
G01 X39.5900 Y8.5906
G01 X39.5962 Y8.5281
G01 X39.6106 Y8.4310
G01 X39.6228 Y8.3694
G01 X39.6467 Y8.2742
G01 X39.6649 Y8.2141
G01 X39.6980 Y8.1217
G01 X39.7220 Y8.0637
G01 X39.7640 Y7.9750
G01 X39.7936 Y7.9196
G01 X39.8440 Y7.8354
G01 X39.8789 Y7.7832
G01 X39.9374 Y7.7044
G01 X39.9772 Y7.6558
G01 X39.9841 Y7.6482
G01 X39.9841 Y5.5152
G01 X36.9362 Y2.4673
G01 X11.5477 Y2.4673
G01 X6.9403 Y7.0747
G01 X6.9403 Y7.6482
G01 X6.9472 Y7.6558
G01 X6.9871 Y7.7044
G01 X7.0455 Y7.7832
G01 X7.0804 Y7.8354
G01 X7.1309 Y7.9196
G01 X7.1605 Y7.9750
G01 X7.2024 Y8.0637
G01 X7.2265 Y8.1217
G01 X7.2595 Y8.2141
G01 X7.2778 Y8.2742
G01 X7.3016 Y8.3694
G01 X7.3139 Y8.4310
G01 X7.3283 Y8.5281
G01 X7.3344 Y8.5906
G01 X7.3392 Y8.6886
G01 X7.3392 Y8.7514
G01 X7.3344 Y8.8494
G01 X7.3283 Y8.9119
G01 X7.3139 Y9.0090
G01 X7.3016 Y9.0706
G01 X7.2778 Y9.1658
G01 X7.2595 Y9.2259
G01 X7.2265 Y9.3183
G01 X7.2024 Y9.3763
G01 X7.1605 Y9.4650
G01 X7.1309 Y9.5204
G01 X7.0804 Y9.6046
G01 X7.0455 Y9.6568
G01 X6.9871 Y9.7356
G01 X6.9472 Y9.7842
G01 X6.8813 Y9.8569
G01 X6.8369 Y9.9013
G01 X6.7642 Y9.9672
G01 X6.7156 Y10.0071
G01 X6.6368 Y10.0655
G01 X6.5846 Y10.1004
G01 X6.5004 Y10.1509
G01 X6.4450 Y10.1805
G01 X6.3563 Y10.2224
G01 X6.2983 Y10.2465
G01 X6.2059 Y10.2795
G01 X6.1458 Y10.2978
G01 X6.0506 Y10.3216
G01 X5.9890 Y10.3339
G01 X5.8919 Y10.3483
G01 X5.8294 Y10.3544
G01 X5.7314 Y10.3592
G01 X5.6686 Y10.3592
G01 X5.5706 Y10.3544
G01 X5.5081 Y10.3483
G01 X5.4110 Y10.3339
G01 X5.3494 Y10.3216
G01 X5.2542 Y10.2978
G01 X5.1941 Y10.2795
G01 X5.1017 Y10.2465
G01 X5.0437 Y10.2224
G01 X4.9550 Y10.1805
G01 X4.8996 Y10.1509
G01 X4.8154 Y10.1004
G01 X4.7632 Y10.0655
G01 X4.6844 Y10.0071
G01 X4.6358 Y9.9672
G01 X4.5631 Y9.9013
G01 X4.5187 Y9.8569
G01 X4.4528 Y9.7842
G01 X4.4129 Y9.7356
G01 X4.3545 Y9.6568
G01 X4.3196 Y9.6046
G01 X4.2691 Y9.5204
G01 X4.2395 Y9.4650
G01 X4.1976 Y9.3763
G01 X4.1735 Y9.3183
G01 X4.1405 Y9.2259
G01 X4.1222 Y9.1658
G01 X4.0984 Y9.0706
G01 X4.0861 Y9.0090
G01 X4.0717 Y8.9119
G01 X4.0656 Y8.8494
G01 X4.0608 Y8.7514
G01 X4.0608 Y8.6886
G01 X4.0656 Y8.5906
G01 X4.0717 Y8.5281
G01 X4.0861 Y8.4310
G01 X4.0984 Y8.3694
G01 X4.1222 Y8.2742
G01 X4.1405 Y8.2141
G01 X4.1735 Y8.1217
G01 X4.1976 Y8.0637
G01 X4.2395 Y7.9750
G01 X4.2691 Y7.9196
G01 X4.3196 Y7.8354
G01 X4.3545 Y7.7832
G01 X4.4129 Y7.7044
G01 X4.4528 Y7.6558
G01 X4.4597 Y7.6482
G00 Z2.0000
G00 X10.6609 Y7.0851
G01 F60.00
G01 Z-0.0900
G01 F120.00
G01 X14.3480 Y3.3980
G01 X14.3707 Y3.3763
G01 X14.4144 Y3.3368
G01 X14.4629 Y3.2969
G01 X14.5102 Y3.2618
G01 X14.5625 Y3.2269
G01 X14.6130 Y3.1966
G01 X14.6684 Y3.1670
G01 X14.7216 Y3.1418
G01 X14.7797 Y3.1178
G01 X14.8351 Y3.0980
G01 X14.8952 Y3.0797
G01 X14.9524 Y3.0654
G01 X15.0140 Y3.0532
G01 X15.0723 Y3.0445
G01 X15.1348 Y3.0384
G01 X15.1936 Y3.0355
G01 X15.2250 Y3.0347
G01 X31.7706 Y3.0347
G01 X31.8020 Y3.0355
G01 X31.8608 Y3.0384
G01 X31.9233 Y3.0445
G01 X31.9816 Y3.0532
G01 X32.0432 Y3.0654
G01 X32.1003 Y3.0797
G01 X32.1604 Y3.0980
G01 X32.2159 Y3.1178
G01 X32.2739 Y3.1418
G01 X32.3272 Y3.1670
G01 X32.3826 Y3.1966
G01 X32.4331 Y3.2269
G01 X32.4853 Y3.2618
G01 X32.5326 Y3.2969
G01 X32.5812 Y3.3368
G01 X32.6248 Y3.3763
G01 X32.6476 Y3.3980
G01 X36.3347 Y7.0851
G01 X36.3450 Y7.0856
G01 X36.4075 Y7.0917
G01 X36.5046 Y7.1061
G01 X36.5662 Y7.1184
G01 X36.6614 Y7.1422
G01 X36.7215 Y7.1605
G01 X36.8139 Y7.1935
G01 X36.8719 Y7.2176
G01 X36.9606 Y7.2595
G01 X37.0160 Y7.2891
G01 X37.1002 Y7.3396
G01 X37.1524 Y7.3745
G01 X37.2312 Y7.4329
G01 X37.2798 Y7.4728
G01 X37.3525 Y7.5387
G01 X37.3969 Y7.5831
G01 X37.4628 Y7.6558
G01 X37.5026 Y7.7044
G01 X37.5611 Y7.7832
G01 X37.5960 Y7.8354
G01 X37.6464 Y7.9196
G01 X37.6760 Y7.9750
G01 X37.7180 Y8.0637
G01 X37.7420 Y8.1217
G01 X37.7751 Y8.2141
G01 X37.7933 Y8.2742
G01 X37.8172 Y8.3694
G01 X37.8294 Y8.4310
G01 X37.8438 Y8.5281
G01 X37.8500 Y8.5906
G01 X37.8548 Y8.6886
G01 X37.8548 Y8.7514
G01 X37.8500 Y8.8494
G01 X37.8438 Y8.9119
G01 X37.8294 Y9.0090
G01 X37.8172 Y9.0706
G01 X37.7933 Y9.1658
G01 X37.7751 Y9.2259
G01 X37.7420 Y9.3183
G01 X37.7180 Y9.3763
G01 X37.6760 Y9.4650
G01 X37.6464 Y9.5204
G01 X37.5960 Y9.6046
G01 X37.5611 Y9.6568
G01 X37.5026 Y9.7356
G01 X37.4628 Y9.7842
G01 X37.4559 Y9.7918
G01 X37.4559 Y22.8882
G01 X37.4628 Y22.8958
G01 X37.5026 Y22.9444
G01 X37.5611 Y23.0232
G01 X37.5960 Y23.0754
G01 X37.6464 Y23.1596
G01 X37.6760 Y23.2150
G01 X37.7180 Y23.3037
G01 X37.7420 Y23.3617
G01 X37.7751 Y23.4541
G01 X37.7933 Y23.5142
G01 X37.8172 Y23.6094
G01 X37.8294 Y23.6710
G01 X37.8438 Y23.7681
G01 X37.8500 Y23.8306
G01 X37.8548 Y23.9286
G01 X37.8548 Y23.9914
G01 X37.8500 Y24.0894
G01 X37.8438 Y24.1519
G01 X37.8294 Y24.2490
G01 X37.8172 Y24.3106
G01 X37.7933 Y24.4058
G01 X37.7751 Y24.4659
G01 X37.7420 Y24.5583
G01 X37.7180 Y24.6163
G01 X37.6760 Y24.7050
G01 X37.6464 Y24.7604
G01 X37.5960 Y24.8446
G01 X37.5611 Y24.8968
G01 X37.5026 Y24.9756
G01 X37.4628 Y25.0242
G01 X37.3969 Y25.0969
G01 X37.3525 Y25.1413
G01 X37.2798 Y25.2072
G01 X37.2312 Y25.2471
G01 X37.1524 Y25.3055
G01 X37.1002 Y25.3404
G01 X37.0160 Y25.3909
G01 X36.9606 Y25.4205
G01 X36.8719 Y25.4624
G01 X36.8139 Y25.4865
G01 X36.7215 Y25.5195
G01 X36.6614 Y25.5378
G01 X36.5662 Y25.5616
G01 X36.5046 Y25.5739
G01 X36.4075 Y25.5883
G01 X36.3450 Y25.5944
G01 X36.2470 Y25.5992
G01 X36.1842 Y25.5992
G01 X36.0861 Y25.5944
G01 X36.0236 Y25.5883
G01 X35.9266 Y25.5739
G01 X35.8650 Y25.5616
G01 X35.7698 Y25.5378
G01 X35.7097 Y25.5195
G01 X35.6173 Y25.4865
G01 X35.5592 Y25.4624
G01 X35.4705 Y25.4205
G01 X35.4151 Y25.3909
G01 X35.3310 Y25.3404
G01 X35.2787 Y25.3055
G01 X35.1999 Y25.2471
G01 X35.1514 Y25.2072
G01 X35.0787 Y25.1413
G01 X35.0342 Y25.0969
G01 X34.9683 Y25.0242
G01 X34.9285 Y24.9756
G01 X34.8700 Y24.8968
G01 X34.8351 Y24.8446
G01 X34.7847 Y24.7604
G01 X34.7551 Y24.7050
G01 X34.7131 Y24.6163
G01 X34.6891 Y24.5583
G01 X34.6560 Y24.4659
G01 X34.6378 Y24.4058
G01 X34.6140 Y24.3106
G01 X34.6017 Y24.2490
G01 X34.5873 Y24.1519
G01 X34.5811 Y24.0894
G01 X34.5763 Y23.9914
G01 X34.5763 Y23.9286
G01 X34.5811 Y23.8306
G01 X34.5873 Y23.7681
G01 X34.6017 Y23.6710
G01 X34.6140 Y23.6094
G01 X34.6378 Y23.5142
G01 X34.6560 Y23.4541
G01 X34.6891 Y23.3617
G01 X34.7131 Y23.3037
G01 X34.7551 Y23.2150
G01 X34.7847 Y23.1596
G01 X34.8351 Y23.0754
G01 X34.8700 Y23.0232
G01 X34.9285 Y22.9444
G01 X34.9683 Y22.8958
G01 X34.9753 Y22.8882
G01 X34.9753 Y9.7918
G01 X34.9683 Y9.7842
G01 X34.9285 Y9.7356
G01 X34.8700 Y9.6568
G01 X34.8351 Y9.6046
G01 X34.7847 Y9.5204
G01 X34.7551 Y9.4650
G01 X34.7131 Y9.3763
G01 X34.6891 Y9.3183
G01 X34.6560 Y9.2259
G01 X34.6378 Y9.1658
G01 X34.6140 Y9.0706
G01 X34.6017 Y9.0090
G01 X34.5873 Y8.9119
G01 X34.5811 Y8.8494
G01 X34.5806 Y8.8391
G01 X31.2568 Y5.5153
G01 X15.7387 Y5.5153
G01 X12.4149 Y8.8391
G01 X12.4144 Y8.8494
G01 X12.4083 Y8.9119
G01 X12.3939 Y9.0090
G01 X12.3816 Y9.0706
G01 X12.3578 Y9.1658
G01 X12.3395 Y9.2259
G01 X12.3065 Y9.3183
G01 X12.2824 Y9.3763
G01 X12.2405 Y9.4650
G01 X12.2109 Y9.5204
G01 X12.1604 Y9.6046
G01 X12.1255 Y9.6568
G01 X12.0671 Y9.7356
G01 X12.0272 Y9.7842
G01 X11.9613 Y9.8569
G01 X11.9169 Y9.9013
G01 X11.8442 Y9.9672
G01 X11.7956 Y10.0071
G01 X11.7168 Y10.0655
G01 X11.6646 Y10.1004
G01 X11.5804 Y10.1509
G01 X11.5250 Y10.1805
G01 X11.4363 Y10.2224
G01 X11.3783 Y10.2465
G01 X11.2859 Y10.2795
G01 X11.2258 Y10.2978
G01 X11.1306 Y10.3216
G01 X11.0690 Y10.3339
G01 X10.9719 Y10.3483
G01 X10.9094 Y10.3544
G01 X10.8114 Y10.3592
G01 X10.7486 Y10.3592
G01 X10.6506 Y10.3544
G01 X10.5881 Y10.3483
G01 X10.4910 Y10.3339
G01 X10.4294 Y10.3216
G01 X10.3342 Y10.2978
G01 X10.2741 Y10.2795
G01 X10.1817 Y10.2465
G01 X10.1237 Y10.2224
G01 X10.0350 Y10.1805
G01 X9.9796 Y10.1509
G01 X9.8954 Y10.1004
G01 X9.8432 Y10.0655
G01 X9.7644 Y10.0071
G01 X9.7158 Y9.9672
G01 X9.6431 Y9.9013
G01 X9.5987 Y9.8569
G01 X9.5328 Y9.7842
G01 X9.4929 Y9.7356
G01 X9.4345 Y9.6568
G01 X9.3996 Y9.6046
G01 X9.3491 Y9.5204
G01 X9.3195 Y9.4650
G01 X9.2776 Y9.3763
G01 X9.2535 Y9.3183
G01 X9.2205 Y9.2259
G01 X9.2022 Y9.1658
G01 X9.1784 Y9.0706
G01 X9.1661 Y9.0090
G01 X9.1517 Y8.9119
G01 X9.1456 Y8.8494
G01 X9.1408 Y8.7514
G01 X9.1408 Y8.6886
G01 X9.1456 Y8.5906
G01 X9.1517 Y8.5281
G01 X9.1661 Y8.4310
G01 X9.1784 Y8.3694
G01 X9.2022 Y8.2742
G01 X9.2205 Y8.2141
G01 X9.2535 Y8.1217
G01 X9.2776 Y8.0637
G01 X9.3195 Y7.9750
G01 X9.3491 Y7.9196
G01 X9.3996 Y7.8354
G01 X9.4345 Y7.7832
G01 X9.4929 Y7.7044
G01 X9.5328 Y7.6558
G01 X9.5987 Y7.5831
G01 X9.6431 Y7.5387
G01 X9.7158 Y7.4728
G01 X9.7644 Y7.4329
G01 X9.8432 Y7.3745
G01 X9.8954 Y7.3396
G01 X9.9796 Y7.2891
G01 X10.0350 Y7.2595
G01 X10.1237 Y7.2176
G01 X10.1817 Y7.1935
G01 X10.2741 Y7.1605
G01 X10.3342 Y7.1422
G01 X10.4294 Y7.1184
G01 X10.4910 Y7.1061
G01 X10.5881 Y7.0917
G01 X10.6506 Y7.0856
G01 X10.6609 Y7.0851
G00 Z2.0000
G00 X14.3562 Y25.2003
G01 F60.00
G01 Z-0.0900
G01 F120.00
G01 X14.3486 Y25.2072
G01 X14.3001 Y25.2471
G01 X14.2212 Y25.3055
G01 X14.1690 Y25.3404
G01 X14.0849 Y25.3909
G01 X14.0295 Y25.4205
G01 X13.9407 Y25.4624
G01 X13.8827 Y25.4865
G01 X13.7903 Y25.5195
G01 X13.7302 Y25.5378
G01 X13.6350 Y25.5616
G01 X13.5734 Y25.5739
G01 X13.4764 Y25.5883
G01 X13.4139 Y25.5944
G01 X13.3158 Y25.5992
G01 X13.2530 Y25.5992
G01 X13.1550 Y25.5944
G01 X13.0925 Y25.5883
G01 X12.9954 Y25.5739
G01 X12.9338 Y25.5616
G01 X12.8386 Y25.5378
G01 X12.7785 Y25.5195
G01 X12.6861 Y25.4865
G01 X12.6281 Y25.4624
G01 X12.5394 Y25.4205
G01 X12.4840 Y25.3909
G01 X12.3998 Y25.3404
G01 X12.3476 Y25.3055
G01 X12.2688 Y25.2471
G01 X12.2202 Y25.2072
G01 X12.1475 Y25.1413
G01 X12.1031 Y25.0969
G01 X12.0372 Y25.0242
G01 X11.9974 Y24.9756
G01 X11.9389 Y24.8968
G01 X11.9040 Y24.8446
G01 X11.8536 Y24.7604
G01 X11.8240 Y24.7050
G01 X11.7820 Y24.6163
G01 X11.7580 Y24.5583
G01 X11.7249 Y24.4659
G01 X11.7067 Y24.4058
G01 X11.6828 Y24.3106
G01 X11.6706 Y24.2490
G01 X11.6562 Y24.1519
G01 X11.6500 Y24.0894
G01 X11.6452 Y23.9914
G01 X11.6452 Y23.9286
G01 X11.6500 Y23.8306
G01 X11.6562 Y23.7681
G01 X11.6706 Y23.6710
G01 X11.6828 Y23.6094
G01 X11.7067 Y23.5142
G01 X11.7249 Y23.4541
G01 X11.7580 Y23.3617
G01 X11.7820 Y23.3037
G01 X11.8240 Y23.2150
G01 X11.8536 Y23.1596
G01 X11.9040 Y23.0754
G01 X11.9389 Y23.0232
G01 X11.9974 Y22.9444
G01 X12.0372 Y22.8958
G01 X12.1031 Y22.8231
G01 X12.1475 Y22.7787
G01 X12.2202 Y22.7128
G01 X12.2688 Y22.6729
G01 X12.3476 Y22.6145
G01 X12.3998 Y22.5796
G01 X12.4840 Y22.5291
G01 X12.5394 Y22.4995
G01 X12.6281 Y22.4576
G01 X12.6861 Y22.4335
G01 X12.7785 Y22.4005
G01 X12.8386 Y22.3822
G01 X12.9338 Y22.3584
G01 X12.9954 Y22.3461
G01 X13.0925 Y22.3317
G01 X13.1550 Y22.3256
G01 X13.2530 Y22.3208
G01 X13.3158 Y22.3208
G01 X13.4139 Y22.3256
G01 X13.4764 Y22.3317
G01 X13.5734 Y22.3461
G01 X13.6350 Y22.3584
G01 X13.7302 Y22.3822
G01 X13.7903 Y22.4005
G01 X13.8827 Y22.4335
G01 X13.9407 Y22.4576
G01 X14.0295 Y22.4995
G01 X14.0849 Y22.5291
G01 X14.1690 Y22.5796
G01 X14.2212 Y22.6145
G01 X14.3001 Y22.6729
G01 X14.3486 Y22.7128
G01 X14.3563 Y22.7197
G01 X24.8153 Y22.7197
G01 X24.8153 Y9.7918
G01 X24.8083 Y9.7842
G01 X24.7685 Y9.7356
G01 X24.7100 Y9.6568
G01 X24.6751 Y9.6046
G01 X24.6247 Y9.5204
G01 X24.5951 Y9.4650
G01 X24.5531 Y9.3763
G01 X24.5291 Y9.3183
G01 X24.4960 Y9.2259
G01 X24.4778 Y9.1658
G01 X24.4540 Y9.0706
G01 X24.4417 Y9.0090
G01 X24.4273 Y8.9119
G01 X24.4211 Y8.8494
G01 X24.4163 Y8.7514
G01 X24.4163 Y8.6886
G01 X24.4211 Y8.5906
G01 X24.4273 Y8.5281
G01 X24.4417 Y8.4310
G01 X24.4540 Y8.3694
G01 X24.4778 Y8.2742
G01 X24.4960 Y8.2141
G01 X24.5291 Y8.1217
G01 X24.5531 Y8.0637
G01 X24.5951 Y7.9750
G01 X24.6247 Y7.9196
G01 X24.6751 Y7.8354
G01 X24.7100 Y7.7832
G01 X24.7685 Y7.7044
G01 X24.8083 Y7.6558
G01 X24.8742 Y7.5831
G01 X24.9187 Y7.5387
G01 X24.9914 Y7.4728
G01 X25.0399 Y7.4329
G01 X25.1187 Y7.3745
G01 X25.1710 Y7.3396
G01 X25.2551 Y7.2891
G01 X25.3105 Y7.2595
G01 X25.3992 Y7.2176
G01 X25.4573 Y7.1935
G01 X25.5497 Y7.1605
G01 X25.6098 Y7.1422
G01 X25.7050 Y7.1184
G01 X25.7666 Y7.1061
G01 X25.8636 Y7.0917
G01 X25.9261 Y7.0856
G01 X26.0242 Y7.0808
G01 X26.0870 Y7.0808
G01 X26.1850 Y7.0856
G01 X26.2475 Y7.0917
G01 X26.3446 Y7.1061
G01 X26.4062 Y7.1184
G01 X26.5014 Y7.1422
G01 X26.5615 Y7.1605
G01 X26.6539 Y7.1935
G01 X26.7119 Y7.2176
G01 X26.8006 Y7.2595
G01 X26.8560 Y7.2891
G01 X26.9402 Y7.3396
G01 X26.9924 Y7.3745
G01 X27.0712 Y7.4329
G01 X27.1198 Y7.4728
G01 X27.1925 Y7.5387
G01 X27.2369 Y7.5831
G01 X27.3028 Y7.6558
G01 X27.3426 Y7.7044
G01 X27.4011 Y7.7832
G01 X27.4360 Y7.8354
G01 X27.4864 Y7.9196
G01 X27.5160 Y7.9750
G01 X27.5580 Y8.0637
G01 X27.5820 Y8.1217
G01 X27.6151 Y8.2141
G01 X27.6333 Y8.2742
G01 X27.6572 Y8.3694
G01 X27.6694 Y8.4310
G01 X27.6838 Y8.5281
G01 X27.6900 Y8.5906
G01 X27.6948 Y8.6886
G01 X27.6948 Y8.7514
G01 X27.6900 Y8.8494
G01 X27.6838 Y8.9119
G01 X27.6694 Y9.0090
G01 X27.6572 Y9.0706
G01 X27.6333 Y9.1658
G01 X27.6151 Y9.2259
G01 X27.5820 Y9.3183
G01 X27.5580 Y9.3763
G01 X27.5160 Y9.4650
G01 X27.4864 Y9.5204
G01 X27.4360 Y9.6046
G01 X27.4011 Y9.6568
G01 X27.3426 Y9.7356
G01 X27.3028 Y9.7842
G01 X27.2959 Y9.7918
G01 X27.2959 Y22.8882
G01 X27.3028 Y22.8958
G01 X27.3426 Y22.9444
G01 X27.4011 Y23.0232
G01 X27.4360 Y23.0754
G01 X27.4864 Y23.1596
G01 X27.5160 Y23.2150
G01 X27.5580 Y23.3037
G01 X27.5820 Y23.3617
G01 X27.6151 Y23.4541
G01 X27.6333 Y23.5142
G01 X27.6572 Y23.6094
G01 X27.6694 Y23.6710
G01 X27.6838 Y23.7681
G01 X27.6900 Y23.8306
G01 X27.6948 Y23.9286
G01 X27.6948 Y23.9914
G01 X27.6900 Y24.0894
G01 X27.6838 Y24.1519
G01 X27.6694 Y24.2490
G01 X27.6572 Y24.3106
G01 X27.6333 Y24.4058
G01 X27.6151 Y24.4659
G01 X27.5820 Y24.5583
G01 X27.5580 Y24.6163
G01 X27.5160 Y24.7050
G01 X27.4864 Y24.7604
G01 X27.4360 Y24.8446
G01 X27.4011 Y24.8968
G01 X27.3426 Y24.9756
G01 X27.3028 Y25.0242
G01 X27.2369 Y25.0969
G01 X27.1925 Y25.1413
G01 X27.1198 Y25.2072
G01 X27.0712 Y25.2471
G01 X26.9924 Y25.3055
G01 X26.9402 Y25.3404
G01 X26.8560 Y25.3909
G01 X26.8006 Y25.4205
G01 X26.7119 Y25.4624
G01 X26.6539 Y25.4865
G01 X26.5615 Y25.5195
G01 X26.5014 Y25.5378
G01 X26.4062 Y25.5616
G01 X26.3446 Y25.5739
G01 X26.2475 Y25.5883
G01 X26.1850 Y25.5944
G01 X26.0870 Y25.5992
G01 X26.0242 Y25.5992
G01 X25.9261 Y25.5944
G01 X25.8636 Y25.5883
G01 X25.7666 Y25.5739
G01 X25.7050 Y25.5616
G01 X25.6098 Y25.5378
G01 X25.5497 Y25.5195
G01 X25.4573 Y25.4865
G01 X25.3992 Y25.4624
G01 X25.3105 Y25.4205
G01 X25.2551 Y25.3909
G01 X25.1710 Y25.3404
G01 X25.1187 Y25.3055
G01 X25.0399 Y25.2471
G01 X24.9914 Y25.2072
G01 X24.9838 Y25.2003
G01 X14.3562 Y25.2003
G00 Z2.0000
G00 X8.1564 Y25.5949
G01 F60.00
G01 Z-0.0900
G01 F120.00
G01 X8.1461 Y25.5944
G01 X8.0836 Y25.5883
G01 X7.9866 Y25.5739
G01 X7.9250 Y25.5616
G01 X7.8298 Y25.5378
G01 X7.7697 Y25.5195
G01 X7.6773 Y25.4865
G01 X7.6192 Y25.4624
G01 X7.5305 Y25.4205
G01 X7.4751 Y25.3909
G01 X7.3910 Y25.3404
G01 X7.3387 Y25.3055
G01 X7.2599 Y25.2471
G01 X7.2114 Y25.2072
G01 X7.1386 Y25.1413
G01 X7.0942 Y25.0969
G01 X7.0283 Y25.0242
G01 X6.9885 Y24.9756
G01 X6.9300 Y24.8968
G01 X6.8951 Y24.8446
G01 X6.8447 Y24.7604
G01 X6.8151 Y24.7050
G01 X6.7731 Y24.6163
G01 X6.7491 Y24.5583
G01 X6.7160 Y24.4659
G01 X6.6978 Y24.4058
G01 X6.6739 Y24.3106
G01 X6.6617 Y24.2490
G01 X6.6473 Y24.1519
G01 X6.6411 Y24.0894
G01 X6.6363 Y23.9914
G01 X6.6363 Y23.9286
G01 X6.6411 Y23.8306
G01 X6.6473 Y23.7681
G01 X6.6617 Y23.6710
G01 X6.6739 Y23.6094
G01 X6.6978 Y23.5142
G01 X6.7160 Y23.4541
G01 X6.7491 Y23.3617
G01 X6.7731 Y23.3037
G01 X6.8151 Y23.2150
G01 X6.8447 Y23.1596
G01 X6.8951 Y23.0754
G01 X6.9300 Y23.0232
G01 X6.9885 Y22.9444
G01 X7.0283 Y22.8958
G01 X7.0942 Y22.8231
G01 X7.1386 Y22.7787
G01 X7.2114 Y22.7128
G01 X7.2599 Y22.6729
G01 X7.3387 Y22.6145
G01 X7.3910 Y22.5796
G01 X7.4751 Y22.5291
G01 X7.5305 Y22.4995
G01 X7.6192 Y22.4576
G01 X7.6773 Y22.4335
G01 X7.7697 Y22.4005
G01 X7.8298 Y22.3822
G01 X7.9250 Y22.3584
G01 X7.9866 Y22.3461
G01 X8.0836 Y22.3317
G01 X8.1461 Y22.3256
G01 X8.1565 Y22.3251
G01 X14.6197 Y15.8618
G01 X14.6197 Y9.7918
G01 X14.6128 Y9.7842
G01 X14.5729 Y9.7356
G01 X14.5145 Y9.6568
G01 X14.4796 Y9.6046
G01 X14.4291 Y9.5204
G01 X14.3995 Y9.4650
G01 X14.3576 Y9.3763
G01 X14.3335 Y9.3183
G01 X14.3005 Y9.2259
G01 X14.2822 Y9.1658
G01 X14.2584 Y9.0706
G01 X14.2461 Y9.0090
G01 X14.2317 Y8.9119
G01 X14.2256 Y8.8494
G01 X14.2208 Y8.7514
G01 X14.2208 Y8.6886
G01 X14.2256 Y8.5906
G01 X14.2317 Y8.5281
G01 X14.2461 Y8.4310
G01 X14.2584 Y8.3694
G01 X14.2822 Y8.2742
G01 X14.3005 Y8.2141
G01 X14.3335 Y8.1217
G01 X14.3576 Y8.0637
G01 X14.3995 Y7.9750
G01 X14.4291 Y7.9196
G01 X14.4796 Y7.8354
G01 X14.5145 Y7.7832
G01 X14.5729 Y7.7044
G01 X14.6128 Y7.6558
G01 X14.6787 Y7.5831
G01 X14.7231 Y7.5387
G01 X14.7958 Y7.4728
G01 X14.8444 Y7.4329
G01 X14.9232 Y7.3745
G01 X14.9754 Y7.3396
G01 X15.0596 Y7.2891
G01 X15.1150 Y7.2595
G01 X15.2037 Y7.2176
G01 X15.2617 Y7.1935
G01 X15.3541 Y7.1605
G01 X15.4142 Y7.1422
G01 X15.5094 Y7.1184
G01 X15.5710 Y7.1061
G01 X15.6681 Y7.0917
G01 X15.7306 Y7.0856
G01 X15.8286 Y7.0808
G01 X15.8914 Y7.0808
G01 X15.9894 Y7.0856
G01 X16.0519 Y7.0917
G01 X16.1490 Y7.1061
G01 X16.2106 Y7.1184
G01 X16.3058 Y7.1422
G01 X16.3659 Y7.1605
G01 X16.4583 Y7.1935
G01 X16.5163 Y7.2176
G01 X16.6050 Y7.2595
G01 X16.6604 Y7.2891
G01 X16.7446 Y7.3396
G01 X16.7968 Y7.3745
G01 X16.8756 Y7.4329
G01 X16.9242 Y7.4728
G01 X16.9969 Y7.5387
G01 X17.0413 Y7.5831
G01 X17.1072 Y7.6558
G01 X17.1471 Y7.7044
G01 X17.2055 Y7.7832
G01 X17.2404 Y7.8354
G01 X17.2909 Y7.9196
G01 X17.3205 Y7.9750
G01 X17.3624 Y8.0637
G01 X17.3865 Y8.1217
G01 X17.4195 Y8.2141
G01 X17.4378 Y8.2742
G01 X17.4616 Y8.3694
G01 X17.4739 Y8.4310
G01 X17.4883 Y8.5281
G01 X17.4944 Y8.5906
G01 X17.4992 Y8.6886
G01 X17.4992 Y8.7514
G01 X17.4944 Y8.8494
G01 X17.4883 Y8.9119
G01 X17.4739 Y9.0090
G01 X17.4616 Y9.0706
G01 X17.4378 Y9.1658
G01 X17.4195 Y9.2259
G01 X17.3865 Y9.3183
G01 X17.3624 Y9.3763
G01 X17.3205 Y9.4650
G01 X17.2909 Y9.5204
G01 X17.2404 Y9.6046
G01 X17.2055 Y9.6568
G01 X17.1471 Y9.7356
G01 X17.1072 Y9.7842
G01 X17.1003 Y9.7918
G01 X17.1003 Y16.3756
G01 X17.0995 Y16.4070
G01 X17.0967 Y16.4658
G01 X17.0905 Y16.5283
G01 X17.0819 Y16.5866
G01 X17.0696 Y16.6482
G01 X17.0553 Y16.7053
G01 X17.0371 Y16.7654
G01 X17.0172 Y16.8209
G01 X16.9932 Y16.8789
G01 X16.9680 Y16.9322
G01 X16.9384 Y16.9876
G01 X16.9081 Y17.0381
G01 X16.8732 Y17.0903
G01 X16.8381 Y17.1377
G01 X16.7983 Y17.1862
G01 X16.7587 Y17.2299
G01 X16.7370 Y17.2526
G01 X10.0296 Y23.9600
G01 X15.1393 Y29.0697
G01 X24.2007 Y29.0697
G01 X29.4295 Y23.8409
G01 X29.4300 Y23.8306
G01 X29.4362 Y23.7681
G01 X29.4506 Y23.6710
G01 X29.4628 Y23.6094
G01 X29.4867 Y23.5142
G01 X29.5049 Y23.4541
G01 X29.5380 Y23.3617
G01 X29.5620 Y23.3037
G01 X29.6040 Y23.2150
G01 X29.6336 Y23.1596
G01 X29.6840 Y23.0754
G01 X29.7189 Y23.0232
G01 X29.7774 Y22.9444
G01 X29.8172 Y22.8958
G01 X29.8242 Y22.8881
G01 X29.8242 Y9.7919
G01 X29.8172 Y9.7842
G01 X29.7774 Y9.7356
G01 X29.7189 Y9.6568
G01 X29.6840 Y9.6046
G01 X29.6336 Y9.5204
G01 X29.6040 Y9.4650
G01 X29.5620 Y9.3763
G01 X29.5380 Y9.3183
G01 X29.5049 Y9.2259
G01 X29.4867 Y9.1658
G01 X29.4628 Y9.0706
G01 X29.4506 Y9.0090
G01 X29.4362 Y8.9119
G01 X29.4300 Y8.8494
G01 X29.4252 Y8.7514
G01 X29.4252 Y8.6886
G01 X29.4300 Y8.5906
G01 X29.4362 Y8.5281
G01 X29.4506 Y8.4310
G01 X29.4628 Y8.3694
G01 X29.4867 Y8.2742
G01 X29.5049 Y8.2141
G01 X29.5380 Y8.1217
G01 X29.5620 Y8.0637
G01 X29.6040 Y7.9750
G01 X29.6336 Y7.9196
G01 X29.6840 Y7.8354
G01 X29.7189 Y7.7832
G01 X29.7774 Y7.7044
G01 X29.8172 Y7.6558
G01 X29.8831 Y7.5831
G01 X29.9275 Y7.5387
G01 X30.0002 Y7.4728
G01 X30.0488 Y7.4329
G01 X30.1276 Y7.3745
G01 X30.1798 Y7.3396
G01 X30.2640 Y7.2891
G01 X30.3194 Y7.2595
G01 X30.4081 Y7.2176
G01 X30.4661 Y7.1935
G01 X30.5585 Y7.1605
G01 X30.6186 Y7.1422
G01 X30.7138 Y7.1184
G01 X30.7754 Y7.1061
G01 X30.8725 Y7.0917
G01 X30.9350 Y7.0856
G01 X31.0330 Y7.0808
G01 X31.0958 Y7.0808
G01 X31.1939 Y7.0856
G01 X31.2564 Y7.0917
G01 X31.3534 Y7.1061
G01 X31.4150 Y7.1184
G01 X31.5102 Y7.1422
G01 X31.5703 Y7.1605
G01 X31.6627 Y7.1935
G01 X31.7207 Y7.2176
G01 X31.8095 Y7.2595
G01 X31.8649 Y7.2891
G01 X31.9490 Y7.3396
G01 X32.0012 Y7.3745
G01 X32.0801 Y7.4329
G01 X32.1286 Y7.4728
G01 X32.2013 Y7.5387
G01 X32.2457 Y7.5831
G01 X32.3116 Y7.6558
G01 X32.3515 Y7.7044
G01 X32.4100 Y7.7832
G01 X32.4448 Y7.8354
G01 X32.4953 Y7.9196
G01 X32.5249 Y7.9750
G01 X32.5669 Y8.0637
G01 X32.5909 Y8.1217
G01 X32.6240 Y8.2141
G01 X32.6422 Y8.2742
G01 X32.6660 Y8.3694
G01 X32.6783 Y8.4310
G01 X32.6927 Y8.5281
G01 X32.6988 Y8.5906
G01 X32.7037 Y8.6886
G01 X32.7037 Y8.7514
G01 X32.6988 Y8.8494
G01 X32.6927 Y8.9119
G01 X32.6783 Y9.0090
G01 X32.6660 Y9.0706
G01 X32.6422 Y9.1658
G01 X32.6240 Y9.2259
G01 X32.5909 Y9.3183
G01 X32.5669 Y9.3763
G01 X32.5249 Y9.4650
G01 X32.4953 Y9.5204
G01 X32.4448 Y9.6046
G01 X32.4100 Y9.6568
G01 X32.3515 Y9.7356
G01 X32.3116 Y9.7842
G01 X32.3048 Y9.7918
G01 X32.3048 Y22.8882
G01 X32.3116 Y22.8958
G01 X32.3515 Y22.9444
G01 X32.4100 Y23.0232
G01 X32.4448 Y23.0754
G01 X32.4953 Y23.1596
G01 X32.5249 Y23.2150
G01 X32.5669 Y23.3037
G01 X32.5909 Y23.3617
G01 X32.6240 Y23.4541
G01 X32.6422 Y23.5142
G01 X32.6660 Y23.6094
G01 X32.6783 Y23.6710
G01 X32.6927 Y23.7681
G01 X32.6988 Y23.8306
G01 X32.7037 Y23.9286
G01 X32.7037 Y23.9914
G01 X32.6988 Y24.0894
G01 X32.6927 Y24.1519
G01 X32.6783 Y24.2490
G01 X32.6660 Y24.3106
G01 X32.6422 Y24.4058
G01 X32.6240 Y24.4659
G01 X32.5909 Y24.5583
G01 X32.5669 Y24.6163
G01 X32.5249 Y24.7050
G01 X32.4953 Y24.7604
G01 X32.4448 Y24.8446
G01 X32.4100 Y24.8968
G01 X32.3515 Y24.9756
G01 X32.3116 Y25.0242
G01 X32.2457 Y25.0969
G01 X32.2013 Y25.1413
G01 X32.1286 Y25.2072
G01 X32.0801 Y25.2471
G01 X32.0012 Y25.3055
G01 X31.9490 Y25.3404
G01 X31.8649 Y25.3909
G01 X31.8095 Y25.4205
G01 X31.7207 Y25.4624
G01 X31.6627 Y25.4865
G01 X31.5703 Y25.5195
G01 X31.5102 Y25.5378
G01 X31.4150 Y25.5616
G01 X31.3534 Y25.5739
G01 X31.2564 Y25.5883
G01 X31.1939 Y25.5944
G01 X31.1836 Y25.5949
G01 X25.5915 Y31.1870
G01 X25.5687 Y31.2087
G01 X25.5251 Y31.2482
G01 X25.4765 Y31.2881
G01 X25.4292 Y31.3232
G01 X25.3770 Y31.3581
G01 X25.3264 Y31.3884
G01 X25.2710 Y31.4180
G01 X25.2178 Y31.4432
G01 X25.1598 Y31.4672
G01 X25.1043 Y31.4870
G01 X25.0442 Y31.5053
G01 X24.9871 Y31.5196
G01 X24.9255 Y31.5318
G01 X24.8672 Y31.5405
G01 X24.8047 Y31.5466
G01 X24.7458 Y31.5495
G01 X24.7144 Y31.5503
G01 X14.6256 Y31.5503
G01 X14.5942 Y31.5495
G01 X14.5353 Y31.5466
G01 X14.4728 Y31.5405
G01 X14.4145 Y31.5318
G01 X14.3529 Y31.5196
G01 X14.2958 Y31.5053
G01 X14.2357 Y31.4870
G01 X14.1802 Y31.4672
G01 X14.1222 Y31.4432
G01 X14.0689 Y31.4180
G01 X14.0136 Y31.3884
G01 X13.9630 Y31.3581
G01 X13.9108 Y31.3232
G01 X13.8635 Y31.2881
G01 X13.8149 Y31.2482
G01 X13.7713 Y31.2087
G01 X13.7485 Y31.1870
G01 X8.1564 Y25.5949
G00 Z2.0000
M05
G00 Z2.0000
G00 Z15.00
G00 X0.0 Y0.0

