(G-CODE GENERATED BY FLATCAM v8.991 - www.flatcam.org - Version Date: 2019/12/27)

(Name: Gerber_BottomLayer.GBL_iso2_cnc)
(Type: G-code from Geometry)
(Units: MM)

(Created on Friday, 05 July 2024 at 18:33)

(TOOL DIAMETER: 0.2 mm)
(Feedrate: 120.0 mm/min)
(Feedrate_Z: 60.0 mm/min)
(Feedrate rapids 1500.0 mm/min)

(Z_Cut: -0.09 mm)
(Z_Move: 2.0 mm)
(Z Toolchange: 15.0 mm)
(X,Y Toolchange: 0.0000, 0.0000 mm)
(Z Start: None mm)
(Z End: 15.0 mm)
(Steps per circle: 64)
(Preprocessor Geometry: default)

(X range:    4.4203 ...   42.5041  mm)
(Y range:    0.3467 ...   31.1903  mm)

(Spindle Speed: None RPM)
G21
G90
G94




G01 F120.00
G00 Z2.0000

M03
G00 X4.8197 Y7.7920
G01 F60.00
G01 Z-0.0900
G01 F120.00
G01 X4.8197 Y6.5610
G01 X4.8200 Y6.5473
G01 X4.8229 Y6.4884
G01 X4.8256 Y6.4611
G01 X4.8343 Y6.4028
G01 X4.8396 Y6.3759
G01 X4.8539 Y6.3187
G01 X4.8619 Y6.2924
G01 X4.8818 Y6.2369
G01 X4.8923 Y6.2116
G01 X4.9175 Y6.1583
G01 X4.9304 Y6.1341
G01 X4.9607 Y6.0835
G01 X4.9760 Y6.0607
G01 X5.0111 Y6.0134
G01 X5.0285 Y5.9921
G01 X5.0681 Y5.9485
G01 X5.0775 Y5.9385
G01 X10.4115 Y0.6045
G01 X10.4215 Y0.5951
G01 X10.4651 Y0.5555
G01 X10.4864 Y0.5381
G01 X10.5337 Y0.5030
G01 X10.5565 Y0.4877
G01 X10.6071 Y0.4574
G01 X10.6313 Y0.4445
G01 X10.6846 Y0.4193
G01 X10.7099 Y0.4088
G01 X10.7654 Y0.3889
G01 X10.7917 Y0.3809
G01 X10.8489 Y0.3666
G01 X10.8758 Y0.3613
G01 X10.9341 Y0.3526
G01 X10.9614 Y0.3499
G01 X11.0203 Y0.3470
G01 X11.0340 Y0.3467
G01 X37.4500 Y0.3467
G01 X37.4637 Y0.3470
G01 X37.5226 Y0.3499
G01 X37.5499 Y0.3526
G01 X37.6082 Y0.3613
G01 X37.6351 Y0.3666
G01 X37.6923 Y0.3809
G01 X37.7186 Y0.3889
G01 X37.7741 Y0.4088
G01 X37.7994 Y0.4193
G01 X37.8527 Y0.4445
G01 X37.8769 Y0.4574
G01 X37.9275 Y0.4877
G01 X37.9503 Y0.5030
G01 X37.9976 Y0.5381
G01 X38.0189 Y0.5555
G01 X38.0625 Y0.5951
G01 X38.0725 Y0.6045
G01 X41.8469 Y4.3790
G01 X41.8564 Y4.3889
G01 X41.8959 Y4.4326
G01 X41.9134 Y4.4538
G01 X41.9485 Y4.5011
G01 X41.9637 Y4.5240
G01 X41.9940 Y4.5745
G01 X42.0070 Y4.5987
G01 X42.0322 Y4.6520
G01 X42.0427 Y4.6774
G01 X42.0625 Y4.7329
G01 X42.0705 Y4.7591
G01 X42.0848 Y4.8163
G01 X42.0902 Y4.8432
G01 X42.0988 Y4.9015
G01 X42.1015 Y4.9289
G01 X42.1044 Y4.9877
G01 X42.1047 Y5.0014
G01 X42.1047 Y7.7920
G01 X42.1196 Y7.8054
G01 X42.1390 Y7.8249
G01 X42.2049 Y7.8976
G01 X42.2223 Y7.9188
G01 X42.2808 Y7.9976
G01 X42.2961 Y8.0205
G01 X42.3465 Y8.1047
G01 X42.3595 Y8.1289
G01 X42.4014 Y8.2176
G01 X42.4119 Y8.2430
G01 X42.4450 Y8.3354
G01 X42.4530 Y8.3617
G01 X42.4768 Y8.4569
G01 X42.4822 Y8.4838
G01 X42.4966 Y8.5809
G01 X42.4993 Y8.6082
G01 X42.5041 Y8.7063
G01 X42.5041 Y8.7337
G01 X42.4993 Y8.8318
G01 X42.4966 Y8.8591
G01 X42.4822 Y8.9562
G01 X42.4768 Y8.9831
G01 X42.4530 Y9.0783
G01 X42.4450 Y9.1046
G01 X42.4119 Y9.1970
G01 X42.4014 Y9.2224
G01 X42.3595 Y9.3111
G01 X42.3465 Y9.3353
G01 X42.2961 Y9.4195
G01 X42.2808 Y9.4424
G01 X42.2223 Y9.5212
G01 X42.2049 Y9.5424
G01 X42.1390 Y9.6151
G01 X42.1196 Y9.6346
G01 X42.1048 Y9.6480
G01 X42.1048 Y23.0320
G01 X42.1196 Y23.0454
G01 X42.1390 Y23.0649
G01 X42.2049 Y23.1376
G01 X42.2223 Y23.1588
G01 X42.2808 Y23.2376
G01 X42.2961 Y23.2605
G01 X42.3465 Y23.3447
G01 X42.3595 Y23.3689
G01 X42.4014 Y23.4576
G01 X42.4119 Y23.4830
G01 X42.4450 Y23.5754
G01 X42.4530 Y23.6017
G01 X42.4768 Y23.6969
G01 X42.4822 Y23.7238
G01 X42.4966 Y23.8209
G01 X42.4993 Y23.8482
G01 X42.5041 Y23.9463
G01 X42.5041 Y23.9737
G01 X42.4993 Y24.0718
G01 X42.4966 Y24.0991
G01 X42.4822 Y24.1962
G01 X42.4768 Y24.2231
G01 X42.4530 Y24.3183
G01 X42.4450 Y24.3446
G01 X42.4119 Y24.4370
G01 X42.4014 Y24.4624
G01 X42.3595 Y24.5511
G01 X42.3465 Y24.5753
G01 X42.2961 Y24.6595
G01 X42.2808 Y24.6824
G01 X42.2223 Y24.7612
G01 X42.2049 Y24.7824
G01 X42.1390 Y24.8551
G01 X42.1196 Y24.8746
G01 X42.0469 Y24.9405
G01 X42.0256 Y24.9579
G01 X41.9468 Y25.0164
G01 X41.9239 Y25.0316
G01 X41.8398 Y25.0821
G01 X41.8155 Y25.0950
G01 X41.7268 Y25.1370
G01 X41.7014 Y25.1475
G01 X41.6090 Y25.1806
G01 X41.5827 Y25.1885
G01 X41.4876 Y25.2124
G01 X41.4606 Y25.2178
G01 X41.3635 Y25.2322
G01 X41.3362 Y25.2348
G01 X41.2382 Y25.2397
G01 X41.2107 Y25.2397
G01 X41.1127 Y25.2348
G01 X41.0853 Y25.2322
G01 X40.9883 Y25.2178
G01 X40.9613 Y25.2124
G01 X40.8661 Y25.1885
G01 X40.8398 Y25.1806
G01 X40.7474 Y25.1475
G01 X40.7220 Y25.1370
G01 X40.6333 Y25.0950
G01 X40.6091 Y25.0821
G01 X40.5249 Y25.0316
G01 X40.5021 Y25.0164
G01 X40.4232 Y24.9579
G01 X40.4020 Y24.9405
G01 X40.3293 Y24.8746
G01 X40.3099 Y24.8551
G01 X40.2440 Y24.7824
G01 X40.2265 Y24.7612
G01 X40.1681 Y24.6824
G01 X40.1528 Y24.6595
G01 X40.1023 Y24.5753
G01 X40.0894 Y24.5511
G01 X40.0474 Y24.4624
G01 X40.0369 Y24.4370
G01 X40.0039 Y24.3446
G01 X39.9959 Y24.3183
G01 X39.9720 Y24.2231
G01 X39.9667 Y24.1962
G01 X39.9523 Y24.0991
G01 X39.9496 Y24.0718
G01 X39.9448 Y23.9737
G01 X39.9448 Y23.9463
G01 X39.9496 Y23.8482
G01 X39.9523 Y23.8209
G01 X39.9667 Y23.7238
G01 X39.9720 Y23.6969
G01 X39.9959 Y23.6017
G01 X40.0039 Y23.5754
G01 X40.0369 Y23.4830
G01 X40.0474 Y23.4576
G01 X40.0894 Y23.3689
G01 X40.1023 Y23.3447
G01 X40.1528 Y23.2605
G01 X40.1681 Y23.2376
G01 X40.2265 Y23.1588
G01 X40.2440 Y23.1376
G01 X40.3099 Y23.0649
G01 X40.3293 Y23.0454
G01 X40.3442 Y23.0319
G01 X40.3442 Y9.6481
G01 X40.3293 Y9.6346
G01 X40.3099 Y9.6151
G01 X40.2440 Y9.5424
G01 X40.2265 Y9.5212
G01 X40.1681 Y9.4424
G01 X40.1528 Y9.4195
G01 X40.1023 Y9.3353
G01 X40.0894 Y9.3111
G01 X40.0474 Y9.2224
G01 X40.0369 Y9.1970
G01 X40.0039 Y9.1046
G01 X39.9959 Y9.0783
G01 X39.9720 Y8.9831
G01 X39.9667 Y8.9562
G01 X39.9523 Y8.8591
G01 X39.9496 Y8.8318
G01 X39.9448 Y8.7337
G01 X39.9448 Y8.7063
G01 X39.9496 Y8.6082
G01 X39.9523 Y8.5809
G01 X39.9667 Y8.4838
G01 X39.9720 Y8.4569
G01 X39.9959 Y8.3617
G01 X40.0039 Y8.3354
G01 X40.0369 Y8.2430
G01 X40.0474 Y8.2176
G01 X40.0894 Y8.1289
G01 X40.1023 Y8.1047
G01 X40.1528 Y8.0205
G01 X40.1681 Y7.9976
G01 X40.2265 Y7.9188
G01 X40.2440 Y7.8976
G01 X40.3099 Y7.8249
G01 X40.3293 Y7.8054
G01 X40.3441 Y7.7920
G01 X40.3441 Y5.3661
G01 X37.0854 Y2.1073
G01 X11.3986 Y2.1073
G01 X6.5803 Y6.9256
G01 X6.5803 Y7.7920
G01 X6.5951 Y7.8054
G01 X6.6146 Y7.8249
G01 X6.6805 Y7.8976
G01 X6.6979 Y7.9188
G01 X6.7564 Y7.9976
G01 X6.7716 Y8.0205
G01 X6.8221 Y8.1047
G01 X6.8350 Y8.1289
G01 X6.8770 Y8.2176
G01 X6.8875 Y8.2430
G01 X6.9206 Y8.3354
G01 X6.9285 Y8.3617
G01 X6.9524 Y8.4569
G01 X6.9578 Y8.4838
G01 X6.9722 Y8.5809
G01 X6.9748 Y8.6082
G01 X6.9797 Y8.7063
G01 X6.9797 Y8.7337
G01 X6.9748 Y8.8318
G01 X6.9722 Y8.8591
G01 X6.9578 Y8.9562
G01 X6.9524 Y8.9831
G01 X6.9285 Y9.0783
G01 X6.9206 Y9.1046
G01 X6.8875 Y9.1970
G01 X6.8770 Y9.2224
G01 X6.8350 Y9.3111
G01 X6.8221 Y9.3353
G01 X6.7716 Y9.4195
G01 X6.7564 Y9.4424
G01 X6.6979 Y9.5212
G01 X6.6805 Y9.5424
G01 X6.6146 Y9.6151
G01 X6.5951 Y9.6346
G01 X6.5224 Y9.7005
G01 X6.5012 Y9.7179
G01 X6.4224 Y9.7764
G01 X6.3995 Y9.7916
G01 X6.3153 Y9.8421
G01 X6.2911 Y9.8550
G01 X6.2024 Y9.8970
G01 X6.1770 Y9.9075
G01 X6.0846 Y9.9406
G01 X6.0583 Y9.9485
G01 X5.9631 Y9.9724
G01 X5.9362 Y9.9778
G01 X5.8391 Y9.9922
G01 X5.8118 Y9.9948
G01 X5.7137 Y9.9997
G01 X5.6863 Y9.9997
G01 X5.5882 Y9.9948
G01 X5.5609 Y9.9922
G01 X5.4638 Y9.9778
G01 X5.4369 Y9.9724
G01 X5.3417 Y9.9485
G01 X5.3154 Y9.9406
G01 X5.2230 Y9.9075
G01 X5.1976 Y9.8970
G01 X5.1089 Y9.8550
G01 X5.0847 Y9.8421
G01 X5.0005 Y9.7916
G01 X4.9776 Y9.7764
G01 X4.8988 Y9.7179
G01 X4.8776 Y9.7005
G01 X4.8049 Y9.6346
G01 X4.7854 Y9.6151
G01 X4.7195 Y9.5424
G01 X4.7021 Y9.5212
G01 X4.6436 Y9.4424
G01 X4.6284 Y9.4195
G01 X4.5779 Y9.3353
G01 X4.5650 Y9.3111
G01 X4.5230 Y9.2224
G01 X4.5125 Y9.1970
G01 X4.4794 Y9.1046
G01 X4.4715 Y9.0783
G01 X4.4476 Y8.9831
G01 X4.4422 Y8.9562
G01 X4.4278 Y8.8591
G01 X4.4252 Y8.8318
G01 X4.4203 Y8.7337
G01 X4.4203 Y8.7063
G01 X4.4252 Y8.6082
G01 X4.4278 Y8.5809
G01 X4.4422 Y8.4838
G01 X4.4476 Y8.4569
G01 X4.4715 Y8.3617
G01 X4.4794 Y8.3354
G01 X4.5125 Y8.2430
G01 X4.5230 Y8.2176
G01 X4.5650 Y8.1289
G01 X4.5779 Y8.1047
G01 X4.6284 Y8.0205
G01 X4.6436 Y7.9976
G01 X4.7021 Y7.9188
G01 X4.7195 Y7.8976
G01 X4.7854 Y7.8249
G01 X4.8049 Y7.8054
G01 X4.8197 Y7.7920
G00 Z2.0000
G00 X10.8137 Y7.4413
G01 F60.00
G01 Z-0.0900
G01 F120.00
G01 X14.6025 Y3.6525
G01 X14.6125 Y3.6431
G01 X14.6561 Y3.6035
G01 X14.6774 Y3.5861
G01 X14.7247 Y3.5510
G01 X14.7475 Y3.5357
G01 X14.7981 Y3.5054
G01 X14.8223 Y3.4925
G01 X14.8756 Y3.4673
G01 X14.9009 Y3.4568
G01 X14.9564 Y3.4369
G01 X14.9827 Y3.4289
G01 X15.0399 Y3.4146
G01 X15.0668 Y3.4093
G01 X15.1251 Y3.4006
G01 X15.1524 Y3.3979
G01 X15.2113 Y3.3950
G01 X15.2250 Y3.3947
G01 X31.7706 Y3.3947
G01 X31.7843 Y3.3950
G01 X31.8431 Y3.3979
G01 X31.8705 Y3.4006
G01 X31.9288 Y3.4093
G01 X31.9557 Y3.4146
G01 X32.0129 Y3.4289
G01 X32.0391 Y3.4369
G01 X32.0946 Y3.4568
G01 X32.1200 Y3.4673
G01 X32.1733 Y3.4925
G01 X32.1975 Y3.5054
G01 X32.2480 Y3.5357
G01 X32.2709 Y3.5510
G01 X32.3182 Y3.5861
G01 X32.3394 Y3.6035
G01 X32.3831 Y3.6431
G01 X32.3930 Y3.6525
G01 X36.1818 Y7.4413
G01 X36.2018 Y7.4403
G01 X36.2293 Y7.4403
G01 X36.3273 Y7.4452
G01 X36.3547 Y7.4478
G01 X36.4517 Y7.4622
G01 X36.4787 Y7.4676
G01 X36.5739 Y7.4915
G01 X36.6002 Y7.4994
G01 X36.6926 Y7.5325
G01 X36.7180 Y7.5430
G01 X36.8067 Y7.5850
G01 X36.8309 Y7.5979
G01 X36.9151 Y7.6484
G01 X36.9379 Y7.6636
G01 X37.0167 Y7.7221
G01 X37.0380 Y7.7395
G01 X37.1107 Y7.8054
G01 X37.1301 Y7.8249
G01 X37.1960 Y7.8976
G01 X37.2135 Y7.9188
G01 X37.2719 Y7.9976
G01 X37.2872 Y8.0205
G01 X37.3376 Y8.1047
G01 X37.3506 Y8.1289
G01 X37.3926 Y8.2176
G01 X37.4031 Y8.2430
G01 X37.4361 Y8.3354
G01 X37.4441 Y8.3617
G01 X37.4680 Y8.4569
G01 X37.4733 Y8.4838
G01 X37.4877 Y8.5809
G01 X37.4904 Y8.6082
G01 X37.4952 Y8.7063
G01 X37.4952 Y8.7337
G01 X37.4904 Y8.8318
G01 X37.4877 Y8.8591
G01 X37.4733 Y8.9562
G01 X37.4680 Y8.9831
G01 X37.4441 Y9.0783
G01 X37.4361 Y9.1046
G01 X37.4031 Y9.1970
G01 X37.3926 Y9.2224
G01 X37.3506 Y9.3111
G01 X37.3376 Y9.3353
G01 X37.2872 Y9.4195
G01 X37.2719 Y9.4424
G01 X37.2135 Y9.5212
G01 X37.1960 Y9.5424
G01 X37.1301 Y9.6151
G01 X37.1107 Y9.6346
G01 X37.0959 Y9.6480
G01 X37.0959 Y23.0320
G01 X37.1107 Y23.0454
G01 X37.1301 Y23.0649
G01 X37.1960 Y23.1376
G01 X37.2135 Y23.1588
G01 X37.2719 Y23.2376
G01 X37.2872 Y23.2605
G01 X37.3376 Y23.3447
G01 X37.3506 Y23.3689
G01 X37.3926 Y23.4576
G01 X37.4031 Y23.4830
G01 X37.4361 Y23.5754
G01 X37.4441 Y23.6017
G01 X37.4680 Y23.6969
G01 X37.4733 Y23.7238
G01 X37.4877 Y23.8209
G01 X37.4904 Y23.8482
G01 X37.4952 Y23.9463
G01 X37.4952 Y23.9737
G01 X37.4904 Y24.0718
G01 X37.4877 Y24.0991
G01 X37.4733 Y24.1962
G01 X37.4680 Y24.2231
G01 X37.4441 Y24.3183
G01 X37.4361 Y24.3446
G01 X37.4031 Y24.4370
G01 X37.3926 Y24.4624
G01 X37.3506 Y24.5511
G01 X37.3376 Y24.5753
G01 X37.2872 Y24.6595
G01 X37.2719 Y24.6824
G01 X37.2135 Y24.7612
G01 X37.1960 Y24.7824
G01 X37.1301 Y24.8551
G01 X37.1107 Y24.8746
G01 X37.0380 Y24.9405
G01 X37.0167 Y24.9579
G01 X36.9379 Y25.0164
G01 X36.9151 Y25.0316
G01 X36.8309 Y25.0821
G01 X36.8067 Y25.0950
G01 X36.7180 Y25.1370
G01 X36.6926 Y25.1475
G01 X36.6002 Y25.1806
G01 X36.5739 Y25.1885
G01 X36.4787 Y25.2124
G01 X36.4517 Y25.2178
G01 X36.3547 Y25.2322
G01 X36.3273 Y25.2348
G01 X36.2293 Y25.2397
G01 X36.2018 Y25.2397
G01 X36.1038 Y25.2348
G01 X36.0765 Y25.2322
G01 X35.9794 Y25.2178
G01 X35.9524 Y25.2124
G01 X35.8572 Y25.1885
G01 X35.8309 Y25.1806
G01 X35.7385 Y25.1475
G01 X35.7132 Y25.1370
G01 X35.6244 Y25.0950
G01 X35.6002 Y25.0821
G01 X35.5160 Y25.0316
G01 X35.4932 Y25.0164
G01 X35.4144 Y24.9579
G01 X35.3931 Y24.9405
G01 X35.3204 Y24.8746
G01 X35.3010 Y24.8551
G01 X35.2351 Y24.7824
G01 X35.2177 Y24.7612
G01 X35.1592 Y24.6824
G01 X35.1439 Y24.6595
G01 X35.0935 Y24.5753
G01 X35.0805 Y24.5511
G01 X35.0386 Y24.4624
G01 X35.0280 Y24.4370
G01 X34.9950 Y24.3446
G01 X34.9870 Y24.3183
G01 X34.9632 Y24.2231
G01 X34.9578 Y24.1962
G01 X34.9434 Y24.0991
G01 X34.9407 Y24.0718
G01 X34.9359 Y23.9737
G01 X34.9359 Y23.9463
G01 X34.9407 Y23.8482
G01 X34.9434 Y23.8209
G01 X34.9578 Y23.7238
G01 X34.9632 Y23.6969
G01 X34.9870 Y23.6017
G01 X34.9950 Y23.5754
G01 X35.0280 Y23.4830
G01 X35.0386 Y23.4576
G01 X35.0805 Y23.3689
G01 X35.0935 Y23.3447
G01 X35.1439 Y23.2605
G01 X35.1592 Y23.2376
G01 X35.2177 Y23.1588
G01 X35.2351 Y23.1376
G01 X35.3010 Y23.0649
G01 X35.3204 Y23.0454
G01 X35.3353 Y23.0320
G01 X35.3353 Y9.6480
G01 X35.3204 Y9.6346
G01 X35.3010 Y9.6151
G01 X35.2351 Y9.5424
G01 X35.2177 Y9.5212
G01 X35.1592 Y9.4424
G01 X35.1439 Y9.4195
G01 X35.0935 Y9.3353
G01 X35.0805 Y9.3111
G01 X35.0386 Y9.2224
G01 X35.0280 Y9.1970
G01 X34.9950 Y9.1046
G01 X34.9870 Y9.0783
G01 X34.9632 Y8.9831
G01 X34.9578 Y8.9562
G01 X34.9434 Y8.8591
G01 X34.9407 Y8.8318
G01 X34.9359 Y8.7337
G01 X34.9359 Y8.7063
G01 X34.9369 Y8.6863
G01 X31.4059 Y5.1553
G01 X15.5896 Y5.1553
G01 X12.0587 Y8.6863
G01 X12.0597 Y8.7063
G01 X12.0597 Y8.7337
G01 X12.0548 Y8.8318
G01 X12.0522 Y8.8591
G01 X12.0378 Y8.9562
G01 X12.0324 Y8.9831
G01 X12.0085 Y9.0783
G01 X12.0006 Y9.1046
G01 X11.9675 Y9.1970
G01 X11.9570 Y9.2224
G01 X11.9150 Y9.3111
G01 X11.9021 Y9.3353
G01 X11.8516 Y9.4195
G01 X11.8364 Y9.4424
G01 X11.7779 Y9.5212
G01 X11.7605 Y9.5424
G01 X11.6946 Y9.6151
G01 X11.6751 Y9.6346
G01 X11.6024 Y9.7005
G01 X11.5812 Y9.7179
G01 X11.5024 Y9.7764
G01 X11.4795 Y9.7916
G01 X11.3953 Y9.8421
G01 X11.3711 Y9.8550
G01 X11.2824 Y9.8970
G01 X11.2570 Y9.9075
G01 X11.1646 Y9.9406
G01 X11.1383 Y9.9485
G01 X11.0431 Y9.9724
G01 X11.0162 Y9.9778
G01 X10.9191 Y9.9922
G01 X10.8918 Y9.9948
G01 X10.7937 Y9.9997
G01 X10.7663 Y9.9997
G01 X10.6682 Y9.9948
G01 X10.6409 Y9.9922
G01 X10.5438 Y9.9778
G01 X10.5169 Y9.9724
G01 X10.4217 Y9.9485
G01 X10.3954 Y9.9406
G01 X10.3030 Y9.9075
G01 X10.2776 Y9.8970
G01 X10.1889 Y9.8550
G01 X10.1647 Y9.8421
G01 X10.0805 Y9.7916
G01 X10.0576 Y9.7764
G01 X9.9788 Y9.7179
G01 X9.9576 Y9.7005
G01 X9.8849 Y9.6346
G01 X9.8654 Y9.6151
G01 X9.7995 Y9.5424
G01 X9.7821 Y9.5212
G01 X9.7236 Y9.4424
G01 X9.7084 Y9.4195
G01 X9.6579 Y9.3353
G01 X9.6450 Y9.3111
G01 X9.6030 Y9.2224
G01 X9.5925 Y9.1970
G01 X9.5594 Y9.1046
G01 X9.5515 Y9.0783
G01 X9.5276 Y8.9831
G01 X9.5222 Y8.9562
G01 X9.5078 Y8.8591
G01 X9.5052 Y8.8318
G01 X9.5003 Y8.7337
G01 X9.5003 Y8.7063
G01 X9.5052 Y8.6082
G01 X9.5078 Y8.5809
G01 X9.5222 Y8.4838
G01 X9.5276 Y8.4569
G01 X9.5515 Y8.3617
G01 X9.5594 Y8.3354
G01 X9.5925 Y8.2430
G01 X9.6030 Y8.2176
G01 X9.6450 Y8.1289
G01 X9.6579 Y8.1047
G01 X9.7084 Y8.0205
G01 X9.7236 Y7.9976
G01 X9.7821 Y7.9188
G01 X9.7995 Y7.8976
G01 X9.8654 Y7.8249
G01 X9.8849 Y7.8054
G01 X9.9576 Y7.7395
G01 X9.9788 Y7.7221
G01 X10.0576 Y7.6636
G01 X10.0805 Y7.6484
G01 X10.1647 Y7.5979
G01 X10.1889 Y7.5850
G01 X10.2776 Y7.5430
G01 X10.3030 Y7.5325
G01 X10.3954 Y7.4994
G01 X10.4217 Y7.4915
G01 X10.5169 Y7.4676
G01 X10.5438 Y7.4622
G01 X10.6409 Y7.4478
G01 X10.6682 Y7.4452
G01 X10.7663 Y7.4403
G01 X10.7937 Y7.4403
G01 X10.8137 Y7.4413
G00 Z2.0000
G00 X14.2124 Y24.8403
G01 F60.00
G01 Z-0.0900
G01 F120.00
G01 X14.1990 Y24.8551
G01 X14.1796 Y24.8746
G01 X14.1069 Y24.9405
G01 X14.0856 Y24.9579
G01 X14.0068 Y25.0164
G01 X13.9839 Y25.0316
G01 X13.8998 Y25.0821
G01 X13.8755 Y25.0950
G01 X13.7868 Y25.1370
G01 X13.7614 Y25.1475
G01 X13.6690 Y25.1806
G01 X13.6427 Y25.1885
G01 X13.5476 Y25.2124
G01 X13.5206 Y25.2178
G01 X13.4235 Y25.2322
G01 X13.3962 Y25.2348
G01 X13.2982 Y25.2397
G01 X13.2707 Y25.2397
G01 X13.1727 Y25.2348
G01 X13.1453 Y25.2322
G01 X13.0483 Y25.2178
G01 X13.0213 Y25.2124
G01 X12.9261 Y25.1885
G01 X12.8998 Y25.1806
G01 X12.8074 Y25.1475
G01 X12.7820 Y25.1370
G01 X12.6933 Y25.0950
G01 X12.6691 Y25.0821
G01 X12.5849 Y25.0316
G01 X12.5621 Y25.0164
G01 X12.4832 Y24.9579
G01 X12.4620 Y24.9405
G01 X12.3893 Y24.8746
G01 X12.3699 Y24.8551
G01 X12.3040 Y24.7824
G01 X12.2865 Y24.7612
G01 X12.2281 Y24.6824
G01 X12.2128 Y24.6595
G01 X12.1623 Y24.5753
G01 X12.1494 Y24.5511
G01 X12.1074 Y24.4624
G01 X12.0969 Y24.4370
G01 X12.0639 Y24.3446
G01 X12.0559 Y24.3183
G01 X12.0320 Y24.2231
G01 X12.0267 Y24.1962
G01 X12.0123 Y24.0991
G01 X12.0096 Y24.0718
G01 X12.0048 Y23.9737
G01 X12.0048 Y23.9463
G01 X12.0096 Y23.8482
G01 X12.0123 Y23.8209
G01 X12.0267 Y23.7238
G01 X12.0320 Y23.6969
G01 X12.0559 Y23.6017
G01 X12.0639 Y23.5754
G01 X12.0969 Y23.4830
G01 X12.1074 Y23.4576
G01 X12.1494 Y23.3689
G01 X12.1623 Y23.3447
G01 X12.2128 Y23.2605
G01 X12.2281 Y23.2376
G01 X12.2865 Y23.1588
G01 X12.3040 Y23.1376
G01 X12.3699 Y23.0649
G01 X12.3893 Y23.0454
G01 X12.4620 Y22.9795
G01 X12.4832 Y22.9621
G01 X12.5621 Y22.9036
G01 X12.5849 Y22.8884
G01 X12.6691 Y22.8379
G01 X12.6933 Y22.8250
G01 X12.7820 Y22.7830
G01 X12.8074 Y22.7725
G01 X12.8998 Y22.7394
G01 X12.9261 Y22.7315
G01 X13.0213 Y22.7076
G01 X13.0483 Y22.7022
G01 X13.1453 Y22.6878
G01 X13.1727 Y22.6852
G01 X13.2707 Y22.6803
G01 X13.2982 Y22.6803
G01 X13.3962 Y22.6852
G01 X13.4235 Y22.6878
G01 X13.5206 Y22.7022
G01 X13.5476 Y22.7076
G01 X13.6427 Y22.7315
G01 X13.6690 Y22.7394
G01 X13.7614 Y22.7725
G01 X13.7868 Y22.7830
G01 X13.8755 Y22.8250
G01 X13.8998 Y22.8379
G01 X13.9839 Y22.8884
G01 X14.0068 Y22.9036
G01 X14.0856 Y22.9621
G01 X14.1069 Y22.9795
G01 X14.1796 Y23.0454
G01 X14.1990 Y23.0649
G01 X14.2125 Y23.0797
G01 X25.1275 Y23.0797
G01 X25.1410 Y23.0649
G01 X25.1604 Y23.0454
G01 X25.1753 Y23.0320
G01 X25.1753 Y9.6480
G01 X25.1604 Y9.6346
G01 X25.1410 Y9.6151
G01 X25.0751 Y9.5424
G01 X25.0577 Y9.5212
G01 X24.9992 Y9.4424
G01 X24.9839 Y9.4195
G01 X24.9335 Y9.3353
G01 X24.9205 Y9.3111
G01 X24.8786 Y9.2224
G01 X24.8680 Y9.1970
G01 X24.8350 Y9.1046
G01 X24.8270 Y9.0783
G01 X24.8032 Y8.9831
G01 X24.7978 Y8.9562
G01 X24.7834 Y8.8591
G01 X24.7807 Y8.8318
G01 X24.7759 Y8.7337
G01 X24.7759 Y8.7063
G01 X24.7807 Y8.6082
G01 X24.7834 Y8.5809
G01 X24.7978 Y8.4838
G01 X24.8032 Y8.4569
G01 X24.8270 Y8.3617
G01 X24.8350 Y8.3354
G01 X24.8680 Y8.2430
G01 X24.8786 Y8.2176
G01 X24.9205 Y8.1289
G01 X24.9335 Y8.1047
G01 X24.9839 Y8.0205
G01 X24.9992 Y7.9976
G01 X25.0577 Y7.9188
G01 X25.0751 Y7.8976
G01 X25.1410 Y7.8249
G01 X25.1604 Y7.8054
G01 X25.2331 Y7.7395
G01 X25.2544 Y7.7221
G01 X25.3332 Y7.6636
G01 X25.3560 Y7.6484
G01 X25.4402 Y7.5979
G01 X25.4644 Y7.5850
G01 X25.5532 Y7.5430
G01 X25.5785 Y7.5325
G01 X25.6709 Y7.4994
G01 X25.6972 Y7.4915
G01 X25.7924 Y7.4676
G01 X25.8194 Y7.4622
G01 X25.9165 Y7.4478
G01 X25.9438 Y7.4452
G01 X26.0418 Y7.4403
G01 X26.0693 Y7.4403
G01 X26.1673 Y7.4452
G01 X26.1947 Y7.4478
G01 X26.2917 Y7.4622
G01 X26.3187 Y7.4676
G01 X26.4139 Y7.4915
G01 X26.4402 Y7.4994
G01 X26.5326 Y7.5325
G01 X26.5580 Y7.5430
G01 X26.6467 Y7.5850
G01 X26.6709 Y7.5979
G01 X26.7551 Y7.6484
G01 X26.7779 Y7.6636
G01 X26.8567 Y7.7221
G01 X26.8780 Y7.7395
G01 X26.9507 Y7.8054
G01 X26.9701 Y7.8249
G01 X27.0360 Y7.8976
G01 X27.0535 Y7.9188
G01 X27.1119 Y7.9976
G01 X27.1272 Y8.0205
G01 X27.1776 Y8.1047
G01 X27.1906 Y8.1289
G01 X27.2326 Y8.2176
G01 X27.2431 Y8.2430
G01 X27.2761 Y8.3354
G01 X27.2841 Y8.3617
G01 X27.3080 Y8.4569
G01 X27.3133 Y8.4838
G01 X27.3277 Y8.5809
G01 X27.3304 Y8.6082
G01 X27.3352 Y8.7063
G01 X27.3352 Y8.7337
G01 X27.3304 Y8.8318
G01 X27.3277 Y8.8591
G01 X27.3133 Y8.9562
G01 X27.3080 Y8.9831
G01 X27.2841 Y9.0783
G01 X27.2761 Y9.1046
G01 X27.2431 Y9.1970
G01 X27.2326 Y9.2224
G01 X27.1906 Y9.3111
G01 X27.1776 Y9.3353
G01 X27.1272 Y9.4195
G01 X27.1119 Y9.4424
G01 X27.0535 Y9.5212
G01 X27.0360 Y9.5424
G01 X26.9701 Y9.6151
G01 X26.9507 Y9.6346
G01 X26.9359 Y9.6480
G01 X26.9359 Y23.0320
G01 X26.9507 Y23.0454
G01 X26.9701 Y23.0649
G01 X27.0360 Y23.1376
G01 X27.0535 Y23.1588
G01 X27.1119 Y23.2376
G01 X27.1272 Y23.2605
G01 X27.1776 Y23.3447
G01 X27.1906 Y23.3689
G01 X27.2326 Y23.4576
G01 X27.2431 Y23.4830
G01 X27.2761 Y23.5754
G01 X27.2841 Y23.6017
G01 X27.3080 Y23.6969
G01 X27.3133 Y23.7238
G01 X27.3277 Y23.8209
G01 X27.3304 Y23.8482
G01 X27.3352 Y23.9463
G01 X27.3352 Y23.9737
G01 X27.3304 Y24.0718
G01 X27.3277 Y24.0991
G01 X27.3133 Y24.1962
G01 X27.3080 Y24.2231
G01 X27.2841 Y24.3183
G01 X27.2761 Y24.3446
G01 X27.2431 Y24.4370
G01 X27.2326 Y24.4624
G01 X27.1906 Y24.5511
G01 X27.1776 Y24.5753
G01 X27.1272 Y24.6595
G01 X27.1119 Y24.6824
G01 X27.0535 Y24.7612
G01 X27.0360 Y24.7824
G01 X26.9701 Y24.8551
G01 X26.9507 Y24.8746
G01 X26.8780 Y24.9405
G01 X26.8567 Y24.9579
G01 X26.7779 Y25.0164
G01 X26.7551 Y25.0316
G01 X26.6709 Y25.0821
G01 X26.6467 Y25.0950
G01 X26.5580 Y25.1370
G01 X26.5326 Y25.1475
G01 X26.4402 Y25.1806
G01 X26.4139 Y25.1885
G01 X26.3187 Y25.2124
G01 X26.2917 Y25.2178
G01 X26.1947 Y25.2322
G01 X26.1673 Y25.2348
G01 X26.0693 Y25.2397
G01 X26.0418 Y25.2397
G01 X25.9438 Y25.2348
G01 X25.9165 Y25.2322
G01 X25.8194 Y25.2178
G01 X25.7924 Y25.2124
G01 X25.6972 Y25.1885
G01 X25.6709 Y25.1806
G01 X25.5785 Y25.1475
G01 X25.5532 Y25.1370
G01 X25.4644 Y25.0950
G01 X25.4402 Y25.0821
G01 X25.3560 Y25.0316
G01 X25.3332 Y25.0164
G01 X25.2544 Y24.9579
G01 X25.2331 Y24.9405
G01 X25.1604 Y24.8746
G01 X25.1410 Y24.8551
G01 X25.1276 Y24.8403
G01 X14.2124 Y24.8403
G00 Z2.0000
G00 X8.3093 Y25.2387
G01 F60.00
G01 Z-0.0900
G01 F120.00
G01 X8.2893 Y25.2397
G01 X8.2618 Y25.2397
G01 X8.1638 Y25.2348
G01 X8.1364 Y25.2322
G01 X8.0394 Y25.2178
G01 X8.0124 Y25.2124
G01 X7.9172 Y25.1885
G01 X7.8909 Y25.1806
G01 X7.7985 Y25.1475
G01 X7.7732 Y25.1370
G01 X7.6844 Y25.0950
G01 X7.6602 Y25.0821
G01 X7.5760 Y25.0316
G01 X7.5532 Y25.0164
G01 X7.4744 Y24.9579
G01 X7.4531 Y24.9405
G01 X7.3804 Y24.8746
G01 X7.3610 Y24.8551
G01 X7.2951 Y24.7824
G01 X7.2776 Y24.7612
G01 X7.2192 Y24.6824
G01 X7.2039 Y24.6595
G01 X7.1535 Y24.5753
G01 X7.1405 Y24.5511
G01 X7.0986 Y24.4624
G01 X7.0880 Y24.4370
G01 X7.0550 Y24.3446
G01 X7.0470 Y24.3183
G01 X7.0232 Y24.2231
G01 X7.0178 Y24.1962
G01 X7.0034 Y24.0991
G01 X7.0007 Y24.0718
G01 X6.9959 Y23.9737
G01 X6.9959 Y23.9463
G01 X7.0007 Y23.8482
G01 X7.0034 Y23.8209
G01 X7.0178 Y23.7238
G01 X7.0232 Y23.6969
G01 X7.0470 Y23.6017
G01 X7.0550 Y23.5754
G01 X7.0880 Y23.4830
G01 X7.0986 Y23.4576
G01 X7.1405 Y23.3689
G01 X7.1535 Y23.3447
G01 X7.2039 Y23.2605
G01 X7.2192 Y23.2376
G01 X7.2776 Y23.1588
G01 X7.2951 Y23.1376
G01 X7.3610 Y23.0649
G01 X7.3804 Y23.0454
G01 X7.4531 Y22.9795
G01 X7.4744 Y22.9621
G01 X7.5532 Y22.9036
G01 X7.5760 Y22.8884
G01 X7.6602 Y22.8379
G01 X7.6844 Y22.8250
G01 X7.7732 Y22.7830
G01 X7.7985 Y22.7725
G01 X7.8909 Y22.7394
G01 X7.9172 Y22.7315
G01 X8.0124 Y22.7076
G01 X8.0394 Y22.7022
G01 X8.1364 Y22.6878
G01 X8.1638 Y22.6852
G01 X8.2618 Y22.6803
G01 X8.2893 Y22.6803
G01 X8.3093 Y22.6813
G01 X14.9797 Y16.0109
G01 X14.9797 Y9.6480
G01 X14.9649 Y9.6346
G01 X14.9454 Y9.6151
G01 X14.8795 Y9.5424
G01 X14.8621 Y9.5212
G01 X14.8036 Y9.4424
G01 X14.7884 Y9.4195
G01 X14.7379 Y9.3353
G01 X14.7250 Y9.3111
G01 X14.6830 Y9.2224
G01 X14.6725 Y9.1970
G01 X14.6394 Y9.1046
G01 X14.6315 Y9.0783
G01 X14.6076 Y8.9831
G01 X14.6022 Y8.9562
G01 X14.5878 Y8.8591
G01 X14.5852 Y8.8318
G01 X14.5803 Y8.7337
G01 X14.5803 Y8.7063
G01 X14.5852 Y8.6082
G01 X14.5878 Y8.5809
G01 X14.6022 Y8.4838
G01 X14.6076 Y8.4569
G01 X14.6315 Y8.3617
G01 X14.6394 Y8.3354
G01 X14.6725 Y8.2430
G01 X14.6830 Y8.2176
G01 X14.7250 Y8.1289
G01 X14.7379 Y8.1047
G01 X14.7884 Y8.0205
G01 X14.8036 Y7.9976
G01 X14.8621 Y7.9188
G01 X14.8795 Y7.8976
G01 X14.9454 Y7.8249
G01 X14.9649 Y7.8054
G01 X15.0376 Y7.7395
G01 X15.0588 Y7.7221
G01 X15.1376 Y7.6636
G01 X15.1605 Y7.6484
G01 X15.2447 Y7.5979
G01 X15.2689 Y7.5850
G01 X15.3576 Y7.5430
G01 X15.3830 Y7.5325
G01 X15.4754 Y7.4994
G01 X15.5017 Y7.4915
G01 X15.5969 Y7.4676
G01 X15.6238 Y7.4622
G01 X15.7209 Y7.4478
G01 X15.7482 Y7.4452
G01 X15.8463 Y7.4403
G01 X15.8737 Y7.4403
G01 X15.9718 Y7.4452
G01 X15.9991 Y7.4478
G01 X16.0962 Y7.4622
G01 X16.1231 Y7.4676
G01 X16.2183 Y7.4915
G01 X16.2446 Y7.4994
G01 X16.3370 Y7.5325
G01 X16.3624 Y7.5430
G01 X16.4511 Y7.5850
G01 X16.4753 Y7.5979
G01 X16.5595 Y7.6484
G01 X16.5824 Y7.6636
G01 X16.6612 Y7.7221
G01 X16.6824 Y7.7395
G01 X16.7551 Y7.8054
G01 X16.7746 Y7.8249
G01 X16.8405 Y7.8976
G01 X16.8579 Y7.9188
G01 X16.9164 Y7.9976
G01 X16.9316 Y8.0205
G01 X16.9821 Y8.1047
G01 X16.9950 Y8.1289
G01 X17.0370 Y8.2176
G01 X17.0475 Y8.2430
G01 X17.0806 Y8.3354
G01 X17.0885 Y8.3617
G01 X17.1124 Y8.4569
G01 X17.1178 Y8.4838
G01 X17.1322 Y8.5809
G01 X17.1348 Y8.6082
G01 X17.1397 Y8.7063
G01 X17.1397 Y8.7337
G01 X17.1348 Y8.8318
G01 X17.1322 Y8.8591
G01 X17.1178 Y8.9562
G01 X17.1124 Y8.9831
G01 X17.0885 Y9.0783
G01 X17.0806 Y9.1046
G01 X17.0475 Y9.1970
G01 X17.0370 Y9.2224
G01 X16.9950 Y9.3111
G01 X16.9821 Y9.3353
G01 X16.9316 Y9.4195
G01 X16.9164 Y9.4424
G01 X16.8579 Y9.5212
G01 X16.8405 Y9.5424
G01 X16.7746 Y9.6151
G01 X16.7551 Y9.6346
G01 X16.7403 Y9.6480
G01 X16.7403 Y16.3756
G01 X16.7400 Y16.3893
G01 X16.7371 Y16.4482
G01 X16.7344 Y16.4755
G01 X16.7258 Y16.5338
G01 X16.7204 Y16.5607
G01 X16.7061 Y16.6179
G01 X16.6981 Y16.6442
G01 X16.6783 Y16.6996
G01 X16.6677 Y16.7250
G01 X16.6426 Y16.7783
G01 X16.6296 Y16.8025
G01 X16.5993 Y16.8530
G01 X16.5840 Y16.8759
G01 X16.5490 Y16.9232
G01 X16.5315 Y16.9444
G01 X16.4920 Y16.9881
G01 X16.4825 Y16.9980
G01 X9.5542 Y23.9263
G01 X9.5552 Y23.9463
G01 X9.5552 Y23.9737
G01 X9.5542 Y23.9937
G01 X14.9902 Y29.4297
G01 X24.3498 Y29.4297
G01 X29.7858 Y23.9937
G01 X29.7848 Y23.9737
G01 X29.7848 Y23.9463
G01 X29.7896 Y23.8482
G01 X29.7923 Y23.8209
G01 X29.8067 Y23.7238
G01 X29.8120 Y23.6969
G01 X29.8359 Y23.6017
G01 X29.8439 Y23.5754
G01 X29.8769 Y23.4830
G01 X29.8874 Y23.4576
G01 X29.9294 Y23.3689
G01 X29.9423 Y23.3447
G01 X29.9928 Y23.2605
G01 X30.0081 Y23.2376
G01 X30.0665 Y23.1588
G01 X30.0840 Y23.1376
G01 X30.1499 Y23.0649
G01 X30.1693 Y23.0454
G01 X30.1842 Y23.0319
G01 X30.1842 Y9.6481
G01 X30.1693 Y9.6346
G01 X30.1499 Y9.6151
G01 X30.0840 Y9.5424
G01 X30.0665 Y9.5212
G01 X30.0081 Y9.4424
G01 X29.9928 Y9.4195
G01 X29.9423 Y9.3353
G01 X29.9294 Y9.3111
G01 X29.8874 Y9.2224
G01 X29.8769 Y9.1970
G01 X29.8439 Y9.1046
G01 X29.8359 Y9.0783
G01 X29.8120 Y8.9831
G01 X29.8067 Y8.9562
G01 X29.7923 Y8.8591
G01 X29.7896 Y8.8318
G01 X29.7848 Y8.7337
G01 X29.7848 Y8.7063
G01 X29.7896 Y8.6082
G01 X29.7923 Y8.5809
G01 X29.8067 Y8.4838
G01 X29.8120 Y8.4569
G01 X29.8359 Y8.3617
G01 X29.8439 Y8.3354
G01 X29.8769 Y8.2430
G01 X29.8874 Y8.2176
G01 X29.9294 Y8.1289
G01 X29.9423 Y8.1047
G01 X29.9928 Y8.0205
G01 X30.0081 Y7.9976
G01 X30.0665 Y7.9188
G01 X30.0840 Y7.8976
G01 X30.1499 Y7.8249
G01 X30.1693 Y7.8054
G01 X30.2420 Y7.7395
G01 X30.2632 Y7.7221
G01 X30.3421 Y7.6636
G01 X30.3649 Y7.6484
G01 X30.4491 Y7.5979
G01 X30.4733 Y7.5850
G01 X30.5620 Y7.5430
G01 X30.5874 Y7.5325
G01 X30.6798 Y7.4994
G01 X30.7061 Y7.4915
G01 X30.8013 Y7.4676
G01 X30.8283 Y7.4622
G01 X30.9253 Y7.4478
G01 X30.9527 Y7.4452
G01 X31.0507 Y7.4403
G01 X31.0782 Y7.4403
G01 X31.1762 Y7.4452
G01 X31.2035 Y7.4478
G01 X31.3006 Y7.4622
G01 X31.3276 Y7.4676
G01 X31.4227 Y7.4915
G01 X31.4490 Y7.4994
G01 X31.5414 Y7.5325
G01 X31.5668 Y7.5430
G01 X31.6555 Y7.5850
G01 X31.6798 Y7.5979
G01 X31.7639 Y7.6484
G01 X31.7868 Y7.6636
G01 X31.8656 Y7.7221
G01 X31.8869 Y7.7395
G01 X31.9596 Y7.8054
G01 X31.9790 Y7.8249
G01 X32.0449 Y7.8976
G01 X32.0623 Y7.9188
G01 X32.1208 Y7.9976
G01 X32.1361 Y8.0205
G01 X32.1865 Y8.1047
G01 X32.1995 Y8.1289
G01 X32.2414 Y8.2176
G01 X32.2519 Y8.2430
G01 X32.2850 Y8.3354
G01 X32.2930 Y8.3617
G01 X32.3168 Y8.4569
G01 X32.3222 Y8.4838
G01 X32.3366 Y8.5809
G01 X32.3393 Y8.6082
G01 X32.3441 Y8.7063
G01 X32.3441 Y8.7337
G01 X32.3393 Y8.8318
G01 X32.3366 Y8.8591
G01 X32.3222 Y8.9562
G01 X32.3168 Y8.9831
G01 X32.2930 Y9.0783
G01 X32.2850 Y9.1046
G01 X32.2519 Y9.1970
G01 X32.2414 Y9.2224
G01 X32.1995 Y9.3111
G01 X32.1865 Y9.3353
G01 X32.1361 Y9.4195
G01 X32.1208 Y9.4424
G01 X32.0623 Y9.5212
G01 X32.0449 Y9.5424
G01 X31.9790 Y9.6151
G01 X31.9596 Y9.6346
G01 X31.9448 Y9.6480
G01 X31.9448 Y23.0320
G01 X31.9596 Y23.0454
G01 X31.9790 Y23.0649
G01 X32.0449 Y23.1376
G01 X32.0623 Y23.1588
G01 X32.1208 Y23.2376
G01 X32.1361 Y23.2605
G01 X32.1865 Y23.3447
G01 X32.1995 Y23.3689
G01 X32.2414 Y23.4576
G01 X32.2519 Y23.4830
G01 X32.2850 Y23.5754
G01 X32.2930 Y23.6017
G01 X32.3168 Y23.6969
G01 X32.3222 Y23.7238
G01 X32.3366 Y23.8209
G01 X32.3393 Y23.8482
G01 X32.3441 Y23.9463
G01 X32.3441 Y23.9737
G01 X32.3393 Y24.0718
G01 X32.3366 Y24.0991
G01 X32.3222 Y24.1962
G01 X32.3168 Y24.2231
G01 X32.2930 Y24.3183
G01 X32.2850 Y24.3446
G01 X32.2519 Y24.4370
G01 X32.2414 Y24.4624
G01 X32.1995 Y24.5511
G01 X32.1865 Y24.5753
G01 X32.1361 Y24.6595
G01 X32.1208 Y24.6824
G01 X32.0623 Y24.7612
G01 X32.0449 Y24.7824
G01 X31.9790 Y24.8551
G01 X31.9596 Y24.8746
G01 X31.8869 Y24.9405
G01 X31.8656 Y24.9579
G01 X31.7868 Y25.0164
G01 X31.7639 Y25.0316
G01 X31.6798 Y25.0821
G01 X31.6555 Y25.0950
G01 X31.5668 Y25.1370
G01 X31.5414 Y25.1475
G01 X31.4490 Y25.1806
G01 X31.4227 Y25.1885
G01 X31.3276 Y25.2124
G01 X31.3006 Y25.2178
G01 X31.2035 Y25.2322
G01 X31.1762 Y25.2348
G01 X31.0782 Y25.2397
G01 X31.0507 Y25.2397
G01 X31.0307 Y25.2387
G01 X25.3369 Y30.9325
G01 X25.3269 Y30.9419
G01 X25.2833 Y30.9815
G01 X25.2621 Y30.9989
G01 X25.2147 Y31.0340
G01 X25.1919 Y31.0493
G01 X25.1414 Y31.0796
G01 X25.1171 Y31.0925
G01 X25.0639 Y31.1177
G01 X25.0385 Y31.1282
G01 X24.9830 Y31.1481
G01 X24.9567 Y31.1561
G01 X24.8996 Y31.1704
G01 X24.8726 Y31.1757
G01 X24.8144 Y31.1844
G01 X24.7870 Y31.1871
G01 X24.7282 Y31.1900
G01 X24.7144 Y31.1903
G01 X14.6256 Y31.1903
G01 X14.6118 Y31.1900
G01 X14.5530 Y31.1871
G01 X14.5256 Y31.1844
G01 X14.4674 Y31.1757
G01 X14.4404 Y31.1704
G01 X14.3833 Y31.1561
G01 X14.3570 Y31.1481
G01 X14.3015 Y31.1282
G01 X14.2761 Y31.1177
G01 X14.2229 Y31.0925
G01 X14.1986 Y31.0796
G01 X14.1481 Y31.0493
G01 X14.1253 Y31.0340
G01 X14.0779 Y30.9989
G01 X14.0567 Y30.9815
G01 X14.0130 Y30.9419
G01 X14.0031 Y30.9325
G01 X8.3093 Y25.2387
G00 Z2.0000
M05
G00 Z2.0000
G00 Z15.00
G00 X0.0 Y0.0

