(G-CODE GENERATED BY FLATCAM v8.991 - www.flatcam.org - Version Date: 2019/12/27)

(Name: Gerber_BottomLayer.GBL_iso1_cnc)
(Type: G-code from Geometry)
(Units: MM)

(Created on Friday, 05 July 2024 at 18:33)

(TOOL DIAMETER: 0.2 mm)
(Feedrate: 120.0 mm/min)
(Feedrate_Z: 60.0 mm/min)
(Feedrate rapids 1500.0 mm/min)

(Z_Cut: -0.09 mm)
(Z_Move: 2.0 mm)
(Z Toolchange: 15.0 mm)
(X,Y Toolchange: 0.0000, 0.0000 mm)
(Z Start: None mm)
(Z End: 15.0 mm)
(Steps per circle: 64)
(Preprocessor Geometry: default)

(X range:    4.6001 ...   42.3243  mm)
(Y range:    0.5267 ...   31.0103  mm)

(Spindle Speed: None RPM)
G21
G90
G94




G01 F120.00
G00 Z2.0000

M03
G00 X4.9997 Y7.8719
G01 F60.00
G01 Z-0.0900
G01 F120.00
G01 X4.9997 Y6.5610
G01 X5.0027 Y6.4973
G01 X5.0037 Y6.4875
G01 X5.0123 Y6.4292
G01 X5.0142 Y6.4196
G01 X5.0285 Y6.3624
G01 X5.0314 Y6.3531
G01 X5.0512 Y6.2976
G01 X5.0550 Y6.2885
G01 X5.0802 Y6.2353
G01 X5.0848 Y6.2266
G01 X5.1151 Y6.1761
G01 X5.1205 Y6.1679
G01 X5.1556 Y6.1206
G01 X5.1619 Y6.1130
G01 X5.2048 Y6.0658
G01 X10.5388 Y0.7318
G01 X10.5860 Y0.6889
G01 X10.5936 Y0.6826
G01 X10.6409 Y0.6475
G01 X10.6491 Y0.6421
G01 X10.6996 Y0.6118
G01 X10.7083 Y0.6072
G01 X10.7615 Y0.5820
G01 X10.7706 Y0.5782
G01 X10.8261 Y0.5584
G01 X10.8354 Y0.5555
G01 X10.8926 Y0.5412
G01 X10.9022 Y0.5393
G01 X10.9605 Y0.5307
G01 X10.9703 Y0.5297
G01 X11.0340 Y0.5267
G01 X37.4500 Y0.5267
G01 X37.5137 Y0.5297
G01 X37.5235 Y0.5307
G01 X37.5818 Y0.5393
G01 X37.5914 Y0.5412
G01 X37.6486 Y0.5555
G01 X37.6579 Y0.5584
G01 X37.7134 Y0.5782
G01 X37.7225 Y0.5820
G01 X37.7757 Y0.6072
G01 X37.7844 Y0.6118
G01 X37.8349 Y0.6421
G01 X37.8431 Y0.6475
G01 X37.8904 Y0.6826
G01 X37.8980 Y0.6889
G01 X37.9452 Y0.7318
G01 X41.7196 Y4.5063
G01 X41.7626 Y4.5535
G01 X41.7688 Y4.5610
G01 X41.8039 Y4.6084
G01 X41.8093 Y4.6165
G01 X41.8396 Y4.6671
G01 X41.8442 Y4.6757
G01 X41.8694 Y4.7290
G01 X41.8732 Y4.7380
G01 X41.8930 Y4.7935
G01 X41.8959 Y4.8029
G01 X41.9102 Y4.8600
G01 X41.9121 Y4.8697
G01 X41.9208 Y4.9279
G01 X41.9217 Y4.9377
G01 X41.9247 Y5.0014
G01 X41.9247 Y7.8719
G01 X41.9987 Y7.9388
G01 X42.0056 Y7.9457
G01 X42.0715 Y8.0185
G01 X42.0778 Y8.0260
G01 X42.1362 Y8.1049
G01 X42.1417 Y8.1130
G01 X42.1921 Y8.1972
G01 X42.1968 Y8.2058
G01 X42.2387 Y8.2946
G01 X42.2425 Y8.3036
G01 X42.2755 Y8.3960
G01 X42.2784 Y8.4054
G01 X42.3022 Y8.5006
G01 X42.3041 Y8.5102
G01 X42.3185 Y8.6073
G01 X42.3195 Y8.6171
G01 X42.3243 Y8.7151
G01 X42.3243 Y8.7249
G01 X42.3195 Y8.8229
G01 X42.3185 Y8.8327
G01 X42.3041 Y8.9298
G01 X42.3022 Y8.9394
G01 X42.2784 Y9.0346
G01 X42.2755 Y9.0440
G01 X42.2425 Y9.1364
G01 X42.2387 Y9.1454
G01 X42.1968 Y9.2342
G01 X42.1921 Y9.2428
G01 X42.1417 Y9.3270
G01 X42.1362 Y9.3351
G01 X42.0778 Y9.4140
G01 X42.0715 Y9.4215
G01 X42.0056 Y9.4943
G01 X41.9987 Y9.5012
G01 X41.9248 Y9.5681
G01 X41.9248 Y23.1119
G01 X41.9987 Y23.1788
G01 X42.0056 Y23.1857
G01 X42.0715 Y23.2585
G01 X42.0778 Y23.2660
G01 X42.1362 Y23.3449
G01 X42.1417 Y23.3530
G01 X42.1921 Y23.4372
G01 X42.1968 Y23.4458
G01 X42.2387 Y23.5346
G01 X42.2425 Y23.5436
G01 X42.2755 Y23.6360
G01 X42.2784 Y23.6454
G01 X42.3022 Y23.7406
G01 X42.3041 Y23.7502
G01 X42.3185 Y23.8473
G01 X42.3195 Y23.8571
G01 X42.3243 Y23.9551
G01 X42.3243 Y23.9649
G01 X42.3195 Y24.0629
G01 X42.3185 Y24.0727
G01 X42.3041 Y24.1698
G01 X42.3022 Y24.1794
G01 X42.2784 Y24.2746
G01 X42.2755 Y24.2840
G01 X42.2425 Y24.3764
G01 X42.2387 Y24.3854
G01 X42.1968 Y24.4742
G01 X42.1921 Y24.4828
G01 X42.1417 Y24.5670
G01 X42.1362 Y24.5751
G01 X42.0778 Y24.6540
G01 X42.0715 Y24.6615
G01 X42.0056 Y24.7343
G01 X41.9987 Y24.7412
G01 X41.9260 Y24.8071
G01 X41.9184 Y24.8133
G01 X41.8396 Y24.8718
G01 X41.8314 Y24.8772
G01 X41.7472 Y24.9277
G01 X41.7386 Y24.9323
G01 X41.6499 Y24.9743
G01 X41.6408 Y24.9780
G01 X41.5484 Y25.0111
G01 X41.5390 Y25.0139
G01 X41.4438 Y25.0378
G01 X41.4342 Y25.0397
G01 X41.3371 Y25.0541
G01 X41.3274 Y25.0551
G01 X41.2293 Y25.0599
G01 X41.2195 Y25.0599
G01 X41.1215 Y25.0551
G01 X41.1117 Y25.0541
G01 X41.0147 Y25.0397
G01 X41.0050 Y25.0378
G01 X40.9098 Y25.0139
G01 X40.9005 Y25.0111
G01 X40.8081 Y24.9780
G01 X40.7990 Y24.9743
G01 X40.7103 Y24.9323
G01 X40.7016 Y24.9277
G01 X40.6174 Y24.8772
G01 X40.6093 Y24.8718
G01 X40.5305 Y24.8133
G01 X40.5229 Y24.8071
G01 X40.4502 Y24.7412
G01 X40.4432 Y24.7343
G01 X40.3773 Y24.6615
G01 X40.3711 Y24.6540
G01 X40.3126 Y24.5751
G01 X40.3072 Y24.5670
G01 X40.2567 Y24.4828
G01 X40.2521 Y24.4742
G01 X40.2102 Y24.3854
G01 X40.2064 Y24.3764
G01 X40.1733 Y24.2840
G01 X40.1705 Y24.2746
G01 X40.1466 Y24.1794
G01 X40.1447 Y24.1698
G01 X40.1303 Y24.0727
G01 X40.1294 Y24.0629
G01 X40.1246 Y23.9649
G01 X40.1246 Y23.9551
G01 X40.1294 Y23.8571
G01 X40.1303 Y23.8473
G01 X40.1447 Y23.7502
G01 X40.1466 Y23.7406
G01 X40.1705 Y23.6454
G01 X40.1733 Y23.6360
G01 X40.2064 Y23.5436
G01 X40.2102 Y23.5346
G01 X40.2521 Y23.4458
G01 X40.2567 Y23.4372
G01 X40.3072 Y23.3530
G01 X40.3126 Y23.3449
G01 X40.3711 Y23.2660
G01 X40.3773 Y23.2585
G01 X40.4432 Y23.1857
G01 X40.4502 Y23.1788
G01 X40.5242 Y23.1118
G01 X40.5242 Y9.5682
G01 X40.4502 Y9.5012
G01 X40.4432 Y9.4943
G01 X40.3773 Y9.4215
G01 X40.3711 Y9.4140
G01 X40.3126 Y9.3351
G01 X40.3072 Y9.3270
G01 X40.2567 Y9.2428
G01 X40.2521 Y9.2342
G01 X40.2102 Y9.1454
G01 X40.2064 Y9.1364
G01 X40.1733 Y9.0440
G01 X40.1705 Y9.0346
G01 X40.1466 Y8.9394
G01 X40.1447 Y8.9298
G01 X40.1303 Y8.8327
G01 X40.1294 Y8.8229
G01 X40.1246 Y8.7249
G01 X40.1246 Y8.7151
G01 X40.1294 Y8.6171
G01 X40.1303 Y8.6073
G01 X40.1447 Y8.5102
G01 X40.1466 Y8.5006
G01 X40.1705 Y8.4054
G01 X40.1733 Y8.3960
G01 X40.2064 Y8.3036
G01 X40.2102 Y8.2946
G01 X40.2521 Y8.2058
G01 X40.2567 Y8.1972
G01 X40.3072 Y8.1130
G01 X40.3126 Y8.1049
G01 X40.3711 Y8.0260
G01 X40.3773 Y8.0185
G01 X40.4432 Y7.9457
G01 X40.4502 Y7.9388
G01 X40.5241 Y7.8719
G01 X40.5241 Y5.2915
G01 X37.1599 Y1.9273
G01 X11.3241 Y1.9273
G01 X6.4003 Y6.8511
G01 X6.4003 Y7.8719
G01 X6.4743 Y7.9388
G01 X6.4812 Y7.9457
G01 X6.5471 Y8.0185
G01 X6.5533 Y8.0260
G01 X6.6118 Y8.1049
G01 X6.6172 Y8.1130
G01 X6.6677 Y8.1972
G01 X6.6723 Y8.2058
G01 X6.7143 Y8.2946
G01 X6.7180 Y8.3036
G01 X6.7511 Y8.3960
G01 X6.7539 Y8.4054
G01 X6.7778 Y8.5006
G01 X6.7797 Y8.5102
G01 X6.7941 Y8.6073
G01 X6.7951 Y8.6171
G01 X6.7999 Y8.7151
G01 X6.7999 Y8.7249
G01 X6.7951 Y8.8229
G01 X6.7941 Y8.8327
G01 X6.7797 Y8.9298
G01 X6.7778 Y8.9394
G01 X6.7539 Y9.0346
G01 X6.7511 Y9.0440
G01 X6.7180 Y9.1364
G01 X6.7143 Y9.1454
G01 X6.6723 Y9.2342
G01 X6.6677 Y9.2428
G01 X6.6172 Y9.3270
G01 X6.6118 Y9.3351
G01 X6.5533 Y9.4140
G01 X6.5471 Y9.4215
G01 X6.4812 Y9.4943
G01 X6.4743 Y9.5012
G01 X6.4015 Y9.5671
G01 X6.3940 Y9.5733
G01 X6.3151 Y9.6318
G01 X6.3070 Y9.6372
G01 X6.2228 Y9.6877
G01 X6.2142 Y9.6923
G01 X6.1254 Y9.7343
G01 X6.1164 Y9.7380
G01 X6.0240 Y9.7711
G01 X6.0146 Y9.7739
G01 X5.9194 Y9.7978
G01 X5.9098 Y9.7997
G01 X5.8127 Y9.8141
G01 X5.8029 Y9.8151
G01 X5.7049 Y9.8199
G01 X5.6951 Y9.8199
G01 X5.5971 Y9.8151
G01 X5.5873 Y9.8141
G01 X5.4902 Y9.7997
G01 X5.4806 Y9.7978
G01 X5.3854 Y9.7739
G01 X5.3760 Y9.7711
G01 X5.2836 Y9.7380
G01 X5.2746 Y9.7343
G01 X5.1858 Y9.6923
G01 X5.1772 Y9.6877
G01 X5.0930 Y9.6372
G01 X5.0849 Y9.6318
G01 X5.0060 Y9.5733
G01 X4.9985 Y9.5671
G01 X4.9257 Y9.5012
G01 X4.9188 Y9.4943
G01 X4.8529 Y9.4215
G01 X4.8467 Y9.4140
G01 X4.7882 Y9.3351
G01 X4.7828 Y9.3270
G01 X4.7323 Y9.2428
G01 X4.7277 Y9.2342
G01 X4.6857 Y9.1454
G01 X4.6820 Y9.1364
G01 X4.6489 Y9.0440
G01 X4.6461 Y9.0346
G01 X4.6222 Y8.9394
G01 X4.6203 Y8.9298
G01 X4.6059 Y8.8327
G01 X4.6049 Y8.8229
G01 X4.6001 Y8.7249
G01 X4.6001 Y8.7151
G01 X4.6049 Y8.6171
G01 X4.6059 Y8.6073
G01 X4.6203 Y8.5102
G01 X4.6222 Y8.5006
G01 X4.6461 Y8.4054
G01 X4.6489 Y8.3960
G01 X4.6820 Y8.3036
G01 X4.6857 Y8.2946
G01 X4.7277 Y8.2058
G01 X4.7323 Y8.1972
G01 X4.7828 Y8.1130
G01 X4.7882 Y8.1049
G01 X4.8467 Y8.0260
G01 X4.8529 Y8.0185
G01 X4.9188 Y7.9457
G01 X4.9257 Y7.9388
G01 X4.9997 Y7.8719
G00 Z2.0000
G00 X10.8845 Y7.6251
G01 F60.00
G01 Z-0.0900
G01 F120.00
G01 X14.7298 Y3.7798
G01 X14.7770 Y3.7369
G01 X14.7846 Y3.7306
G01 X14.8319 Y3.6955
G01 X14.8401 Y3.6901
G01 X14.8906 Y3.6598
G01 X14.8993 Y3.6552
G01 X14.9525 Y3.6300
G01 X14.9616 Y3.6262
G01 X15.0171 Y3.6064
G01 X15.0264 Y3.6035
G01 X15.0836 Y3.5892
G01 X15.0932 Y3.5873
G01 X15.1515 Y3.5787
G01 X15.1613 Y3.5777
G01 X15.2250 Y3.5747
G01 X31.7706 Y3.5747
G01 X31.8343 Y3.5777
G01 X31.8441 Y3.5787
G01 X31.9023 Y3.5873
G01 X31.9120 Y3.5892
G01 X31.9691 Y3.6035
G01 X31.9785 Y3.6064
G01 X32.0340 Y3.6262
G01 X32.0430 Y3.6300
G01 X32.0963 Y3.6552
G01 X32.1049 Y3.6598
G01 X32.1555 Y3.6901
G01 X32.1636 Y3.6955
G01 X32.2110 Y3.7306
G01 X32.2185 Y3.7369
G01 X32.2657 Y3.7798
G01 X36.1110 Y7.6251
G01 X36.2107 Y7.6201
G01 X36.2205 Y7.6201
G01 X36.3185 Y7.6249
G01 X36.3283 Y7.6259
G01 X36.4253 Y7.6403
G01 X36.4349 Y7.6422
G01 X36.5301 Y7.6661
G01 X36.5395 Y7.6689
G01 X36.6319 Y7.7020
G01 X36.6410 Y7.7057
G01 X36.7297 Y7.7477
G01 X36.7384 Y7.7523
G01 X36.8225 Y7.8028
G01 X36.8307 Y7.8082
G01 X36.9095 Y7.8667
G01 X36.9171 Y7.8729
G01 X36.9898 Y7.9388
G01 X36.9968 Y7.9457
G01 X37.0627 Y8.0185
G01 X37.0689 Y8.0260
G01 X37.1274 Y8.1049
G01 X37.1328 Y8.1130
G01 X37.1833 Y8.1972
G01 X37.1879 Y8.2058
G01 X37.2298 Y8.2946
G01 X37.2336 Y8.3036
G01 X37.2667 Y8.3960
G01 X37.2695 Y8.4054
G01 X37.2933 Y8.5006
G01 X37.2953 Y8.5102
G01 X37.3097 Y8.6073
G01 X37.3106 Y8.6171
G01 X37.3154 Y8.7151
G01 X37.3154 Y8.7249
G01 X37.3106 Y8.8229
G01 X37.3097 Y8.8327
G01 X37.2953 Y8.9298
G01 X37.2933 Y8.9394
G01 X37.2695 Y9.0346
G01 X37.2667 Y9.0440
G01 X37.2336 Y9.1364
G01 X37.2298 Y9.1454
G01 X37.1879 Y9.2342
G01 X37.1833 Y9.2428
G01 X37.1328 Y9.3270
G01 X37.1274 Y9.3351
G01 X37.0689 Y9.4140
G01 X37.0627 Y9.4215
G01 X36.9968 Y9.4943
G01 X36.9898 Y9.5012
G01 X36.9159 Y9.5681
G01 X36.9159 Y23.1119
G01 X36.9898 Y23.1788
G01 X36.9968 Y23.1857
G01 X37.0627 Y23.2585
G01 X37.0689 Y23.2660
G01 X37.1274 Y23.3449
G01 X37.1328 Y23.3530
G01 X37.1833 Y23.4372
G01 X37.1879 Y23.4458
G01 X37.2298 Y23.5346
G01 X37.2336 Y23.5436
G01 X37.2667 Y23.6360
G01 X37.2695 Y23.6454
G01 X37.2933 Y23.7406
G01 X37.2953 Y23.7502
G01 X37.3097 Y23.8473
G01 X37.3106 Y23.8571
G01 X37.3154 Y23.9551
G01 X37.3154 Y23.9649
G01 X37.3106 Y24.0629
G01 X37.3097 Y24.0727
G01 X37.2953 Y24.1698
G01 X37.2933 Y24.1794
G01 X37.2695 Y24.2746
G01 X37.2667 Y24.2840
G01 X37.2336 Y24.3764
G01 X37.2298 Y24.3854
G01 X37.1879 Y24.4742
G01 X37.1833 Y24.4828
G01 X37.1328 Y24.5670
G01 X37.1274 Y24.5751
G01 X37.0689 Y24.6540
G01 X37.0627 Y24.6615
G01 X36.9968 Y24.7343
G01 X36.9898 Y24.7412
G01 X36.9171 Y24.8071
G01 X36.9095 Y24.8133
G01 X36.8307 Y24.8718
G01 X36.8225 Y24.8772
G01 X36.7384 Y24.9277
G01 X36.7297 Y24.9323
G01 X36.6410 Y24.9743
G01 X36.6319 Y24.9780
G01 X36.5395 Y25.0111
G01 X36.5301 Y25.0139
G01 X36.4349 Y25.0378
G01 X36.4253 Y25.0397
G01 X36.3283 Y25.0541
G01 X36.3185 Y25.0551
G01 X36.2205 Y25.0599
G01 X36.2107 Y25.0599
G01 X36.1126 Y25.0551
G01 X36.1029 Y25.0541
G01 X36.0058 Y25.0397
G01 X35.9962 Y25.0378
G01 X35.9010 Y25.0139
G01 X35.8916 Y25.0111
G01 X35.7992 Y24.9780
G01 X35.7901 Y24.9743
G01 X35.7014 Y24.9323
G01 X35.6928 Y24.9277
G01 X35.6086 Y24.8772
G01 X35.6004 Y24.8718
G01 X35.5216 Y24.8133
G01 X35.5140 Y24.8071
G01 X35.4413 Y24.7412
G01 X35.4344 Y24.7343
G01 X35.3685 Y24.6615
G01 X35.3622 Y24.6540
G01 X35.3038 Y24.5751
G01 X35.2983 Y24.5670
G01 X35.2479 Y24.4828
G01 X35.2432 Y24.4742
G01 X35.2013 Y24.3854
G01 X35.1975 Y24.3764
G01 X35.1645 Y24.2840
G01 X35.1616 Y24.2746
G01 X35.1378 Y24.1794
G01 X35.1359 Y24.1698
G01 X35.1215 Y24.0727
G01 X35.1205 Y24.0629
G01 X35.1157 Y23.9649
G01 X35.1157 Y23.9551
G01 X35.1205 Y23.8571
G01 X35.1215 Y23.8473
G01 X35.1359 Y23.7502
G01 X35.1378 Y23.7406
G01 X35.1616 Y23.6454
G01 X35.1645 Y23.6360
G01 X35.1975 Y23.5436
G01 X35.2013 Y23.5346
G01 X35.2432 Y23.4458
G01 X35.2479 Y23.4372
G01 X35.2983 Y23.3530
G01 X35.3038 Y23.3449
G01 X35.3622 Y23.2660
G01 X35.3685 Y23.2585
G01 X35.4344 Y23.1857
G01 X35.4413 Y23.1788
G01 X35.5153 Y23.1119
G01 X35.5153 Y9.5681
G01 X35.4413 Y9.5012
G01 X35.4344 Y9.4943
G01 X35.3685 Y9.4215
G01 X35.3622 Y9.4140
G01 X35.3038 Y9.3351
G01 X35.2983 Y9.3270
G01 X35.2479 Y9.2428
G01 X35.2432 Y9.2342
G01 X35.2013 Y9.1454
G01 X35.1975 Y9.1364
G01 X35.1645 Y9.0440
G01 X35.1616 Y9.0346
G01 X35.1378 Y8.9394
G01 X35.1359 Y8.9298
G01 X35.1215 Y8.8327
G01 X35.1205 Y8.8229
G01 X35.1157 Y8.7249
G01 X35.1157 Y8.7151
G01 X35.1207 Y8.6155
G01 X31.4805 Y4.9753
G01 X15.5151 Y4.9753
G01 X11.8749 Y8.6155
G01 X11.8799 Y8.7151
G01 X11.8799 Y8.7249
G01 X11.8751 Y8.8229
G01 X11.8741 Y8.8327
G01 X11.8597 Y8.9298
G01 X11.8578 Y8.9394
G01 X11.8339 Y9.0346
G01 X11.8311 Y9.0440
G01 X11.7980 Y9.1364
G01 X11.7943 Y9.1454
G01 X11.7523 Y9.2342
G01 X11.7477 Y9.2428
G01 X11.6972 Y9.3270
G01 X11.6918 Y9.3351
G01 X11.6333 Y9.4140
G01 X11.6271 Y9.4215
G01 X11.5612 Y9.4943
G01 X11.5543 Y9.5012
G01 X11.4815 Y9.5671
G01 X11.4740 Y9.5733
G01 X11.3951 Y9.6318
G01 X11.3870 Y9.6372
G01 X11.3028 Y9.6877
G01 X11.2942 Y9.6923
G01 X11.2054 Y9.7343
G01 X11.1964 Y9.7380
G01 X11.1040 Y9.7711
G01 X11.0946 Y9.7739
G01 X10.9994 Y9.7978
G01 X10.9898 Y9.7997
G01 X10.8927 Y9.8141
G01 X10.8829 Y9.8151
G01 X10.7849 Y9.8199
G01 X10.7751 Y9.8199
G01 X10.6771 Y9.8151
G01 X10.6673 Y9.8141
G01 X10.5702 Y9.7997
G01 X10.5606 Y9.7978
G01 X10.4654 Y9.7739
G01 X10.4560 Y9.7711
G01 X10.3636 Y9.7380
G01 X10.3546 Y9.7343
G01 X10.2658 Y9.6923
G01 X10.2572 Y9.6877
G01 X10.1730 Y9.6372
G01 X10.1649 Y9.6318
G01 X10.0860 Y9.5733
G01 X10.0785 Y9.5671
G01 X10.0057 Y9.5012
G01 X9.9988 Y9.4943
G01 X9.9329 Y9.4215
G01 X9.9267 Y9.4140
G01 X9.8682 Y9.3351
G01 X9.8628 Y9.3270
G01 X9.8123 Y9.2428
G01 X9.8077 Y9.2342
G01 X9.7657 Y9.1454
G01 X9.7620 Y9.1364
G01 X9.7289 Y9.0440
G01 X9.7261 Y9.0346
G01 X9.7022 Y8.9394
G01 X9.7003 Y8.9298
G01 X9.6859 Y8.8327
G01 X9.6849 Y8.8229
G01 X9.6801 Y8.7249
G01 X9.6801 Y8.7151
G01 X9.6849 Y8.6171
G01 X9.6859 Y8.6073
G01 X9.7003 Y8.5102
G01 X9.7022 Y8.5006
G01 X9.7261 Y8.4054
G01 X9.7289 Y8.3960
G01 X9.7620 Y8.3036
G01 X9.7657 Y8.2946
G01 X9.8077 Y8.2058
G01 X9.8123 Y8.1972
G01 X9.8628 Y8.1130
G01 X9.8682 Y8.1049
G01 X9.9267 Y8.0260
G01 X9.9329 Y8.0185
G01 X9.9988 Y7.9457
G01 X10.0057 Y7.9388
G01 X10.0785 Y7.8729
G01 X10.0860 Y7.8667
G01 X10.1649 Y7.8082
G01 X10.1730 Y7.8028
G01 X10.2572 Y7.7523
G01 X10.2658 Y7.7477
G01 X10.3546 Y7.7057
G01 X10.3636 Y7.7020
G01 X10.4560 Y7.6689
G01 X10.4654 Y7.6661
G01 X10.5606 Y7.6422
G01 X10.5702 Y7.6403
G01 X10.6673 Y7.6259
G01 X10.6771 Y7.6249
G01 X10.7751 Y7.6201
G01 X10.7849 Y7.6201
G01 X10.8845 Y7.6251
G00 Z2.0000
G00 X14.1325 Y24.6603
G01 F60.00
G01 Z-0.0900
G01 F120.00
G01 X14.0656 Y24.7343
G01 X14.0587 Y24.7412
G01 X13.9860 Y24.8071
G01 X13.9784 Y24.8133
G01 X13.8996 Y24.8718
G01 X13.8914 Y24.8772
G01 X13.8072 Y24.9277
G01 X13.7986 Y24.9323
G01 X13.7099 Y24.9743
G01 X13.7008 Y24.9780
G01 X13.6084 Y25.0111
G01 X13.5990 Y25.0139
G01 X13.5038 Y25.0378
G01 X13.4942 Y25.0397
G01 X13.3971 Y25.0541
G01 X13.3874 Y25.0551
G01 X13.2893 Y25.0599
G01 X13.2795 Y25.0599
G01 X13.1815 Y25.0551
G01 X13.1717 Y25.0541
G01 X13.0747 Y25.0397
G01 X13.0650 Y25.0378
G01 X12.9698 Y25.0139
G01 X12.9605 Y25.0111
G01 X12.8681 Y24.9780
G01 X12.8590 Y24.9743
G01 X12.7703 Y24.9323
G01 X12.7616 Y24.9277
G01 X12.6774 Y24.8772
G01 X12.6693 Y24.8718
G01 X12.5905 Y24.8133
G01 X12.5829 Y24.8071
G01 X12.5102 Y24.7412
G01 X12.5032 Y24.7343
G01 X12.4373 Y24.6615
G01 X12.4311 Y24.6540
G01 X12.3726 Y24.5751
G01 X12.3672 Y24.5670
G01 X12.3167 Y24.4828
G01 X12.3121 Y24.4742
G01 X12.2702 Y24.3854
G01 X12.2664 Y24.3764
G01 X12.2333 Y24.2840
G01 X12.2305 Y24.2746
G01 X12.2066 Y24.1794
G01 X12.2047 Y24.1698
G01 X12.1903 Y24.0727
G01 X12.1894 Y24.0629
G01 X12.1846 Y23.9649
G01 X12.1846 Y23.9551
G01 X12.1894 Y23.8571
G01 X12.1903 Y23.8473
G01 X12.2047 Y23.7502
G01 X12.2066 Y23.7406
G01 X12.2305 Y23.6454
G01 X12.2333 Y23.6360
G01 X12.2664 Y23.5436
G01 X12.2702 Y23.5346
G01 X12.3121 Y23.4458
G01 X12.3167 Y23.4372
G01 X12.3672 Y23.3530
G01 X12.3726 Y23.3449
G01 X12.4311 Y23.2660
G01 X12.4373 Y23.2585
G01 X12.5032 Y23.1857
G01 X12.5102 Y23.1788
G01 X12.5829 Y23.1129
G01 X12.5905 Y23.1067
G01 X12.6693 Y23.0482
G01 X12.6774 Y23.0428
G01 X12.7616 Y22.9923
G01 X12.7703 Y22.9877
G01 X12.8590 Y22.9457
G01 X12.8681 Y22.9420
G01 X12.9605 Y22.9089
G01 X12.9698 Y22.9061
G01 X13.0650 Y22.8822
G01 X13.0747 Y22.8803
G01 X13.1717 Y22.8659
G01 X13.1815 Y22.8649
G01 X13.2795 Y22.8601
G01 X13.2893 Y22.8601
G01 X13.3874 Y22.8649
G01 X13.3971 Y22.8659
G01 X13.4942 Y22.8803
G01 X13.5038 Y22.8822
G01 X13.5990 Y22.9061
G01 X13.6084 Y22.9089
G01 X13.7008 Y22.9420
G01 X13.7099 Y22.9457
G01 X13.7986 Y22.9877
G01 X13.8072 Y22.9923
G01 X13.8914 Y23.0428
G01 X13.8996 Y23.0482
G01 X13.9784 Y23.1067
G01 X13.9860 Y23.1129
G01 X14.0587 Y23.1788
G01 X14.0656 Y23.1857
G01 X14.1326 Y23.2597
G01 X25.2074 Y23.2597
G01 X25.2744 Y23.1857
G01 X25.2813 Y23.1788
G01 X25.3553 Y23.1119
G01 X25.3553 Y9.5681
G01 X25.2813 Y9.5012
G01 X25.2744 Y9.4943
G01 X25.2085 Y9.4215
G01 X25.2022 Y9.4140
G01 X25.1438 Y9.3351
G01 X25.1383 Y9.3270
G01 X25.0879 Y9.2428
G01 X25.0832 Y9.2342
G01 X25.0413 Y9.1454
G01 X25.0375 Y9.1364
G01 X25.0045 Y9.0440
G01 X25.0016 Y9.0346
G01 X24.9778 Y8.9394
G01 X24.9759 Y8.9298
G01 X24.9615 Y8.8327
G01 X24.9605 Y8.8229
G01 X24.9557 Y8.7249
G01 X24.9557 Y8.7151
G01 X24.9605 Y8.6171
G01 X24.9615 Y8.6073
G01 X24.9759 Y8.5102
G01 X24.9778 Y8.5006
G01 X25.0016 Y8.4054
G01 X25.0045 Y8.3960
G01 X25.0375 Y8.3036
G01 X25.0413 Y8.2946
G01 X25.0832 Y8.2058
G01 X25.0879 Y8.1972
G01 X25.1383 Y8.1130
G01 X25.1438 Y8.1049
G01 X25.2022 Y8.0260
G01 X25.2085 Y8.0185
G01 X25.2744 Y7.9457
G01 X25.2813 Y7.9388
G01 X25.3540 Y7.8729
G01 X25.3616 Y7.8667
G01 X25.4404 Y7.8082
G01 X25.4486 Y7.8028
G01 X25.5328 Y7.7523
G01 X25.5414 Y7.7477
G01 X25.6301 Y7.7057
G01 X25.6392 Y7.7020
G01 X25.7316 Y7.6689
G01 X25.7410 Y7.6661
G01 X25.8362 Y7.6422
G01 X25.8458 Y7.6403
G01 X25.9429 Y7.6259
G01 X25.9526 Y7.6249
G01 X26.0507 Y7.6201
G01 X26.0605 Y7.6201
G01 X26.1585 Y7.6249
G01 X26.1683 Y7.6259
G01 X26.2653 Y7.6403
G01 X26.2749 Y7.6422
G01 X26.3701 Y7.6661
G01 X26.3795 Y7.6689
G01 X26.4719 Y7.7020
G01 X26.4810 Y7.7057
G01 X26.5697 Y7.7477
G01 X26.5784 Y7.7523
G01 X26.6625 Y7.8028
G01 X26.6707 Y7.8082
G01 X26.7495 Y7.8667
G01 X26.7571 Y7.8729
G01 X26.8298 Y7.9388
G01 X26.8368 Y7.9457
G01 X26.9027 Y8.0185
G01 X26.9089 Y8.0260
G01 X26.9674 Y8.1049
G01 X26.9728 Y8.1130
G01 X27.0233 Y8.1972
G01 X27.0279 Y8.2058
G01 X27.0698 Y8.2946
G01 X27.0736 Y8.3036
G01 X27.1067 Y8.3960
G01 X27.1095 Y8.4054
G01 X27.1333 Y8.5006
G01 X27.1353 Y8.5102
G01 X27.1497 Y8.6073
G01 X27.1506 Y8.6171
G01 X27.1554 Y8.7151
G01 X27.1554 Y8.7249
G01 X27.1506 Y8.8229
G01 X27.1497 Y8.8327
G01 X27.1353 Y8.9298
G01 X27.1333 Y8.9394
G01 X27.1095 Y9.0346
G01 X27.1067 Y9.0440
G01 X27.0736 Y9.1364
G01 X27.0698 Y9.1454
G01 X27.0279 Y9.2342
G01 X27.0233 Y9.2428
G01 X26.9728 Y9.3270
G01 X26.9674 Y9.3351
G01 X26.9089 Y9.4140
G01 X26.9027 Y9.4215
G01 X26.8368 Y9.4943
G01 X26.8298 Y9.5012
G01 X26.7559 Y9.5681
G01 X26.7559 Y23.1119
G01 X26.8298 Y23.1788
G01 X26.8368 Y23.1857
G01 X26.9027 Y23.2585
G01 X26.9089 Y23.2660
G01 X26.9674 Y23.3449
G01 X26.9728 Y23.3530
G01 X27.0233 Y23.4372
G01 X27.0279 Y23.4458
G01 X27.0698 Y23.5346
G01 X27.0736 Y23.5436
G01 X27.1067 Y23.6360
G01 X27.1095 Y23.6454
G01 X27.1333 Y23.7406
G01 X27.1353 Y23.7502
G01 X27.1497 Y23.8473
G01 X27.1506 Y23.8571
G01 X27.1554 Y23.9551
G01 X27.1554 Y23.9649
G01 X27.1506 Y24.0629
G01 X27.1497 Y24.0727
G01 X27.1353 Y24.1698
G01 X27.1333 Y24.1794
G01 X27.1095 Y24.2746
G01 X27.1067 Y24.2840
G01 X27.0736 Y24.3764
G01 X27.0698 Y24.3854
G01 X27.0279 Y24.4742
G01 X27.0233 Y24.4828
G01 X26.9728 Y24.5670
G01 X26.9674 Y24.5751
G01 X26.9089 Y24.6540
G01 X26.9027 Y24.6615
G01 X26.8368 Y24.7343
G01 X26.8298 Y24.7412
G01 X26.7571 Y24.8071
G01 X26.7495 Y24.8133
G01 X26.6707 Y24.8718
G01 X26.6625 Y24.8772
G01 X26.5784 Y24.9277
G01 X26.5697 Y24.9323
G01 X26.4810 Y24.9743
G01 X26.4719 Y24.9780
G01 X26.3795 Y25.0111
G01 X26.3701 Y25.0139
G01 X26.2749 Y25.0378
G01 X26.2653 Y25.0397
G01 X26.1683 Y25.0541
G01 X26.1585 Y25.0551
G01 X26.0605 Y25.0599
G01 X26.0507 Y25.0599
G01 X25.9526 Y25.0551
G01 X25.9429 Y25.0541
G01 X25.8458 Y25.0397
G01 X25.8362 Y25.0378
G01 X25.7410 Y25.0139
G01 X25.7316 Y25.0111
G01 X25.6392 Y24.9780
G01 X25.6301 Y24.9743
G01 X25.5414 Y24.9323
G01 X25.5328 Y24.9277
G01 X25.4486 Y24.8772
G01 X25.4404 Y24.8718
G01 X25.3616 Y24.8133
G01 X25.3540 Y24.8071
G01 X25.2813 Y24.7412
G01 X25.2744 Y24.7343
G01 X25.2074 Y24.6603
G01 X14.1325 Y24.6603
G00 Z2.0000
G00 X8.3801 Y25.0549
G01 F60.00
G01 Z-0.0900
G01 F120.00
G01 X8.2805 Y25.0599
G01 X8.2706 Y25.0599
G01 X8.1726 Y25.0551
G01 X8.1629 Y25.0541
G01 X8.0658 Y25.0397
G01 X8.0562 Y25.0378
G01 X7.9610 Y25.0139
G01 X7.9516 Y25.0111
G01 X7.8592 Y24.9780
G01 X7.8501 Y24.9743
G01 X7.7614 Y24.9323
G01 X7.7527 Y24.9277
G01 X7.6686 Y24.8772
G01 X7.6604 Y24.8718
G01 X7.5816 Y24.8133
G01 X7.5740 Y24.8071
G01 X7.5013 Y24.7412
G01 X7.4943 Y24.7343
G01 X7.4284 Y24.6615
G01 X7.4222 Y24.6540
G01 X7.3638 Y24.5751
G01 X7.3583 Y24.5670
G01 X7.3079 Y24.4828
G01 X7.3032 Y24.4742
G01 X7.2613 Y24.3854
G01 X7.2575 Y24.3764
G01 X7.2245 Y24.2840
G01 X7.2216 Y24.2746
G01 X7.1978 Y24.1794
G01 X7.1958 Y24.1698
G01 X7.1814 Y24.0727
G01 X7.1805 Y24.0629
G01 X7.1757 Y23.9649
G01 X7.1757 Y23.9551
G01 X7.1805 Y23.8571
G01 X7.1814 Y23.8473
G01 X7.1958 Y23.7502
G01 X7.1978 Y23.7406
G01 X7.2216 Y23.6454
G01 X7.2245 Y23.6360
G01 X7.2575 Y23.5436
G01 X7.2613 Y23.5346
G01 X7.3032 Y23.4458
G01 X7.3079 Y23.4372
G01 X7.3583 Y23.3530
G01 X7.3638 Y23.3449
G01 X7.4222 Y23.2660
G01 X7.4284 Y23.2585
G01 X7.4943 Y23.1857
G01 X7.5013 Y23.1788
G01 X7.5740 Y23.1129
G01 X7.5816 Y23.1067
G01 X7.6604 Y23.0482
G01 X7.6686 Y23.0428
G01 X7.7527 Y22.9923
G01 X7.7614 Y22.9877
G01 X7.8501 Y22.9457
G01 X7.8592 Y22.9420
G01 X7.9516 Y22.9089
G01 X7.9610 Y22.9061
G01 X8.0562 Y22.8822
G01 X8.0658 Y22.8803
G01 X8.1629 Y22.8659
G01 X8.1726 Y22.8649
G01 X8.2706 Y22.8601
G01 X8.2805 Y22.8601
G01 X8.3801 Y22.8651
G01 X15.1597 Y16.0855
G01 X15.1597 Y9.5681
G01 X15.0857 Y9.5012
G01 X15.0788 Y9.4943
G01 X15.0129 Y9.4215
G01 X15.0067 Y9.4140
G01 X14.9482 Y9.3351
G01 X14.9428 Y9.3270
G01 X14.8923 Y9.2428
G01 X14.8877 Y9.2342
G01 X14.8457 Y9.1454
G01 X14.8420 Y9.1364
G01 X14.8089 Y9.0440
G01 X14.8061 Y9.0346
G01 X14.7822 Y8.9394
G01 X14.7803 Y8.9298
G01 X14.7659 Y8.8327
G01 X14.7649 Y8.8229
G01 X14.7601 Y8.7249
G01 X14.7601 Y8.7151
G01 X14.7649 Y8.6171
G01 X14.7659 Y8.6073
G01 X14.7803 Y8.5102
G01 X14.7822 Y8.5006
G01 X14.8061 Y8.4054
G01 X14.8089 Y8.3960
G01 X14.8420 Y8.3036
G01 X14.8457 Y8.2946
G01 X14.8877 Y8.2058
G01 X14.8923 Y8.1972
G01 X14.9428 Y8.1130
G01 X14.9482 Y8.1049
G01 X15.0067 Y8.0260
G01 X15.0129 Y8.0185
G01 X15.0788 Y7.9457
G01 X15.0857 Y7.9388
G01 X15.1585 Y7.8729
G01 X15.1660 Y7.8667
G01 X15.2449 Y7.8082
G01 X15.2530 Y7.8028
G01 X15.3372 Y7.7523
G01 X15.3458 Y7.7477
G01 X15.4346 Y7.7057
G01 X15.4436 Y7.7020
G01 X15.5360 Y7.6689
G01 X15.5454 Y7.6661
G01 X15.6406 Y7.6422
G01 X15.6502 Y7.6403
G01 X15.7473 Y7.6259
G01 X15.7571 Y7.6249
G01 X15.8551 Y7.6201
G01 X15.8649 Y7.6201
G01 X15.9629 Y7.6249
G01 X15.9727 Y7.6259
G01 X16.0698 Y7.6403
G01 X16.0794 Y7.6422
G01 X16.1746 Y7.6661
G01 X16.1840 Y7.6689
G01 X16.2764 Y7.7020
G01 X16.2854 Y7.7057
G01 X16.3742 Y7.7477
G01 X16.3828 Y7.7523
G01 X16.4670 Y7.8028
G01 X16.4751 Y7.8082
G01 X16.5540 Y7.8667
G01 X16.5615 Y7.8729
G01 X16.6343 Y7.9388
G01 X16.6412 Y7.9457
G01 X16.7071 Y8.0185
G01 X16.7133 Y8.0260
G01 X16.7718 Y8.1049
G01 X16.7772 Y8.1130
G01 X16.8277 Y8.1972
G01 X16.8323 Y8.2058
G01 X16.8743 Y8.2946
G01 X16.8780 Y8.3036
G01 X16.9111 Y8.3960
G01 X16.9139 Y8.4054
G01 X16.9378 Y8.5006
G01 X16.9397 Y8.5102
G01 X16.9541 Y8.6073
G01 X16.9551 Y8.6171
G01 X16.9599 Y8.7151
G01 X16.9599 Y8.7249
G01 X16.9551 Y8.8229
G01 X16.9541 Y8.8327
G01 X16.9397 Y8.9298
G01 X16.9378 Y8.9394
G01 X16.9139 Y9.0346
G01 X16.9111 Y9.0440
G01 X16.8780 Y9.1364
G01 X16.8743 Y9.1454
G01 X16.8323 Y9.2342
G01 X16.8277 Y9.2428
G01 X16.7772 Y9.3270
G01 X16.7718 Y9.3351
G01 X16.7133 Y9.4140
G01 X16.7071 Y9.4215
G01 X16.6412 Y9.4943
G01 X16.6343 Y9.5012
G01 X16.5603 Y9.5681
G01 X16.5603 Y16.3756
G01 X16.5573 Y16.4393
G01 X16.5563 Y16.4491
G01 X16.5477 Y16.5074
G01 X16.5458 Y16.5170
G01 X16.5315 Y16.5741
G01 X16.5286 Y16.5835
G01 X16.5088 Y16.6390
G01 X16.5050 Y16.6481
G01 X16.4798 Y16.7013
G01 X16.4752 Y16.7100
G01 X16.4449 Y16.7605
G01 X16.4395 Y16.7687
G01 X16.4044 Y16.8160
G01 X16.3982 Y16.8236
G01 X16.3552 Y16.8708
G01 X9.3705 Y23.8555
G01 X9.3754 Y23.9551
G01 X9.3754 Y23.9649
G01 X9.3705 Y24.0645
G01 X14.9156 Y29.6097
G01 X24.4244 Y29.6097
G01 X29.9695 Y24.0645
G01 X29.9646 Y23.9649
G01 X29.9646 Y23.9551
G01 X29.9694 Y23.8571
G01 X29.9703 Y23.8473
G01 X29.9847 Y23.7502
G01 X29.9866 Y23.7406
G01 X30.0105 Y23.6454
G01 X30.0133 Y23.6360
G01 X30.0464 Y23.5436
G01 X30.0502 Y23.5346
G01 X30.0921 Y23.4458
G01 X30.0967 Y23.4372
G01 X30.1472 Y23.3530
G01 X30.1526 Y23.3449
G01 X30.2111 Y23.2660
G01 X30.2173 Y23.2585
G01 X30.2832 Y23.1857
G01 X30.2902 Y23.1788
G01 X30.3642 Y23.1118
G01 X30.3642 Y9.5682
G01 X30.2902 Y9.5012
G01 X30.2832 Y9.4943
G01 X30.2173 Y9.4215
G01 X30.2111 Y9.4140
G01 X30.1526 Y9.3351
G01 X30.1472 Y9.3270
G01 X30.0967 Y9.2428
G01 X30.0921 Y9.2342
G01 X30.0502 Y9.1454
G01 X30.0464 Y9.1364
G01 X30.0133 Y9.0440
G01 X30.0105 Y9.0346
G01 X29.9866 Y8.9394
G01 X29.9847 Y8.9298
G01 X29.9703 Y8.8327
G01 X29.9694 Y8.8229
G01 X29.9646 Y8.7249
G01 X29.9646 Y8.7151
G01 X29.9694 Y8.6171
G01 X29.9703 Y8.6073
G01 X29.9847 Y8.5102
G01 X29.9866 Y8.5006
G01 X30.0105 Y8.4054
G01 X30.0133 Y8.3960
G01 X30.0464 Y8.3036
G01 X30.0502 Y8.2946
G01 X30.0921 Y8.2058
G01 X30.0967 Y8.1972
G01 X30.1472 Y8.1130
G01 X30.1526 Y8.1049
G01 X30.2111 Y8.0260
G01 X30.2173 Y8.0185
G01 X30.2832 Y7.9457
G01 X30.2902 Y7.9388
G01 X30.3629 Y7.8729
G01 X30.3705 Y7.8667
G01 X30.4493 Y7.8082
G01 X30.4574 Y7.8028
G01 X30.5416 Y7.7523
G01 X30.5503 Y7.7477
G01 X30.6390 Y7.7057
G01 X30.6481 Y7.7020
G01 X30.7405 Y7.6689
G01 X30.7498 Y7.6661
G01 X30.8450 Y7.6422
G01 X30.8547 Y7.6403
G01 X30.9517 Y7.6259
G01 X30.9615 Y7.6249
G01 X31.0595 Y7.6201
G01 X31.0693 Y7.6201
G01 X31.1674 Y7.6249
G01 X31.1771 Y7.6259
G01 X31.2742 Y7.6403
G01 X31.2838 Y7.6422
G01 X31.3790 Y7.6661
G01 X31.3884 Y7.6689
G01 X31.4808 Y7.7020
G01 X31.4899 Y7.7057
G01 X31.5786 Y7.7477
G01 X31.5872 Y7.7523
G01 X31.6714 Y7.8028
G01 X31.6796 Y7.8082
G01 X31.7584 Y7.8667
G01 X31.7660 Y7.8729
G01 X31.8387 Y7.9388
G01 X31.8456 Y7.9457
G01 X31.9115 Y8.0185
G01 X31.9178 Y8.0260
G01 X31.9762 Y8.1049
G01 X31.9817 Y8.1130
G01 X32.0321 Y8.1972
G01 X32.0368 Y8.2058
G01 X32.0787 Y8.2946
G01 X32.0825 Y8.3036
G01 X32.1155 Y8.3960
G01 X32.1184 Y8.4054
G01 X32.1422 Y8.5006
G01 X32.1441 Y8.5102
G01 X32.1585 Y8.6073
G01 X32.1595 Y8.6171
G01 X32.1643 Y8.7151
G01 X32.1643 Y8.7249
G01 X32.1595 Y8.8229
G01 X32.1585 Y8.8327
G01 X32.1441 Y8.9298
G01 X32.1422 Y8.9394
G01 X32.1184 Y9.0346
G01 X32.1155 Y9.0440
G01 X32.0825 Y9.1364
G01 X32.0787 Y9.1454
G01 X32.0368 Y9.2342
G01 X32.0321 Y9.2428
G01 X31.9817 Y9.3270
G01 X31.9762 Y9.3351
G01 X31.9178 Y9.4140
G01 X31.9115 Y9.4215
G01 X31.8456 Y9.4943
G01 X31.8387 Y9.5012
G01 X31.7648 Y9.5681
G01 X31.7648 Y23.1119
G01 X31.8387 Y23.1788
G01 X31.8456 Y23.1857
G01 X31.9115 Y23.2585
G01 X31.9178 Y23.2660
G01 X31.9762 Y23.3449
G01 X31.9817 Y23.3530
G01 X32.0321 Y23.4372
G01 X32.0368 Y23.4458
G01 X32.0787 Y23.5346
G01 X32.0825 Y23.5436
G01 X32.1155 Y23.6360
G01 X32.1184 Y23.6454
G01 X32.1422 Y23.7406
G01 X32.1441 Y23.7502
G01 X32.1585 Y23.8473
G01 X32.1595 Y23.8571
G01 X32.1643 Y23.9551
G01 X32.1643 Y23.9649
G01 X32.1595 Y24.0629
G01 X32.1585 Y24.0727
G01 X32.1441 Y24.1698
G01 X32.1422 Y24.1794
G01 X32.1184 Y24.2746
G01 X32.1155 Y24.2840
G01 X32.0825 Y24.3764
G01 X32.0787 Y24.3854
G01 X32.0368 Y24.4742
G01 X32.0321 Y24.4828
G01 X31.9817 Y24.5670
G01 X31.9762 Y24.5751
G01 X31.9178 Y24.6540
G01 X31.9115 Y24.6615
G01 X31.8456 Y24.7343
G01 X31.8387 Y24.7412
G01 X31.7660 Y24.8071
G01 X31.7584 Y24.8133
G01 X31.6796 Y24.8718
G01 X31.6714 Y24.8772
G01 X31.5872 Y24.9277
G01 X31.5786 Y24.9323
G01 X31.4899 Y24.9743
G01 X31.4808 Y24.9780
G01 X31.3884 Y25.0111
G01 X31.3790 Y25.0139
G01 X31.2838 Y25.0378
G01 X31.2742 Y25.0397
G01 X31.1771 Y25.0541
G01 X31.1674 Y25.0551
G01 X31.0693 Y25.0599
G01 X31.0595 Y25.0599
G01 X30.9599 Y25.0549
G01 X25.2096 Y30.8052
G01 X25.1624 Y30.8481
G01 X25.1548 Y30.8544
G01 X25.1075 Y30.8895
G01 X25.0993 Y30.8949
G01 X25.0488 Y30.9252
G01 X25.0402 Y30.9298
G01 X24.9869 Y30.9550
G01 X24.9778 Y30.9588
G01 X24.9224 Y30.9786
G01 X24.9130 Y30.9815
G01 X24.8558 Y30.9958
G01 X24.8462 Y30.9977
G01 X24.7879 Y31.0063
G01 X24.7782 Y31.0073
G01 X24.7144 Y31.0103
G01 X14.6256 Y31.0103
G01 X14.5618 Y31.0073
G01 X14.5520 Y31.0063
G01 X14.4938 Y30.9977
G01 X14.4841 Y30.9958
G01 X14.4270 Y30.9815
G01 X14.4176 Y30.9786
G01 X14.3621 Y30.9588
G01 X14.3531 Y30.9550
G01 X14.2998 Y30.9298
G01 X14.2912 Y30.9252
G01 X14.2406 Y30.8949
G01 X14.2325 Y30.8895
G01 X14.1852 Y30.8544
G01 X14.1776 Y30.8481
G01 X14.1304 Y30.8052
G01 X8.3801 Y25.0549
G00 Z2.0000
M05
G00 Z2.0000
G00 Z15.00
G00 X0.0 Y0.0

