(G-CODE GENERATED BY FLATCAM v8.991 - www.flatcam.org - Version Date: 2019/12/27)

(Name: Gerber_BottomLayer.GBL_iso5_cnc)
(Type: G-code from Geometry)
(Units: MM)

(Created on Friday, 05 July 2024 at 18:32)

(TOOL DIAMETER: 0.2 mm)
(Feedrate: 120.0 mm/min)
(Feedrate_Z: 60.0 mm/min)
(Feedrate rapids 1500.0 mm/min)

(Z_Cut: -0.09 mm)
(Z_Move: 2.0 mm)
(Z Toolchange: 15.0 mm)
(X,Y Toolchange: 0.0000, 0.0000 mm)
(Z Start: None mm)
(Z End: 15.0 mm)
(Steps per circle: 64)
(Preprocessor Geometry: default)

(X range:    3.8810 ...   43.0434  mm)
(Y range:   -0.1933 ...   31.7303  mm)

(Spindle Speed: None RPM)
G21
G90
G94




G01 F120.00
G00 Z2.0000

M03
G00 X4.2797 Y7.5833
G01 F60.00
G01 Z-0.0900
G01 F120.00
G01 X4.2797 Y6.5610
G01 X4.2807 Y6.5208
G01 X4.2836 Y6.4619
G01 X4.2915 Y6.3818
G01 X4.3001 Y6.3236
G01 X4.3158 Y6.2446
G01 X4.3301 Y6.1875
G01 X4.3535 Y6.1105
G01 X4.3733 Y6.0550
G01 X4.4041 Y5.9807
G01 X4.4293 Y5.9274
G01 X4.4672 Y5.8565
G01 X4.4975 Y5.8059
G01 X4.5422 Y5.7390
G01 X4.5773 Y5.6917
G01 X4.6284 Y5.6295
G01 X4.6679 Y5.5858
G01 X4.6957 Y5.5567
G01 X10.0297 Y0.2227
G01 X10.0588 Y0.1949
G01 X10.1025 Y0.1554
G01 X10.1647 Y0.1043
G01 X10.2120 Y0.0692
G01 X10.2789 Y0.0245
G01 X10.3295 Y-0.0058
G01 X10.4004 Y-0.0437
G01 X10.4537 Y-0.0689
G01 X10.5280 Y-0.0997
G01 X10.5835 Y-0.1195
G01 X10.6605 Y-0.1429
G01 X10.7176 Y-0.1572
G01 X10.7966 Y-0.1729
G01 X10.8548 Y-0.1815
G01 X10.9349 Y-0.1894
G01 X10.9938 Y-0.1923
G01 X11.0340 Y-0.1933
G01 X37.4500 Y-0.1933
G01 X37.4902 Y-0.1923
G01 X37.5491 Y-0.1894
G01 X37.6292 Y-0.1815
G01 X37.6874 Y-0.1729
G01 X37.7664 Y-0.1572
G01 X37.8235 Y-0.1429
G01 X37.9005 Y-0.1195
G01 X37.9560 Y-0.0997
G01 X38.0303 Y-0.0689
G01 X38.0836 Y-0.0437
G01 X38.1545 Y-0.0058
G01 X38.2051 Y0.0245
G01 X38.2720 Y0.0692
G01 X38.3193 Y0.1043
G01 X38.3815 Y0.1554
G01 X38.4252 Y0.1949
G01 X38.4543 Y0.2227
G01 X42.2287 Y3.9971
G01 X42.2565 Y4.0263
G01 X42.2960 Y4.0699
G01 X42.3471 Y4.1321
G01 X42.3822 Y4.1795
G01 X42.4269 Y4.2464
G01 X42.4572 Y4.2969
G01 X42.4951 Y4.3679
G01 X42.5203 Y4.4211
G01 X42.5511 Y4.4955
G01 X42.5709 Y4.5509
G01 X42.5943 Y4.6279
G01 X42.6086 Y4.6851
G01 X42.6243 Y4.7640
G01 X42.6330 Y4.8223
G01 X42.6409 Y4.9024
G01 X42.6437 Y4.9612
G01 X42.6447 Y5.0014
G01 X42.6447 Y7.5833
G01 X42.6561 Y7.5971
G01 X42.7145 Y7.6760
G01 X42.7592 Y7.7429
G01 X42.8097 Y7.8270
G01 X42.8476 Y7.8980
G01 X42.8896 Y7.9867
G01 X42.9204 Y8.0611
G01 X42.9534 Y8.1535
G01 X42.9768 Y8.2305
G01 X43.0006 Y8.3257
G01 X43.0163 Y8.4046
G01 X43.0307 Y8.5017
G01 X43.0386 Y8.5817
G01 X43.0434 Y8.6798
G01 X43.0434 Y8.7602
G01 X43.0386 Y8.8583
G01 X43.0307 Y8.9383
G01 X43.0163 Y9.0354
G01 X43.0006 Y9.1143
G01 X42.9768 Y9.2095
G01 X42.9534 Y9.2865
G01 X42.9204 Y9.3789
G01 X42.8896 Y9.4533
G01 X42.8476 Y9.5420
G01 X42.8097 Y9.6130
G01 X42.7592 Y9.6971
G01 X42.7145 Y9.7640
G01 X42.6561 Y9.8429
G01 X42.6448 Y9.8566
G01 X42.6448 Y22.8234
G01 X42.6561 Y22.8371
G01 X42.7145 Y22.9160
G01 X42.7592 Y22.9829
G01 X42.8097 Y23.0670
G01 X42.8476 Y23.1380
G01 X42.8896 Y23.2267
G01 X42.9204 Y23.3011
G01 X42.9534 Y23.3935
G01 X42.9768 Y23.4705
G01 X43.0006 Y23.5657
G01 X43.0163 Y23.6446
G01 X43.0307 Y23.7417
G01 X43.0386 Y23.8217
G01 X43.0434 Y23.9198
G01 X43.0434 Y24.0002
G01 X43.0386 Y24.0983
G01 X43.0307 Y24.1783
G01 X43.0163 Y24.2754
G01 X43.0006 Y24.3543
G01 X42.9768 Y24.4495
G01 X42.9534 Y24.5265
G01 X42.9204 Y24.6189
G01 X42.8896 Y24.6933
G01 X42.8476 Y24.7820
G01 X42.8097 Y24.8530
G01 X42.7592 Y24.9371
G01 X42.7145 Y25.0040
G01 X42.6561 Y25.0829
G01 X42.6050 Y25.1451
G01 X42.5391 Y25.2178
G01 X42.4822 Y25.2747
G01 X42.4095 Y25.3406
G01 X42.3473 Y25.3916
G01 X42.2685 Y25.4501
G01 X42.2016 Y25.4948
G01 X42.1174 Y25.5453
G01 X42.0464 Y25.5832
G01 X41.9577 Y25.6252
G01 X41.8834 Y25.6559
G01 X41.7910 Y25.6890
G01 X41.7140 Y25.7124
G01 X41.6188 Y25.7362
G01 X41.5398 Y25.7519
G01 X41.4428 Y25.7663
G01 X41.3627 Y25.7742
G01 X41.2647 Y25.7790
G01 X41.1842 Y25.7790
G01 X41.0862 Y25.7742
G01 X41.0061 Y25.7663
G01 X40.9090 Y25.7519
G01 X40.8301 Y25.7362
G01 X40.7349 Y25.7124
G01 X40.6579 Y25.6890
G01 X40.5655 Y25.6559
G01 X40.4912 Y25.6252
G01 X40.4024 Y25.5832
G01 X40.3315 Y25.5453
G01 X40.2473 Y25.4948
G01 X40.1804 Y25.4501
G01 X40.1016 Y25.3916
G01 X40.0394 Y25.3406
G01 X39.9666 Y25.2747
G01 X39.9097 Y25.2178
G01 X39.8438 Y25.1451
G01 X39.7928 Y25.0829
G01 X39.7343 Y25.0040
G01 X39.6896 Y24.9371
G01 X39.6392 Y24.8530
G01 X39.6012 Y24.7820
G01 X39.5593 Y24.6933
G01 X39.5285 Y24.6189
G01 X39.4954 Y24.5265
G01 X39.4721 Y24.4495
G01 X39.4482 Y24.3543
G01 X39.4325 Y24.2754
G01 X39.4181 Y24.1783
G01 X39.4102 Y24.0983
G01 X39.4054 Y24.0002
G01 X39.4054 Y23.9198
G01 X39.4102 Y23.8217
G01 X39.4181 Y23.7417
G01 X39.4325 Y23.6446
G01 X39.4482 Y23.5657
G01 X39.4721 Y23.4705
G01 X39.4954 Y23.3935
G01 X39.5285 Y23.3011
G01 X39.5593 Y23.2267
G01 X39.6012 Y23.1380
G01 X39.6392 Y23.0670
G01 X39.6896 Y22.9829
G01 X39.7343 Y22.9160
G01 X39.7928 Y22.8371
G01 X39.8042 Y22.8233
G01 X39.8042 Y9.8567
G01 X39.7928 Y9.8429
G01 X39.7343 Y9.7640
G01 X39.6896 Y9.6971
G01 X39.6392 Y9.6130
G01 X39.6012 Y9.5420
G01 X39.5593 Y9.4533
G01 X39.5285 Y9.3789
G01 X39.4954 Y9.2865
G01 X39.4721 Y9.2095
G01 X39.4482 Y9.1143
G01 X39.4325 Y9.0354
G01 X39.4181 Y8.9383
G01 X39.4102 Y8.8583
G01 X39.4054 Y8.7602
G01 X39.4054 Y8.6798
G01 X39.4102 Y8.5817
G01 X39.4181 Y8.5017
G01 X39.4325 Y8.4046
G01 X39.4482 Y8.3257
G01 X39.4721 Y8.2305
G01 X39.4954 Y8.1535
G01 X39.5285 Y8.0611
G01 X39.5593 Y7.9867
G01 X39.6012 Y7.8980
G01 X39.6392 Y7.8270
G01 X39.6896 Y7.7429
G01 X39.7343 Y7.6760
G01 X39.7928 Y7.5971
G01 X39.8041 Y7.5833
G01 X39.8041 Y5.5897
G01 X36.8617 Y2.6473
G01 X11.6223 Y2.6473
G01 X7.1203 Y7.1493
G01 X7.1203 Y7.5833
G01 X7.1316 Y7.5971
G01 X7.1901 Y7.6760
G01 X7.2348 Y7.7429
G01 X7.2853 Y7.8270
G01 X7.3232 Y7.8980
G01 X7.3652 Y7.9867
G01 X7.3959 Y8.0611
G01 X7.4290 Y8.1535
G01 X7.4524 Y8.2305
G01 X7.4762 Y8.3257
G01 X7.4919 Y8.4046
G01 X7.5063 Y8.5017
G01 X7.5142 Y8.5817
G01 X7.5190 Y8.6798
G01 X7.5190 Y8.7602
G01 X7.5142 Y8.8583
G01 X7.5063 Y8.9383
G01 X7.4919 Y9.0354
G01 X7.4762 Y9.1143
G01 X7.4524 Y9.2095
G01 X7.4290 Y9.2865
G01 X7.3959 Y9.3789
G01 X7.3652 Y9.4533
G01 X7.3232 Y9.5420
G01 X7.2853 Y9.6130
G01 X7.2348 Y9.6971
G01 X7.1901 Y9.7640
G01 X7.1316 Y9.8429
G01 X7.0806 Y9.9051
G01 X7.0147 Y9.9778
G01 X6.9578 Y10.0347
G01 X6.8851 Y10.1006
G01 X6.8229 Y10.1516
G01 X6.7440 Y10.2101
G01 X6.6771 Y10.2548
G01 X6.5930 Y10.3053
G01 X6.5220 Y10.3432
G01 X6.4333 Y10.3852
G01 X6.3589 Y10.4159
G01 X6.2665 Y10.4490
G01 X6.1895 Y10.4724
G01 X6.0943 Y10.4962
G01 X6.0154 Y10.5119
G01 X5.9183 Y10.5263
G01 X5.8383 Y10.5342
G01 X5.7402 Y10.5390
G01 X5.6598 Y10.5390
G01 X5.5617 Y10.5342
G01 X5.4817 Y10.5263
G01 X5.3846 Y10.5119
G01 X5.3057 Y10.4962
G01 X5.2105 Y10.4724
G01 X5.1335 Y10.4490
G01 X5.0411 Y10.4159
G01 X4.9667 Y10.3852
G01 X4.8780 Y10.3432
G01 X4.8070 Y10.3053
G01 X4.7229 Y10.2548
G01 X4.6560 Y10.2101
G01 X4.5771 Y10.1516
G01 X4.5149 Y10.1006
G01 X4.4422 Y10.0347
G01 X4.3853 Y9.9778
G01 X4.3194 Y9.9051
G01 X4.2684 Y9.8429
G01 X4.2099 Y9.7640
G01 X4.1652 Y9.6971
G01 X4.1147 Y9.6130
G01 X4.0768 Y9.5420
G01 X4.0348 Y9.4533
G01 X4.0041 Y9.3789
G01 X3.9710 Y9.2865
G01 X3.9476 Y9.2095
G01 X3.9238 Y9.1143
G01 X3.9081 Y9.0354
G01 X3.8937 Y8.9383
G01 X3.8858 Y8.8583
G01 X3.8810 Y8.7602
G01 X3.8810 Y8.6798
G01 X3.8858 Y8.5817
G01 X3.8937 Y8.5017
G01 X3.9081 Y8.4046
G01 X3.9238 Y8.3257
G01 X3.9476 Y8.2305
G01 X3.9710 Y8.1535
G01 X4.0041 Y8.0611
G01 X4.0348 Y7.9867
G01 X4.0768 Y7.8980
G01 X4.1147 Y7.8270
G01 X4.1652 Y7.7429
G01 X4.2099 Y7.6760
G01 X4.2684 Y7.5971
G01 X4.2797 Y7.5833
G00 Z2.0000
G00 X10.5795 Y6.9119
G01 F60.00
G01 Z-0.0900
G01 F120.00
G01 X14.2207 Y3.2707
G01 X14.2498 Y3.2429
G01 X14.2935 Y3.2034
G01 X14.3557 Y3.1523
G01 X14.4030 Y3.1172
G01 X14.4699 Y3.0725
G01 X14.5205 Y3.0422
G01 X14.5914 Y3.0043
G01 X14.6447 Y2.9791
G01 X14.7190 Y2.9483
G01 X14.7745 Y2.9285
G01 X14.8515 Y2.9051
G01 X14.9086 Y2.8908
G01 X14.9876 Y2.8751
G01 X15.0458 Y2.8665
G01 X15.1259 Y2.8586
G01 X15.1848 Y2.8557
G01 X15.2250 Y2.8547
G01 X31.7706 Y2.8547
G01 X31.8108 Y2.8557
G01 X31.8696 Y2.8586
G01 X31.9497 Y2.8665
G01 X32.0080 Y2.8751
G01 X32.0869 Y2.8908
G01 X32.1441 Y2.9051
G01 X32.2211 Y2.9285
G01 X32.2765 Y2.9483
G01 X32.3509 Y2.9791
G01 X32.4041 Y3.0043
G01 X32.4751 Y3.0422
G01 X32.5256 Y3.0725
G01 X32.5925 Y3.1172
G01 X32.6399 Y3.1523
G01 X32.7021 Y3.2034
G01 X32.7457 Y3.2429
G01 X32.7749 Y3.2707
G01 X36.4161 Y6.9119
G01 X36.4339 Y6.9137
G01 X36.5310 Y6.9281
G01 X36.6099 Y6.9438
G01 X36.7051 Y6.9676
G01 X36.7821 Y6.9910
G01 X36.8745 Y7.0241
G01 X36.9488 Y7.0548
G01 X37.0376 Y7.0968
G01 X37.1085 Y7.1347
G01 X37.1927 Y7.1852
G01 X37.2596 Y7.2299
G01 X37.3384 Y7.2884
G01 X37.4006 Y7.3394
G01 X37.4733 Y7.4053
G01 X37.5302 Y7.4622
G01 X37.5962 Y7.5349
G01 X37.6472 Y7.5971
G01 X37.7057 Y7.6760
G01 X37.7504 Y7.7429
G01 X37.8008 Y7.8270
G01 X37.8388 Y7.8980
G01 X37.8807 Y7.9867
G01 X37.9115 Y8.0611
G01 X37.9446 Y8.1535
G01 X37.9679 Y8.2305
G01 X37.9918 Y8.3257
G01 X38.0075 Y8.4046
G01 X38.0219 Y8.5017
G01 X38.0298 Y8.5817
G01 X38.0346 Y8.6798
G01 X38.0346 Y8.7602
G01 X38.0298 Y8.8583
G01 X38.0219 Y8.9383
G01 X38.0075 Y9.0354
G01 X37.9918 Y9.1143
G01 X37.9679 Y9.2095
G01 X37.9446 Y9.2865
G01 X37.9115 Y9.3789
G01 X37.8807 Y9.4533
G01 X37.8388 Y9.5420
G01 X37.8008 Y9.6130
G01 X37.7504 Y9.6971
G01 X37.7057 Y9.7640
G01 X37.6472 Y9.8429
G01 X37.6359 Y9.8567
G01 X37.6359 Y22.8233
G01 X37.6472 Y22.8371
G01 X37.7057 Y22.9160
G01 X37.7504 Y22.9829
G01 X37.8008 Y23.0670
G01 X37.8388 Y23.1380
G01 X37.8807 Y23.2267
G01 X37.9115 Y23.3011
G01 X37.9446 Y23.3935
G01 X37.9679 Y23.4705
G01 X37.9918 Y23.5657
G01 X38.0075 Y23.6446
G01 X38.0219 Y23.7417
G01 X38.0298 Y23.8217
G01 X38.0346 Y23.9198
G01 X38.0346 Y24.0002
G01 X38.0298 Y24.0983
G01 X38.0219 Y24.1783
G01 X38.0075 Y24.2754
G01 X37.9918 Y24.3543
G01 X37.9679 Y24.4495
G01 X37.9446 Y24.5265
G01 X37.9115 Y24.6189
G01 X37.8807 Y24.6933
G01 X37.8388 Y24.7820
G01 X37.8008 Y24.8530
G01 X37.7504 Y24.9371
G01 X37.7057 Y25.0040
G01 X37.6472 Y25.0829
G01 X37.5962 Y25.1451
G01 X37.5302 Y25.2178
G01 X37.4733 Y25.2747
G01 X37.4006 Y25.3406
G01 X37.3384 Y25.3916
G01 X37.2596 Y25.4501
G01 X37.1927 Y25.4948
G01 X37.1085 Y25.5453
G01 X37.0376 Y25.5832
G01 X36.9488 Y25.6252
G01 X36.8745 Y25.6559
G01 X36.7821 Y25.6890
G01 X36.7051 Y25.7124
G01 X36.6099 Y25.7362
G01 X36.5310 Y25.7519
G01 X36.4339 Y25.7663
G01 X36.3538 Y25.7742
G01 X36.2558 Y25.7790
G01 X36.1753 Y25.7790
G01 X36.0773 Y25.7742
G01 X35.9972 Y25.7663
G01 X35.9002 Y25.7519
G01 X35.8212 Y25.7362
G01 X35.7260 Y25.7124
G01 X35.6490 Y25.6890
G01 X35.5566 Y25.6559
G01 X35.4823 Y25.6252
G01 X35.3936 Y25.5832
G01 X35.3226 Y25.5453
G01 X35.2384 Y25.4948
G01 X35.1715 Y25.4501
G01 X35.0927 Y25.3916
G01 X35.0305 Y25.3406
G01 X34.9578 Y25.2747
G01 X34.9009 Y25.2178
G01 X34.8350 Y25.1451
G01 X34.7839 Y25.0829
G01 X34.7255 Y25.0040
G01 X34.6808 Y24.9371
G01 X34.6303 Y24.8530
G01 X34.5924 Y24.7820
G01 X34.5504 Y24.6933
G01 X34.5196 Y24.6189
G01 X34.4866 Y24.5265
G01 X34.4632 Y24.4495
G01 X34.4393 Y24.3543
G01 X34.4237 Y24.2754
G01 X34.4093 Y24.1783
G01 X34.4014 Y24.0983
G01 X34.3965 Y24.0002
G01 X34.3965 Y23.9198
G01 X34.4014 Y23.8217
G01 X34.4093 Y23.7417
G01 X34.4237 Y23.6446
G01 X34.4393 Y23.5657
G01 X34.4632 Y23.4705
G01 X34.4866 Y23.3935
G01 X34.5196 Y23.3011
G01 X34.5504 Y23.2267
G01 X34.5924 Y23.1380
G01 X34.6303 Y23.0670
G01 X34.6808 Y22.9829
G01 X34.7255 Y22.9160
G01 X34.7839 Y22.8371
G01 X34.7953 Y22.8233
G01 X34.7953 Y9.8567
G01 X34.7839 Y9.8429
G01 X34.7255 Y9.7640
G01 X34.6808 Y9.6971
G01 X34.6303 Y9.6130
G01 X34.5924 Y9.5420
G01 X34.5504 Y9.4533
G01 X34.5196 Y9.3789
G01 X34.4866 Y9.2865
G01 X34.4632 Y9.2095
G01 X34.4393 Y9.1143
G01 X34.4237 Y9.0354
G01 X34.4093 Y8.9383
G01 X34.4075 Y8.9205
G01 X31.1823 Y5.6953
G01 X15.8133 Y5.6953
G01 X12.5881 Y8.9205
G01 X12.5863 Y8.9383
G01 X12.5719 Y9.0354
G01 X12.5562 Y9.1143
G01 X12.5324 Y9.2095
G01 X12.5090 Y9.2865
G01 X12.4759 Y9.3789
G01 X12.4452 Y9.4533
G01 X12.4032 Y9.5420
G01 X12.3653 Y9.6130
G01 X12.3148 Y9.6971
G01 X12.2701 Y9.7640
G01 X12.2116 Y9.8429
G01 X12.1606 Y9.9051
G01 X12.0947 Y9.9778
G01 X12.0378 Y10.0347
G01 X11.9651 Y10.1006
G01 X11.9029 Y10.1516
G01 X11.8240 Y10.2101
G01 X11.7571 Y10.2548
G01 X11.6730 Y10.3053
G01 X11.6020 Y10.3432
G01 X11.5133 Y10.3852
G01 X11.4389 Y10.4159
G01 X11.3465 Y10.4490
G01 X11.2695 Y10.4724
G01 X11.1743 Y10.4962
G01 X11.0954 Y10.5119
G01 X10.9983 Y10.5263
G01 X10.9183 Y10.5342
G01 X10.8202 Y10.5390
G01 X10.7398 Y10.5390
G01 X10.6417 Y10.5342
G01 X10.5617 Y10.5263
G01 X10.4646 Y10.5119
G01 X10.3857 Y10.4962
G01 X10.2905 Y10.4724
G01 X10.2135 Y10.4490
G01 X10.1211 Y10.4159
G01 X10.0467 Y10.3852
G01 X9.9580 Y10.3432
G01 X9.8870 Y10.3053
G01 X9.8029 Y10.2548
G01 X9.7360 Y10.2101
G01 X9.6571 Y10.1516
G01 X9.5949 Y10.1006
G01 X9.5222 Y10.0347
G01 X9.4653 Y9.9778
G01 X9.3994 Y9.9051
G01 X9.3484 Y9.8429
G01 X9.2899 Y9.7640
G01 X9.2452 Y9.6971
G01 X9.1947 Y9.6130
G01 X9.1568 Y9.5420
G01 X9.1148 Y9.4533
G01 X9.0841 Y9.3789
G01 X9.0510 Y9.2865
G01 X9.0276 Y9.2095
G01 X9.0038 Y9.1143
G01 X8.9881 Y9.0354
G01 X8.9737 Y8.9383
G01 X8.9658 Y8.8583
G01 X8.9610 Y8.7602
G01 X8.9610 Y8.6798
G01 X8.9658 Y8.5817
G01 X8.9737 Y8.5017
G01 X8.9881 Y8.4046
G01 X9.0038 Y8.3257
G01 X9.0276 Y8.2305
G01 X9.0510 Y8.1535
G01 X9.0841 Y8.0611
G01 X9.1148 Y7.9867
G01 X9.1568 Y7.8980
G01 X9.1947 Y7.8270
G01 X9.2452 Y7.7429
G01 X9.2899 Y7.6760
G01 X9.3484 Y7.5971
G01 X9.3994 Y7.5349
G01 X9.4653 Y7.4622
G01 X9.5222 Y7.4053
G01 X9.5949 Y7.3394
G01 X9.6571 Y7.2884
G01 X9.7360 Y7.2299
G01 X9.8029 Y7.1852
G01 X9.8870 Y7.1347
G01 X9.9580 Y7.0968
G01 X10.0467 Y7.0548
G01 X10.1211 Y7.0241
G01 X10.2135 Y6.9910
G01 X10.2905 Y6.9676
G01 X10.3857 Y6.9438
G01 X10.4646 Y6.9281
G01 X10.5617 Y6.9137
G01 X10.5795 Y6.9119
G00 Z2.0000
G00 X14.4211 Y25.3803
G01 F60.00
G01 Z-0.0900
G01 F120.00
G01 X14.4073 Y25.3916
G01 X14.3285 Y25.4501
G01 X14.2616 Y25.4948
G01 X14.1774 Y25.5453
G01 X14.1064 Y25.5832
G01 X14.0177 Y25.6252
G01 X13.9434 Y25.6559
G01 X13.8510 Y25.6890
G01 X13.7740 Y25.7124
G01 X13.6788 Y25.7362
G01 X13.5998 Y25.7519
G01 X13.5028 Y25.7663
G01 X13.4227 Y25.7742
G01 X13.3247 Y25.7790
G01 X13.2442 Y25.7790
G01 X13.1462 Y25.7742
G01 X13.0661 Y25.7663
G01 X12.9690 Y25.7519
G01 X12.8901 Y25.7362
G01 X12.7949 Y25.7124
G01 X12.7179 Y25.6890
G01 X12.6255 Y25.6559
G01 X12.5512 Y25.6252
G01 X12.4624 Y25.5832
G01 X12.3915 Y25.5453
G01 X12.3073 Y25.4948
G01 X12.2404 Y25.4501
G01 X12.1616 Y25.3916
G01 X12.0994 Y25.3406
G01 X12.0266 Y25.2747
G01 X11.9697 Y25.2178
G01 X11.9038 Y25.1451
G01 X11.8528 Y25.0829
G01 X11.7943 Y25.0040
G01 X11.7496 Y24.9371
G01 X11.6992 Y24.8530
G01 X11.6612 Y24.7820
G01 X11.6193 Y24.6933
G01 X11.5885 Y24.6189
G01 X11.5554 Y24.5265
G01 X11.5321 Y24.4495
G01 X11.5082 Y24.3543
G01 X11.4925 Y24.2754
G01 X11.4781 Y24.1783
G01 X11.4702 Y24.0983
G01 X11.4654 Y24.0002
G01 X11.4654 Y23.9198
G01 X11.4702 Y23.8217
G01 X11.4781 Y23.7417
G01 X11.4925 Y23.6446
G01 X11.5082 Y23.5657
G01 X11.5321 Y23.4705
G01 X11.5554 Y23.3935
G01 X11.5885 Y23.3011
G01 X11.6193 Y23.2267
G01 X11.6612 Y23.1380
G01 X11.6992 Y23.0670
G01 X11.7496 Y22.9829
G01 X11.7943 Y22.9160
G01 X11.8528 Y22.8371
G01 X11.9038 Y22.7749
G01 X11.9697 Y22.7022
G01 X12.0266 Y22.6453
G01 X12.0994 Y22.5794
G01 X12.1616 Y22.5284
G01 X12.2404 Y22.4699
G01 X12.3073 Y22.4252
G01 X12.3915 Y22.3747
G01 X12.4624 Y22.3368
G01 X12.5512 Y22.2948
G01 X12.6255 Y22.2641
G01 X12.7179 Y22.2310
G01 X12.7949 Y22.2076
G01 X12.8901 Y22.1838
G01 X12.9690 Y22.1681
G01 X13.0661 Y22.1537
G01 X13.1462 Y22.1458
G01 X13.2442 Y22.1410
G01 X13.3247 Y22.1410
G01 X13.4227 Y22.1458
G01 X13.5028 Y22.1537
G01 X13.5998 Y22.1681
G01 X13.6788 Y22.1838
G01 X13.7740 Y22.2076
G01 X13.8510 Y22.2310
G01 X13.9434 Y22.2641
G01 X14.0177 Y22.2948
G01 X14.1064 Y22.3368
G01 X14.1774 Y22.3747
G01 X14.2616 Y22.4252
G01 X14.3285 Y22.4699
G01 X14.4073 Y22.5284
G01 X14.4211 Y22.5397
G01 X24.6353 Y22.5397
G01 X24.6353 Y9.8567
G01 X24.6239 Y9.8429
G01 X24.5655 Y9.7640
G01 X24.5208 Y9.6971
G01 X24.4703 Y9.6130
G01 X24.4324 Y9.5420
G01 X24.3904 Y9.4533
G01 X24.3596 Y9.3789
G01 X24.3266 Y9.2865
G01 X24.3032 Y9.2095
G01 X24.2793 Y9.1143
G01 X24.2637 Y9.0354
G01 X24.2493 Y8.9383
G01 X24.2414 Y8.8583
G01 X24.2365 Y8.7602
G01 X24.2365 Y8.6798
G01 X24.2414 Y8.5817
G01 X24.2493 Y8.5017
G01 X24.2637 Y8.4046
G01 X24.2793 Y8.3257
G01 X24.3032 Y8.2305
G01 X24.3266 Y8.1535
G01 X24.3596 Y8.0611
G01 X24.3904 Y7.9867
G01 X24.4324 Y7.8980
G01 X24.4703 Y7.8270
G01 X24.5208 Y7.7429
G01 X24.5655 Y7.6760
G01 X24.6239 Y7.5971
G01 X24.6750 Y7.5349
G01 X24.7409 Y7.4622
G01 X24.7978 Y7.4053
G01 X24.8705 Y7.3394
G01 X24.9327 Y7.2884
G01 X25.0115 Y7.2299
G01 X25.0784 Y7.1852
G01 X25.1626 Y7.1347
G01 X25.2336 Y7.0968
G01 X25.3223 Y7.0548
G01 X25.3966 Y7.0241
G01 X25.4890 Y6.9910
G01 X25.5660 Y6.9676
G01 X25.6612 Y6.9438
G01 X25.7402 Y6.9281
G01 X25.8372 Y6.9137
G01 X25.9173 Y6.9058
G01 X26.0153 Y6.9010
G01 X26.0958 Y6.9010
G01 X26.1938 Y6.9058
G01 X26.2739 Y6.9137
G01 X26.3710 Y6.9281
G01 X26.4499 Y6.9438
G01 X26.5451 Y6.9676
G01 X26.6221 Y6.9910
G01 X26.7145 Y7.0241
G01 X26.7888 Y7.0548
G01 X26.8776 Y7.0968
G01 X26.9485 Y7.1347
G01 X27.0327 Y7.1852
G01 X27.0996 Y7.2299
G01 X27.1784 Y7.2884
G01 X27.2406 Y7.3394
G01 X27.3133 Y7.4053
G01 X27.3702 Y7.4622
G01 X27.4362 Y7.5349
G01 X27.4872 Y7.5971
G01 X27.5457 Y7.6760
G01 X27.5904 Y7.7429
G01 X27.6408 Y7.8270
G01 X27.6788 Y7.8980
G01 X27.7207 Y7.9867
G01 X27.7515 Y8.0611
G01 X27.7846 Y8.1535
G01 X27.8079 Y8.2305
G01 X27.8318 Y8.3257
G01 X27.8475 Y8.4046
G01 X27.8619 Y8.5017
G01 X27.8698 Y8.5817
G01 X27.8746 Y8.6798
G01 X27.8746 Y8.7602
G01 X27.8698 Y8.8583
G01 X27.8619 Y8.9383
G01 X27.8475 Y9.0354
G01 X27.8318 Y9.1143
G01 X27.8079 Y9.2095
G01 X27.7846 Y9.2865
G01 X27.7515 Y9.3789
G01 X27.7207 Y9.4533
G01 X27.6788 Y9.5420
G01 X27.6408 Y9.6130
G01 X27.5904 Y9.6971
G01 X27.5457 Y9.7640
G01 X27.4872 Y9.8429
G01 X27.4759 Y9.8567
G01 X27.4759 Y22.8233
G01 X27.4872 Y22.8371
G01 X27.5457 Y22.9160
G01 X27.5904 Y22.9829
G01 X27.6408 Y23.0670
G01 X27.6788 Y23.1380
G01 X27.7207 Y23.2267
G01 X27.7515 Y23.3011
G01 X27.7846 Y23.3935
G01 X27.8079 Y23.4705
G01 X27.8318 Y23.5657
G01 X27.8475 Y23.6446
G01 X27.8619 Y23.7417
G01 X27.8698 Y23.8217
G01 X27.8746 Y23.9198
G01 X27.8746 Y24.0002
G01 X27.8698 Y24.0983
G01 X27.8619 Y24.1783
G01 X27.8475 Y24.2754
G01 X27.8318 Y24.3543
G01 X27.8079 Y24.4495
G01 X27.7846 Y24.5265
G01 X27.7515 Y24.6189
G01 X27.7207 Y24.6933
G01 X27.6788 Y24.7820
G01 X27.6408 Y24.8530
G01 X27.5904 Y24.9371
G01 X27.5457 Y25.0040
G01 X27.4872 Y25.0829
G01 X27.4362 Y25.1451
G01 X27.3702 Y25.2178
G01 X27.3133 Y25.2747
G01 X27.2406 Y25.3406
G01 X27.1784 Y25.3916
G01 X27.0996 Y25.4501
G01 X27.0327 Y25.4948
G01 X26.9485 Y25.5453
G01 X26.8776 Y25.5832
G01 X26.7888 Y25.6252
G01 X26.7145 Y25.6559
G01 X26.6221 Y25.6890
G01 X26.5451 Y25.7124
G01 X26.4499 Y25.7362
G01 X26.3710 Y25.7519
G01 X26.2739 Y25.7663
G01 X26.1938 Y25.7742
G01 X26.0958 Y25.7790
G01 X26.0153 Y25.7790
G01 X25.9173 Y25.7742
G01 X25.8372 Y25.7663
G01 X25.7402 Y25.7519
G01 X25.6612 Y25.7362
G01 X25.5660 Y25.7124
G01 X25.4890 Y25.6890
G01 X25.3966 Y25.6559
G01 X25.3223 Y25.6252
G01 X25.2336 Y25.5832
G01 X25.1626 Y25.5453
G01 X25.0784 Y25.4948
G01 X25.0115 Y25.4501
G01 X24.9327 Y25.3916
G01 X24.9189 Y25.3803
G01 X14.4211 Y25.3803
G00 Z2.0000
G00 X8.0750 Y25.7681
G01 F60.00
G01 Z-0.0900
G01 F120.00
G01 X8.0572 Y25.7663
G01 X7.9601 Y25.7519
G01 X7.8812 Y25.7362
G01 X7.7860 Y25.7124
G01 X7.7090 Y25.6890
G01 X7.6166 Y25.6559
G01 X7.5423 Y25.6252
G01 X7.4536 Y25.5832
G01 X7.3826 Y25.5453
G01 X7.2984 Y25.4948
G01 X7.2315 Y25.4501
G01 X7.1527 Y25.3916
G01 X7.0905 Y25.3406
G01 X7.0178 Y25.2747
G01 X6.9609 Y25.2178
G01 X6.8950 Y25.1451
G01 X6.8439 Y25.0829
G01 X6.7855 Y25.0040
G01 X6.7407 Y24.9371
G01 X6.6903 Y24.8530
G01 X6.6524 Y24.7820
G01 X6.6104 Y24.6933
G01 X6.5796 Y24.6189
G01 X6.5465 Y24.5265
G01 X6.5232 Y24.4495
G01 X6.4993 Y24.3543
G01 X6.4836 Y24.2754
G01 X6.4692 Y24.1783
G01 X6.4614 Y24.0983
G01 X6.4565 Y24.0002
G01 X6.4565 Y23.9198
G01 X6.4614 Y23.8217
G01 X6.4692 Y23.7417
G01 X6.4836 Y23.6446
G01 X6.4993 Y23.5657
G01 X6.5232 Y23.4705
G01 X6.5465 Y23.3935
G01 X6.5796 Y23.3011
G01 X6.6104 Y23.2267
G01 X6.6524 Y23.1380
G01 X6.6903 Y23.0670
G01 X6.7407 Y22.9829
G01 X6.7855 Y22.9160
G01 X6.8439 Y22.8371
G01 X6.8950 Y22.7749
G01 X6.9609 Y22.7022
G01 X7.0178 Y22.6453
G01 X7.0905 Y22.5794
G01 X7.1527 Y22.5284
G01 X7.2315 Y22.4699
G01 X7.2984 Y22.4252
G01 X7.3826 Y22.3747
G01 X7.4536 Y22.3368
G01 X7.5423 Y22.2948
G01 X7.6166 Y22.2641
G01 X7.7090 Y22.2310
G01 X7.7860 Y22.2076
G01 X7.8812 Y22.1838
G01 X7.9601 Y22.1681
G01 X8.0572 Y22.1537
G01 X8.0751 Y22.1519
G01 X14.4397 Y15.7873
G01 X14.4397 Y9.8567
G01 X14.4284 Y9.8429
G01 X14.3699 Y9.7640
G01 X14.3252 Y9.6971
G01 X14.2747 Y9.6130
G01 X14.2368 Y9.5420
G01 X14.1948 Y9.4533
G01 X14.1641 Y9.3789
G01 X14.1310 Y9.2865
G01 X14.1076 Y9.2095
G01 X14.0838 Y9.1143
G01 X14.0681 Y9.0354
G01 X14.0537 Y8.9383
G01 X14.0458 Y8.8583
G01 X14.0410 Y8.7602
G01 X14.0410 Y8.6798
G01 X14.0458 Y8.5817
G01 X14.0537 Y8.5017
G01 X14.0681 Y8.4046
G01 X14.0838 Y8.3257
G01 X14.1076 Y8.2305
G01 X14.1310 Y8.1535
G01 X14.1641 Y8.0611
G01 X14.1948 Y7.9867
G01 X14.2368 Y7.8980
G01 X14.2747 Y7.8270
G01 X14.3252 Y7.7429
G01 X14.3699 Y7.6760
G01 X14.4284 Y7.5971
G01 X14.4794 Y7.5349
G01 X14.5453 Y7.4622
G01 X14.6022 Y7.4053
G01 X14.6749 Y7.3394
G01 X14.7371 Y7.2884
G01 X14.8160 Y7.2299
G01 X14.8829 Y7.1852
G01 X14.9670 Y7.1347
G01 X15.0380 Y7.0968
G01 X15.1267 Y7.0548
G01 X15.2011 Y7.0241
G01 X15.2935 Y6.9910
G01 X15.3705 Y6.9676
G01 X15.4657 Y6.9438
G01 X15.5446 Y6.9281
G01 X15.6417 Y6.9137
G01 X15.7217 Y6.9058
G01 X15.8198 Y6.9010
G01 X15.9002 Y6.9010
G01 X15.9983 Y6.9058
G01 X16.0783 Y6.9137
G01 X16.1754 Y6.9281
G01 X16.2543 Y6.9438
G01 X16.3495 Y6.9676
G01 X16.4265 Y6.9910
G01 X16.5189 Y7.0241
G01 X16.5933 Y7.0548
G01 X16.6820 Y7.0968
G01 X16.7530 Y7.1347
G01 X16.8371 Y7.1852
G01 X16.9040 Y7.2299
G01 X16.9829 Y7.2884
G01 X17.0451 Y7.3394
G01 X17.1178 Y7.4053
G01 X17.1747 Y7.4622
G01 X17.2406 Y7.5349
G01 X17.2916 Y7.5971
G01 X17.3501 Y7.6760
G01 X17.3948 Y7.7429
G01 X17.4453 Y7.8270
G01 X17.4832 Y7.8980
G01 X17.5252 Y7.9867
G01 X17.5559 Y8.0611
G01 X17.5890 Y8.1535
G01 X17.6124 Y8.2305
G01 X17.6362 Y8.3257
G01 X17.6519 Y8.4046
G01 X17.6663 Y8.5017
G01 X17.6742 Y8.5817
G01 X17.6790 Y8.6798
G01 X17.6790 Y8.7602
G01 X17.6742 Y8.8583
G01 X17.6663 Y8.9383
G01 X17.6519 Y9.0354
G01 X17.6362 Y9.1143
G01 X17.6124 Y9.2095
G01 X17.5890 Y9.2865
G01 X17.5559 Y9.3789
G01 X17.5252 Y9.4533
G01 X17.4832 Y9.5420
G01 X17.4453 Y9.6130
G01 X17.3948 Y9.6971
G01 X17.3501 Y9.7640
G01 X17.2916 Y9.8429
G01 X17.2803 Y9.8567
G01 X17.2803 Y16.3756
G01 X17.2793 Y16.4158
G01 X17.2764 Y16.4747
G01 X17.2686 Y16.5547
G01 X17.2599 Y16.6130
G01 X17.2442 Y16.6919
G01 X17.2299 Y16.7491
G01 X17.2065 Y16.8261
G01 X17.1867 Y16.8816
G01 X17.1559 Y16.9559
G01 X17.1307 Y17.0092
G01 X17.0928 Y17.0801
G01 X17.0625 Y17.1307
G01 X17.0178 Y17.1976
G01 X16.9827 Y17.2449
G01 X16.9316 Y17.3071
G01 X16.8921 Y17.3507
G01 X16.8643 Y17.3799
G01 X10.2842 Y23.9600
G01 X15.2139 Y28.8897
G01 X24.1261 Y28.8897
G01 X29.2564 Y23.7595
G01 X29.2581 Y23.7417
G01 X29.2725 Y23.6446
G01 X29.2882 Y23.5657
G01 X29.3121 Y23.4705
G01 X29.3354 Y23.3935
G01 X29.3685 Y23.3011
G01 X29.3993 Y23.2267
G01 X29.4412 Y23.1380
G01 X29.4792 Y23.0670
G01 X29.5296 Y22.9829
G01 X29.5743 Y22.9160
G01 X29.6328 Y22.8371
G01 X29.6442 Y22.8233
G01 X29.6442 Y9.8567
G01 X29.6328 Y9.8429
G01 X29.5743 Y9.7640
G01 X29.5296 Y9.6971
G01 X29.4792 Y9.6130
G01 X29.4412 Y9.5420
G01 X29.3993 Y9.4533
G01 X29.3685 Y9.3789
G01 X29.3354 Y9.2865
G01 X29.3121 Y9.2095
G01 X29.2882 Y9.1143
G01 X29.2725 Y9.0354
G01 X29.2581 Y8.9383
G01 X29.2502 Y8.8583
G01 X29.2454 Y8.7602
G01 X29.2454 Y8.6798
G01 X29.2502 Y8.5817
G01 X29.2581 Y8.5017
G01 X29.2725 Y8.4046
G01 X29.2882 Y8.3257
G01 X29.3121 Y8.2305
G01 X29.3354 Y8.1535
G01 X29.3685 Y8.0611
G01 X29.3993 Y7.9867
G01 X29.4412 Y7.8980
G01 X29.4792 Y7.8270
G01 X29.5296 Y7.7429
G01 X29.5743 Y7.6760
G01 X29.6328 Y7.5971
G01 X29.6838 Y7.5349
G01 X29.7497 Y7.4622
G01 X29.8066 Y7.4053
G01 X29.8794 Y7.3394
G01 X29.9416 Y7.2884
G01 X30.0204 Y7.2299
G01 X30.0873 Y7.1852
G01 X30.1715 Y7.1347
G01 X30.2424 Y7.0968
G01 X30.3312 Y7.0548
G01 X30.4055 Y7.0241
G01 X30.4979 Y6.9910
G01 X30.5749 Y6.9676
G01 X30.6701 Y6.9438
G01 X30.7490 Y6.9281
G01 X30.8461 Y6.9137
G01 X30.9262 Y6.9058
G01 X31.0242 Y6.9010
G01 X31.1047 Y6.9010
G01 X31.2027 Y6.9058
G01 X31.2828 Y6.9137
G01 X31.3798 Y6.9281
G01 X31.4588 Y6.9438
G01 X31.5540 Y6.9676
G01 X31.6310 Y6.9910
G01 X31.7234 Y7.0241
G01 X31.7977 Y7.0548
G01 X31.8864 Y7.0968
G01 X31.9574 Y7.1347
G01 X32.0416 Y7.1852
G01 X32.1085 Y7.2299
G01 X32.1873 Y7.2884
G01 X32.2495 Y7.3394
G01 X32.3222 Y7.4053
G01 X32.3791 Y7.4622
G01 X32.4450 Y7.5349
G01 X32.4961 Y7.5971
G01 X32.5545 Y7.6760
G01 X32.5992 Y7.7429
G01 X32.6497 Y7.8270
G01 X32.6876 Y7.8980
G01 X32.7296 Y7.9867
G01 X32.7604 Y8.0611
G01 X32.7934 Y8.1535
G01 X32.8168 Y8.2305
G01 X32.8406 Y8.3257
G01 X32.8563 Y8.4046
G01 X32.8707 Y8.5017
G01 X32.8786 Y8.5817
G01 X32.8834 Y8.6798
G01 X32.8834 Y8.7602
G01 X32.8786 Y8.8583
G01 X32.8707 Y8.9383
G01 X32.8563 Y9.0354
G01 X32.8406 Y9.1143
G01 X32.8168 Y9.2095
G01 X32.7934 Y9.2865
G01 X32.7604 Y9.3789
G01 X32.7296 Y9.4533
G01 X32.6876 Y9.5420
G01 X32.6497 Y9.6130
G01 X32.5992 Y9.6971
G01 X32.5545 Y9.7640
G01 X32.4961 Y9.8429
G01 X32.4848 Y9.8566
G01 X32.4848 Y22.8234
G01 X32.4961 Y22.8371
G01 X32.5545 Y22.9160
G01 X32.5992 Y22.9829
G01 X32.6497 Y23.0670
G01 X32.6876 Y23.1380
G01 X32.7296 Y23.2267
G01 X32.7604 Y23.3011
G01 X32.7934 Y23.3935
G01 X32.8168 Y23.4705
G01 X32.8406 Y23.5657
G01 X32.8563 Y23.6446
G01 X32.8707 Y23.7417
G01 X32.8786 Y23.8217
G01 X32.8834 Y23.9198
G01 X32.8834 Y24.0002
G01 X32.8786 Y24.0983
G01 X32.8707 Y24.1783
G01 X32.8563 Y24.2754
G01 X32.8406 Y24.3543
G01 X32.8168 Y24.4495
G01 X32.7934 Y24.5265
G01 X32.7604 Y24.6189
G01 X32.7296 Y24.6933
G01 X32.6876 Y24.7820
G01 X32.6497 Y24.8530
G01 X32.5992 Y24.9371
G01 X32.5545 Y25.0040
G01 X32.4961 Y25.0829
G01 X32.4450 Y25.1451
G01 X32.3791 Y25.2178
G01 X32.3222 Y25.2747
G01 X32.2495 Y25.3406
G01 X32.1873 Y25.3916
G01 X32.1085 Y25.4501
G01 X32.0416 Y25.4948
G01 X31.9574 Y25.5453
G01 X31.8864 Y25.5832
G01 X31.7977 Y25.6252
G01 X31.7234 Y25.6559
G01 X31.6310 Y25.6890
G01 X31.5540 Y25.7124
G01 X31.4588 Y25.7362
G01 X31.3798 Y25.7519
G01 X31.2828 Y25.7663
G01 X31.2650 Y25.7681
G01 X25.7187 Y31.3143
G01 X25.6896 Y31.3421
G01 X25.6459 Y31.3816
G01 X25.5837 Y31.4327
G01 X25.5364 Y31.4678
G01 X25.4695 Y31.5125
G01 X25.4190 Y31.5428
G01 X25.3480 Y31.5807
G01 X25.2948 Y31.6059
G01 X25.2204 Y31.6367
G01 X25.1649 Y31.6565
G01 X25.0879 Y31.6799
G01 X25.0308 Y31.6942
G01 X24.9519 Y31.7099
G01 X24.8936 Y31.7185
G01 X24.8135 Y31.7264
G01 X24.7547 Y31.7293
G01 X24.7144 Y31.7303
G01 X14.6256 Y31.7303
G01 X14.5853 Y31.7293
G01 X14.5265 Y31.7264
G01 X14.4464 Y31.7185
G01 X14.3881 Y31.7099
G01 X14.3092 Y31.6942
G01 X14.2521 Y31.6799
G01 X14.1751 Y31.6565
G01 X14.1196 Y31.6367
G01 X14.0452 Y31.6059
G01 X13.9920 Y31.5807
G01 X13.9210 Y31.5428
G01 X13.8705 Y31.5125
G01 X13.8036 Y31.4678
G01 X13.7563 Y31.4327
G01 X13.6941 Y31.3816
G01 X13.6504 Y31.3421
G01 X13.6213 Y31.3143
G01 X8.0750 Y25.7681
G00 Z2.0000
M05
G00 Z2.0000
G00 Z15.00
G00 X0.0 Y0.0

